; generated by Slic3r 1.3.1-dev on 2019-04-08 at 10:23:57

; external perimeters extrusion width = 0.20mm (0.18mm^3/s)
; perimeters extrusion width = 0.20mm (0.18mm^3/s)
; infill extrusion width = 0.20mm (0.18mm^3/s)
; solid infill extrusion width = 0.20mm (0.18mm^3/s)
; top infill extrusion width = 0.20mm (0.18mm^3/s)

M107
M190 S120 ; set bed temperature and wait for it to be reached
M104 S65 ; set temperature
G205 P0
G28
M3 S255


G4 P1
G202 P1 X0
G4 P1
G203 P1
G201 P1 X0.5

; Filament gcode

M109 S65 ; set temperature and wait for it to be reached
G21 ; set units to millimeters
G90 ; use absolute coordinates
M82 ; use absolute distances for extrusion
G92 E0
G92 E0
G4 P1
;G201 P1 X1
;G202 P1 X0
;G201 P0 X300
;G201 P0 X0

G1 Z0.100 F7800.000
G0 X10 Y10 ; Laser to park position
G4 P1
G202 P1 X0
G4 P1
G203 P1
G201 P1 X0.3
G203 P1
G4 P1000
G201 P0 X240
G201 P0 X0





G1 E-0.90000 F3600.00000
G92 E0
G1 X32.108 Y4.726 F7800.000
G1 E0.90000 F3600.00000
M201 X10 Y10
M204 P10 T10
G1 F600
G1 X32.146 Y4.689 E0.90040
G1 X32.401 Y4.689 E0.90231
G1 X32.108 Y4.981 E0.90540
G1 X32.108 Y5.236 E0.90731
G1 X32.655 Y4.689 E0.91309
G1 X32.910 Y4.689 E0.91500
G1 X32.108 Y5.490 E0.92348
G1 X32.108 Y5.745 E0.92539
G1 X33.164 Y4.689 E0.93656
G1 X33.419 Y4.689 E0.93847
G1 X32.108 Y5.999 E0.95233
G1 X32.108 Y6.254 E0.95424
G1 X33.673 Y4.689 E0.97080
G1 X33.928 Y4.689 E0.97270
G1 X32.108 Y6.508 E0.99196
G1 X32.108 Y6.763 E0.99386
G1 X34.182 Y4.689 E1.01581
G1 X34.437 Y4.689 E1.01772
G1 X32.108 Y7.017 E1.04236
G1 X32.108 Y7.272 E1.04426
G1 X34.691 Y4.689 E1.07160
G1 X34.946 Y4.689 E1.07350
G1 X32.108 Y7.526 E1.10353
G1 X32.108 Y7.781 E1.10543
G1 X35.201 Y4.689 E1.13815
G1 X35.455 Y4.689 E1.14006
G1 X32.108 Y8.035 E1.17547
G1 X32.108 Y8.290 E1.17737
G1 X35.710 Y4.689 E1.21548
G1 X35.964 Y4.689 E1.21738
G1 X32.108 Y8.544 E1.25818
G1 X32.108 Y8.799 E1.26009
G1 X36.219 Y4.689 E1.30358
G1 X36.473 Y4.689 E1.30549
G1 X32.108 Y9.053 E1.35167
G1 X32.108 Y9.308 E1.35358
G1 X36.728 Y4.689 E1.40246
G1 X36.982 Y4.689 E1.40436
G1 X35.424 Y6.246 E1.42084
G1 X35.908 Y6.017 E1.42485
G1 X37.237 Y4.689 E1.43891
G1 X37.491 Y4.689 E1.44081
G1 X36.304 Y5.875 E1.45337
G1 X36.650 Y5.784 E1.45605
G1 X37.746 Y4.689 E1.46764
G1 X38.000 Y4.689 E1.46954
G1 X36.963 Y5.726 E1.48052
G1 X37.251 Y5.693 E1.48269
G1 X38.255 Y4.689 E1.49331
G1 X38.509 Y4.689 E1.49522
G1 X37.520 Y5.677 E1.50568
G1 X37.776 Y5.676 E1.50759
G1 X38.764 Y4.689 E1.51804
G1 X39.018 Y4.689 E1.51995
G1 X38.017 Y5.690 E1.53054
G1 X38.246 Y5.716 E1.53226
G1 X39.273 Y4.689 E1.54313
G1 X39.527 Y4.689 E1.54503
G1 X38.467 Y5.749 E1.55625
G1 X38.678 Y5.793 E1.55787
G1 X39.782 Y4.689 E1.56955
G1 X40.036 Y4.689 E1.57145
G1 X38.879 Y5.845 E1.58369
G1 X39.077 Y5.903 E1.58523
G1 X40.291 Y4.689 E1.59808
G1 X40.545 Y4.689 E1.59998
G1 X39.263 Y5.971 E1.61355
G1 X39.445 Y6.043 E1.61502
G1 X40.800 Y4.689 E1.62935
G1 X41.054 Y4.689 E1.63126
G1 X39.620 Y6.123 E1.64643
G1 X39.789 Y6.208 E1.64785
G1 X41.309 Y4.689 E1.66392
G1 X41.563 Y4.689 E1.66583
G1 X39.954 Y6.298 E1.68286
G1 X40.111 Y6.396 E1.68424
G1 X41.818 Y4.689 E1.70230
G1 X42.072 Y4.689 E1.70421
G1 X40.265 Y6.496 E1.72333
G1 X40.411 Y6.605 E1.72469
G1 X42.327 Y4.689 E1.74496
G1 X42.581 Y4.689 E1.74687
G1 X40.555 Y6.715 E1.76831
G1 X40.691 Y6.834 E1.76966
G1 X42.836 Y4.689 E1.79236
G1 X43.090 Y4.689 E1.79426
G1 X40.824 Y6.955 E1.81824
G1 X40.950 Y7.083 E1.81959
G1 X43.218 Y4.816 E1.84358
G1 X43.218 Y5.070 E1.84549
G1 X41.073 Y7.215 E1.86818
G1 X41.190 Y7.353 E1.86953
G1 X43.218 Y5.325 E1.89098
G1 X43.218 Y5.579 E1.89289
G1 X41.302 Y7.495 E1.91316
G1 X41.409 Y7.642 E1.91452
G1 X43.218 Y5.834 E1.93365
G1 X43.218 Y6.088 E1.93556
G1 X41.511 Y7.795 E1.95362
G1 X41.608 Y7.952 E1.95500
G1 X43.218 Y6.343 E1.97203
G1 X43.218 Y6.597 E1.97394
G1 X41.698 Y8.117 E1.99002
G1 X41.785 Y8.285 E1.99143
G1 X43.218 Y6.852 E2.00659
G1 X43.218 Y7.106 E2.00849
G1 X41.862 Y8.462 E2.02283
G1 X41.937 Y8.642 E2.02429
G1 X43.218 Y7.361 E2.03785
G1 X43.218 Y7.616 E2.03975
G1 X42.002 Y8.831 E2.05262
G1 X42.061 Y9.026 E2.05414
G1 X43.218 Y7.870 E2.06638
G1 X43.218 Y8.125 E2.06829
G1 X42.114 Y9.228 E2.07996
G1 X42.156 Y9.441 E2.08158
G1 X43.218 Y8.379 E2.09281
G1 X43.218 Y8.634 E2.09472
G1 X42.192 Y9.660 E2.10558
G1 X42.217 Y9.889 E2.10730
G1 X43.218 Y8.888 E2.11789
G1 X43.218 Y9.143 E2.11979
G1 X42.229 Y10.132 E2.13026
G1 X42.229 Y10.386 E2.13216
G1 X43.218 Y9.397 E2.14262
G1 X43.218 Y9.652 E2.14453
G1 X42.215 Y10.654 E2.15514
G1 X42.183 Y10.941 E2.15729
G1 X43.218 Y9.906 E2.16824
G1 X43.218 Y10.161 E2.17015
G1 X42.124 Y11.254 E2.18172
G1 X42.034 Y11.598 E2.18438
G1 X43.218 Y10.415 E2.19690
G1 X43.218 Y10.670 E2.19881
G1 X41.890 Y11.997 E2.21285
G1 X41.658 Y12.484 E2.21689
G1 X43.218 Y10.924 E2.23339
G1 X43.218 Y11.179 E2.23530
G1 X38.598 Y15.798 E2.28418
G1 X38.853 Y15.798 E2.28608
G1 X43.218 Y11.433 E2.33227
G1 X43.218 Y11.688 E2.33417
G1 X39.107 Y15.798 E2.37766
G1 X39.362 Y15.798 E2.37957
G1 X43.218 Y11.942 E2.42037
G1 X43.218 Y12.197 E2.42227
G1 X39.616 Y15.798 E2.46038
G1 X39.871 Y15.798 E2.46228
G1 X43.218 Y12.451 E2.49769
G1 X43.218 Y12.706 E2.49960
G1 X40.125 Y15.798 E2.53232
G1 X40.380 Y15.798 E2.53422
G1 X43.218 Y12.960 E2.56425
G1 X43.218 Y13.215 E2.56615
G1 X40.635 Y15.798 E2.59349
G1 X40.889 Y15.798 E2.59539
G1 X43.218 Y13.469 E2.62003
G1 X43.218 Y13.724 E2.62193
G1 X41.144 Y15.798 E2.64388
G1 X41.398 Y15.798 E2.64579
G1 X43.218 Y13.978 E2.66504
G1 X43.218 Y14.233 E2.66694
G1 X41.653 Y15.798 E2.68351
G1 X41.907 Y15.798 E2.68541
G1 X43.218 Y14.487 E2.69928
G1 X43.218 Y14.742 E2.70118
G1 X42.162 Y15.798 E2.71236
G1 X42.416 Y15.798 E2.71426
G1 X43.218 Y14.996 E2.72274
G1 X43.218 Y15.251 E2.72465
G1 X42.671 Y15.798 E2.73044
G1 X42.925 Y15.798 E2.73234
G1 X43.218 Y15.505 E2.73543
G1 X43.218 Y15.760 E2.73734
G1 X43.180 Y15.798 E2.73774
G1 E1.83774 F3600.00000
G92 E0
G1 X38.344 Y15.798 F7800.000
G1 E0.90000 F3600.00000
G1 F600
G1 X39.907 Y14.235 E0.91654
G1 X39.413 Y14.474 E0.92065
G1 X38.089 Y15.798 E0.93465
G1 X37.835 Y15.798 E0.93656
G1 X39.021 Y14.612 E0.94911
G1 X38.676 Y14.702 E0.95178
G1 X37.580 Y15.798 E0.96338
G1 X37.326 Y15.798 E0.96528
G1 X38.363 Y14.761 E0.97626
G1 X38.073 Y14.796 E0.97844
G1 X37.071 Y15.798 E0.98904
G1 X36.817 Y15.798 E0.99095
G1 X37.804 Y14.811 E1.00139
G1 X37.551 Y14.809 E1.00328
G1 X36.562 Y15.798 E1.01375
G1 X36.308 Y15.798 E1.01565
G1 X37.310 Y14.796 E1.02626
G1 X37.076 Y14.775 E1.02801
G1 X36.053 Y15.798 E1.03883
G1 X35.799 Y15.798 E1.04074
G1 X36.860 Y14.737 E1.05197
G1 X36.649 Y14.693 E1.05358
G1 X35.544 Y15.798 E1.06527
G1 X35.290 Y15.798 E1.06717
G1 X36.445 Y14.643 E1.07939
G1 X36.251 Y14.582 E1.08091
G1 X35.035 Y15.798 E1.09378
G1 X34.781 Y15.798 E1.09568
G1 X36.062 Y14.517 E1.10924
G1 X35.881 Y14.443 E1.11070
G1 X34.526 Y15.798 E1.12504
G1 X34.272 Y15.798 E1.12694
G1 X35.706 Y14.364 E1.14212
G1 X35.536 Y14.279 E1.14354
G1 X34.017 Y15.798 E1.15961
G1 X33.763 Y15.798 E1.16152
G1 X35.373 Y14.187 E1.17856
G1 X35.214 Y14.092 E1.17995
G1 X33.508 Y15.798 E1.19800
G1 X33.254 Y15.798 E1.19990
G1 X35.063 Y13.989 E1.21904
G1 X34.913 Y13.884 E1.22041
G1 X32.999 Y15.798 E1.24066
G1 X32.745 Y15.798 E1.24257
G1 X34.773 Y13.770 E1.26403
G1 X34.634 Y13.654 E1.26538
G1 X32.490 Y15.798 E1.28806
G1 X32.236 Y15.798 E1.28997
G1 X34.503 Y13.530 E1.31396
G1 X34.375 Y13.404 E1.31531
G1 X32.108 Y15.671 E1.33929
G1 X32.108 Y15.416 E1.34119
G1 X34.253 Y13.271 E1.36389
G1 X34.136 Y13.134 E1.36524
G1 X32.108 Y15.162 E1.38670
G1 X32.108 Y14.907 E1.38860
G1 X34.024 Y12.992 E1.40887
G1 X33.917 Y12.844 E1.41023
G1 X32.108 Y14.653 E1.42937
G1 X32.108 Y14.398 E1.43127
G1 X33.815 Y12.692 E1.44933
G1 X33.719 Y12.533 E1.45072
G1 X32.108 Y14.144 E1.46776
G1 X32.108 Y13.889 E1.46966
G1 X33.627 Y12.371 E1.48573
G1 X33.543 Y12.200 E1.48715
G1 X32.108 Y13.635 E1.50233
G1 X32.108 Y13.380 E1.50424
G1 X33.462 Y12.027 E1.51856
G1 X33.391 Y11.843 E1.52003
G1 X32.108 Y13.126 E1.53360
G1 X32.108 Y12.871 E1.53551
G1 X33.324 Y11.656 E1.54837
G1 X33.264 Y11.461 E1.54989
G1 X32.108 Y12.617 E1.56212
G1 X32.108 Y12.362 E1.56403
G1 X33.213 Y11.257 E1.57572
G1 X33.168 Y11.048 E1.57732
G1 X32.108 Y12.108 E1.58853
G1 X32.108 Y11.853 E1.59043
G1 X33.135 Y10.827 E1.60130
G1 X33.111 Y10.596 E1.60303
G1 X32.108 Y11.599 E1.61364
G1 X32.108 Y11.344 E1.61554
G1 X33.096 Y10.357 E1.62599
G1 X33.096 Y10.102 E1.62789
G1 X32.108 Y11.089 E1.63834
G1 X32.108 Y10.835 E1.64024
G1 X33.112 Y9.831 E1.65087
G1 X33.147 Y9.542 E1.65304
G1 X32.108 Y10.580 E1.66403
G1 X32.108 Y10.326 E1.66593
G1 X33.205 Y9.229 E1.67754
G1 X33.296 Y8.884 E1.68021
G1 X32.108 Y10.071 E1.69278
G1 X32.108 Y9.817 E1.69468
G1 X33.436 Y8.490 E1.70873
G1 X33.671 Y8.000 E1.71279
G1 X32.108 Y9.562 E1.72933
G1 X32.108 Y9.308 E1.73123
M106 S234.6
G4 P1
;G201 P1 X1
;G202 P1 X0
;G201 P0 X300
;G201 P0 X0

G1 Z0.200 F7800.000
G0 X10 Y10 ; Laser to park position
G4 P1
G202 P1 X0
G4 P1
G203 P1
G201 P1 X0.3
G203 P1
G4 P1000
G201 P0 X240
G201 P0 X0





G1 E0.83123 F3600.00000
G92 E0
G1 X32.146 Y15.798 F7800.000
G1 E0.90000 F3600.00000
G1 F600
G1 X32.108 Y15.760 E0.90040
G1 X32.108 Y15.505 E0.90231
G1 X32.401 Y15.798 E0.90540
G1 X32.655 Y15.798 E0.90731
G1 X32.108 Y15.251 E0.91309
G1 X32.108 Y14.996 E0.91500
G1 X32.910 Y15.798 E0.92348
G1 X33.164 Y15.798 E0.92539
G1 X32.108 Y14.742 E0.93656
G1 X32.108 Y14.487 E0.93847
G1 X33.419 Y15.798 E0.95233
G1 X33.673 Y15.798 E0.95424
G1 X32.108 Y14.233 E0.97080
G1 X32.108 Y13.978 E0.97270
G1 X33.928 Y15.798 E0.99196
G1 X34.182 Y15.798 E0.99386
G1 X32.108 Y13.724 E1.01581
G1 X32.108 Y13.469 E1.01772
G1 X34.437 Y15.798 E1.04236
G1 X34.691 Y15.798 E1.04426
G1 X32.108 Y13.215 E1.07160
G1 X32.108 Y12.960 E1.07350
G1 X34.946 Y15.798 E1.10353
G1 X35.201 Y15.798 E1.10543
G1 X32.108 Y12.706 E1.13815
G1 X32.108 Y12.451 E1.14006
G1 X35.455 Y15.798 E1.17547
G1 X35.710 Y15.798 E1.17737
G1 X32.108 Y12.197 E1.21548
G1 X32.108 Y11.942 E1.21738
G1 X35.964 Y15.798 E1.25818
G1 X36.219 Y15.798 E1.26009
G1 X32.108 Y11.688 E1.30358
G1 X32.108 Y11.433 E1.30549
G1 X36.473 Y15.798 E1.35167
G1 X36.728 Y15.798 E1.35358
G1 X32.108 Y11.179 E1.40246
G1 X32.108 Y10.924 E1.40436
G1 X33.671 Y12.486 E1.42089
G1 X33.435 Y11.997 E1.42496
G1 X32.108 Y10.670 E1.43900
G1 X32.108 Y10.415 E1.44090
G1 X33.296 Y11.602 E1.45347
G1 X33.205 Y11.257 E1.45614
G1 X32.108 Y10.161 E1.46774
G1 X32.108 Y9.906 E1.46965
G1 X33.146 Y10.944 E1.48063
G1 X33.112 Y10.655 E1.48281
G1 X32.108 Y9.652 E1.49343
G1 X32.108 Y9.397 E1.49533
G1 X33.095 Y10.384 E1.50578
G1 X33.095 Y10.130 E1.50768
G1 X32.108 Y9.143 E1.51813
G1 X32.108 Y8.888 E1.52003
G1 X33.110 Y9.890 E1.53063
G1 X33.134 Y9.660 E1.53237
G1 X32.108 Y8.633 E1.54323
G1 X32.108 Y8.379 E1.54513
G1 X33.168 Y9.438 E1.55634
G1 X33.213 Y9.229 E1.55794
G1 X32.108 Y8.124 E1.56963
G1 X32.108 Y7.870 E1.57154
G1 X33.264 Y9.026 E1.58376
G1 X33.323 Y8.831 E1.58529
G1 X32.108 Y7.615 E1.59815
G1 X32.108 Y7.361 E1.60005
G1 X33.391 Y8.643 E1.61362
G1 X33.462 Y8.460 E1.61509
G1 X32.108 Y7.106 E1.62942
G1 X32.108 Y6.852 E1.63132
G1 X33.543 Y8.286 E1.64650
G1 X33.626 Y8.116 E1.64792
G1 X32.108 Y6.597 E1.66399
G1 X32.108 Y6.343 E1.66589
G1 X33.719 Y7.953 E1.68293
G1 X33.814 Y7.795 E1.68432
G1 X32.108 Y6.088 E1.70237
G1 X32.108 Y5.834 E1.70428
G1 X33.917 Y7.642 E1.72341
G1 X34.024 Y7.495 E1.72478
G1 X32.108 Y5.579 E1.74505
G1 X32.108 Y5.325 E1.74695
G1 X34.136 Y7.352 E1.76840
G1 X34.253 Y7.215 E1.76975
G1 X32.108 Y5.070 E1.79245
G1 X32.108 Y4.816 E1.79435
G1 X34.375 Y7.082 E1.81834
G1 X34.503 Y6.956 E1.81968
G1 X32.236 Y4.689 E1.84368
G1 X32.490 Y4.689 E1.84558
G1 X34.634 Y6.832 E1.86827
G1 X34.773 Y6.717 E1.86962
G1 X32.745 Y4.689 E1.89108
G1 X32.999 Y4.689 E1.89298
G1 X34.913 Y6.602 E1.91323
G1 X35.063 Y6.497 E1.91460
G1 X33.254 Y4.689 E1.93374
G1 X33.508 Y4.689 E1.93565
G1 X35.214 Y6.394 E1.95369
G1 X35.373 Y6.299 E1.95508
G1 X33.763 Y4.689 E1.97212
G1 X34.017 Y4.689 E1.97403
G1 X35.536 Y6.207 E1.99010
G1 X35.706 Y6.123 E1.99152
G1 X34.272 Y4.689 E2.00669
G1 X34.526 Y4.689 E2.00860
G1 X35.881 Y6.044 E2.02294
G1 X36.062 Y5.970 E2.02440
G1 X34.781 Y4.689 E2.03795
G1 X35.035 Y4.689 E2.03986
G1 X36.251 Y5.905 E2.05273
G1 X36.445 Y5.843 E2.05424
G1 X35.290 Y4.689 E2.06646
G1 X35.544 Y4.689 E2.06837
G1 X36.649 Y5.793 E2.08006
G1 X36.860 Y5.750 E2.08167
G1 X35.799 Y4.689 E2.09289
G1 X36.053 Y4.689 E2.09480
G1 X37.078 Y5.713 E2.10564
G1 X37.310 Y5.690 E2.10738
G1 X36.308 Y4.689 E2.11798
G1 X36.562 Y4.689 E2.11989
G1 X37.551 Y5.677 E2.13035
G1 X37.804 Y5.675 E2.13224
G1 X36.817 Y4.689 E2.14268
G1 X37.071 Y4.689 E2.14459
G1 X38.073 Y5.690 E2.15519
G1 X38.363 Y5.726 E2.15737
G1 X37.326 Y4.689 E2.16835
G1 X37.580 Y4.689 E2.17025
G1 X38.676 Y5.784 E2.18184
G1 X39.021 Y5.875 E2.18451
G1 X37.835 Y4.689 E2.19706
G1 X38.089 Y4.689 E2.19896
G1 X39.412 Y6.011 E2.21296
G1 X39.906 Y6.251 E2.21707
G1 X38.344 Y4.689 E2.23360
G1 X38.598 Y4.689 E2.23551
G1 X43.218 Y9.308 E2.28439
G1 X43.218 Y9.053 E2.28629
G1 X38.853 Y4.689 E2.33248
G1 X39.107 Y4.689 E2.33438
G1 X43.218 Y8.799 E2.37787
G1 X43.218 Y8.544 E2.37978
G1 X39.362 Y4.689 E2.42058
G1 X39.616 Y4.689 E2.42248
G1 X43.218 Y8.290 E2.46059
G1 X43.218 Y8.035 E2.46249
G1 X39.871 Y4.689 E2.49790
G1 X40.125 Y4.689 E2.49981
G1 X43.218 Y7.781 E2.53253
G1 X43.218 Y7.526 E2.53443
G1 X40.380 Y4.689 E2.56446
G1 X40.634 Y4.689 E2.56636
G1 X43.218 Y7.272 E2.59370
G1 X43.218 Y7.017 E2.59560
G1 X40.889 Y4.689 E2.62024
G1 X41.144 Y4.689 E2.62214
G1 X43.218 Y6.763 E2.64409
G1 X43.218 Y6.508 E2.64600
G1 X41.398 Y4.689 E2.66525
G1 X41.653 Y4.689 E2.66715
G1 X43.218 Y6.254 E2.68372
G1 X43.218 Y5.999 E2.68562
G1 X41.907 Y4.689 E2.69949
G1 X42.162 Y4.689 E2.70139
G1 X43.218 Y5.745 E2.71257
G1 X43.218 Y5.490 E2.71447
G1 X42.416 Y4.689 E2.72295
G1 X42.671 Y4.689 E2.72486
G1 X43.218 Y5.236 E2.73065
G1 X43.218 Y4.981 E2.73255
G1 X42.925 Y4.689 E2.73564
G1 X43.180 Y4.689 E2.73755
G1 X43.218 Y4.727 E2.73795
G1 E1.83795 F3600.00000
G92 E0
G1 X43.218 Y9.562 F7800.000
G1 E0.90000 F3600.00000
G1 F600
G1 X41.658 Y8.003 E0.91650
G1 X41.891 Y8.490 E0.92054
G1 X43.218 Y9.817 E0.93458
G1 X43.218 Y10.071 E0.93648
G1 X42.034 Y8.888 E0.94900
G1 X42.125 Y9.233 E0.95167
G1 X43.218 Y10.326 E0.96324
G1 X43.218 Y10.580 E0.96514
G1 X42.183 Y9.546 E0.97609
G1 X42.215 Y9.833 E0.97826
G1 X43.218 Y10.835 E0.98886
G1 X43.218 Y11.089 E0.99077
G1 X42.229 Y10.101 E1.00123
G1 X42.229 Y10.355 E1.00313
G1 X43.218 Y11.344 E1.01359
G1 X43.218 Y11.598 E1.01550
G1 X42.217 Y10.598 E1.02608
G1 X42.192 Y10.827 E1.02780
G1 X43.218 Y11.853 E1.03866
G1 X43.218 Y12.107 E1.04056
G1 X42.156 Y11.046 E1.05179
G1 X42.115 Y11.259 E1.05342
G1 X43.218 Y12.362 E1.06509
G1 X43.218 Y12.616 E1.06699
G1 X42.061 Y11.460 E1.07923
G1 X42.002 Y11.655 E1.08076
G1 X43.218 Y12.871 E1.09362
G1 X43.218 Y13.126 E1.09552
G1 X41.937 Y11.845 E1.10908
G1 X41.862 Y12.025 E1.11053
G1 X43.218 Y13.380 E1.12488
G1 X43.218 Y13.635 E1.12678
G1 X41.785 Y12.202 E1.14194
G1 X41.698 Y12.369 E1.14335
G1 X43.218 Y13.889 E1.15943
G1 X43.218 Y14.144 E1.16133
G1 X41.608 Y12.534 E1.17836
G1 X41.511 Y12.691 E1.17975
G1 X43.218 Y14.398 E1.19781
G1 X43.218 Y14.653 E1.19971
G1 X41.410 Y12.845 E1.21884
G1 X41.302 Y12.992 E1.22021
G1 X43.218 Y14.907 E1.24047
G1 X43.218 Y15.162 E1.24237
G1 X41.190 Y13.134 E1.26383
G1 X41.073 Y13.272 E1.26518
G1 X43.218 Y15.416 E1.28787
G1 X43.218 Y15.671 E1.28977
G1 X40.950 Y13.403 E1.31376
G1 X40.824 Y13.532 E1.31511
G1 X43.090 Y15.798 E1.33909
G1 X42.836 Y15.798 E1.34099
G1 X40.691 Y13.653 E1.36369
G1 X40.555 Y13.772 E1.36504
G1 X42.581 Y15.798 E1.38648
G1 X42.327 Y15.798 E1.38839
G1 X40.411 Y13.882 E1.40866
G1 X40.265 Y13.991 E1.41002
G1 X42.072 Y15.798 E1.42914
G1 X41.818 Y15.798 E1.43104
G1 X40.111 Y14.091 E1.44911
G1 X39.954 Y14.189 E1.45049
G1 X41.563 Y15.798 E1.46752
G1 X41.309 Y15.798 E1.46942
G1 X39.789 Y14.279 E1.48550
G1 X39.621 Y14.364 E1.48691
G1 X41.054 Y15.798 E1.50208
G1 X40.800 Y15.798 E1.50399
G1 X39.445 Y14.443 E1.51832
G1 X39.263 Y14.516 E1.51979
G1 X40.545 Y15.798 E1.53336
G1 X40.291 Y15.798 E1.53526
G1 X39.077 Y14.584 E1.54811
G1 X38.880 Y14.641 E1.54964
G1 X40.036 Y15.798 E1.56188
G1 X39.782 Y15.798 E1.56378
G1 X38.678 Y14.694 E1.57546
G1 X38.467 Y14.738 E1.57708
G1 X39.527 Y15.798 E1.58830
G1 X39.273 Y15.798 E1.59020
G1 X38.246 Y14.771 E1.60107
G1 X38.017 Y14.797 E1.60279
G1 X39.018 Y15.798 E1.61337
G1 X38.764 Y15.798 E1.61528
G1 X37.776 Y14.811 E1.62573
G1 X37.521 Y14.809 E1.62764
G1 X38.509 Y15.798 E1.63810
G1 X38.255 Y15.798 E1.64001
G1 X37.251 Y14.794 E1.65063
G1 X36.963 Y14.761 E1.65280
G1 X38.000 Y15.798 E1.66377
G1 X37.746 Y15.798 E1.66568
G1 X36.650 Y14.703 E1.67727
G1 X36.305 Y14.611 E1.67994
G1 X37.491 Y15.798 E1.69250
G1 X37.237 Y15.798 E1.69440
G1 X35.908 Y14.469 E1.70846
G1 X35.424 Y14.240 E1.71247
G1 X36.982 Y15.798 E1.72895
G1 X36.728 Y15.798 E1.73086
G4 P1
;G201 P1 X1
;G202 P1 X0
;G201 P0 X300
;G201 P0 X0

G1 Z0.300 F7800.000
G0 X10 Y10 ; Laser to park position
G4 P1
G202 P1 X0
G4 P1
G203 P1
G201 P1 X0.3
G203 P1
G4 P1000
G201 P0 X240
G201 P0 X0




G1 E1.320000 F3600.00000
G92 E0
G1 X38.344 Y15.798 F7800.000
G1 E0.90000 F3600
G1 F600
G1 X39.906 Y14.236 E1.74725
G1 X39.414 Y14.474 E1.75131
G1 X38.089 Y15.798 E1.76521
G1 X37.835 Y15.798 E1.76710
G1 X39.020 Y14.612 E1.77954
G1 X38.676 Y14.703 E1.78219
G1 X37.580 Y15.798 E1.79369
G1 X37.326 Y15.798 E1.79558
G1 X38.363 Y14.761 E1.80646
G1 X38.073 Y14.796 E1.80863
G1 X37.071 Y15.798 E1.81914
G1 X36.817 Y15.798 E1.82103
G1 X37.803 Y14.811 E1.83139
G1 X37.551 Y14.809 E1.83326
G1 X36.562 Y15.798 E1.84364
G1 X36.308 Y15.798 E1.84553
G1 X37.309 Y14.796 E1.85604
G1 X37.078 Y14.773 E1.85777
G1 X36.053 Y15.798 E1.86852
G1 X35.799 Y15.798 E1.87041
G1 X36.860 Y14.737 E1.88155
G1 X36.649 Y14.693 E1.88315
G1 X35.544 Y15.798 E1.89474
G1 X35.290 Y15.798 E1.89663
G1 X36.445 Y14.643 E1.90875
G1 X36.251 Y14.582 E1.91026
G1 X35.035 Y15.798 E1.92303
G1 X34.781 Y15.798 E1.92492
G1 X36.062 Y14.517 E1.93836
G1 X35.881 Y14.443 E1.93981
G1 X34.526 Y15.798 E1.95404
G1 X34.272 Y15.798 E1.95593
G1 X35.706 Y14.364 E1.97098
G1 X35.536 Y14.279 E1.97239
G1 X34.017 Y15.798 E1.98833
G1 X33.763 Y15.798 E1.99022
G1 X35.373 Y14.187 E2.00713
G1 X35.213 Y14.093 E2.00851
G1 X33.508 Y15.798 E2.02641
G1 X33.254 Y15.798 E2.02830
G1 X35.062 Y13.989 E2.04729
G1 X34.913 Y13.884 E2.04864
G1 X32.999 Y15.798 E2.06873
G1 X32.745 Y15.798 E2.07062
G1 X34.773 Y13.770 E2.09191
G1 X34.634 Y13.654 E2.09325
G1 X32.490 Y15.798 E2.11576
G1 X32.236 Y15.798 E2.11765
G1 X34.503 Y13.531 E2.14145
G1 X34.375 Y13.404 E2.14279
G1 X32.108 Y15.671 E2.16658
G1 X32.108 Y15.416 E2.16847
G1 X34.253 Y13.271 E2.19098
G1 X34.135 Y13.134 E2.19232
G1 X32.108 Y15.162 E2.21360
G1 X32.108 Y14.907 E2.21549
G1 X34.024 Y12.992 E2.23560
G1 X33.917 Y12.844 E2.23695
G1 X32.108 Y14.653 E2.25593
G1 X32.108 Y14.398 E2.25782
G1 X33.814 Y12.692 E2.27573
G1 X33.719 Y12.533 E2.27711
G1 X32.108 Y14.144 E2.29401
G1 X32.108 Y13.889 E2.29590
G1 X33.626 Y12.371 E2.31184
G1 X33.543 Y12.200 E2.31325
G1 X32.108 Y13.635 E2.32831
G1 X32.108 Y13.380 E2.33020
G1 X33.462 Y12.026 E2.34441
G1 X33.390 Y11.843 E2.34587
G1 X32.108 Y13.126 E2.35932
G1 X32.108 Y12.871 E2.36121
G1 X33.323 Y11.656 E2.37397
G1 X33.264 Y11.461 E2.37548
G1 X32.108 Y12.617 E2.38761
G1 X32.108 Y12.362 E2.38950
G1 X33.213 Y11.257 E2.40110
G1 X33.168 Y11.048 E2.40269
G1 X32.108 Y12.108 E2.41381
G1 X32.108 Y11.853 E2.41570
G1 X33.134 Y10.827 E2.42647
G1 X33.110 Y10.596 E2.42819
G1 X32.108 Y11.598 E2.43871
G1 X32.108 Y11.344 E2.44060
G1 X33.095 Y10.357 E2.45095
G1 X33.095 Y10.103 E2.45284
G1 X32.108 Y11.089 E2.46320
G1 X32.108 Y10.835 E2.46509
G1 X33.112 Y9.831 E2.47563
G1 X33.146 Y9.543 E2.47778
G1 X32.108 Y10.580 E2.48868
G1 X32.108 Y10.326 E2.49057
G1 X33.204 Y9.230 E2.50207
G1 X33.295 Y8.884 E2.50472
G1 X32.108 Y10.071 E2.51719
G1 X32.108 Y9.817 E2.51908
G1 X33.435 Y8.490 E2.53300
G1 X33.670 Y8.000 E2.53704
G1 X32.108 Y9.562 E2.55343
G1 X32.108 Y9.308 E2.55532
G1 E1.65532 F3600.00000
G92 E0
G1 X32.108 Y4.726 F7800.000
G1 E0.90000 F3600.00000
G1 F600
G1 X32.146 Y4.689 E0.90040
G1 X32.401 Y4.689 E0.90229
G1 X32.108 Y4.981 E0.90536
G1 X32.108 Y5.236 E0.90725
G1 X32.655 Y4.689 E0.91299
G1 X32.910 Y4.689 E0.91488
G1 X32.108 Y5.490 E0.92329
G1 X32.108 Y5.745 E0.92518
G1 X33.164 Y4.689 E0.93627
G1 X33.419 Y4.689 E0.93816
G1 X32.108 Y5.999 E0.95192
G1 X32.108 Y6.254 E0.95381
G1 X33.673 Y4.689 E0.97024
G1 X33.928 Y4.689 E0.97212
G1 X32.108 Y6.508 E0.99123
G1 X32.108 Y6.763 E0.99312
G1 X34.182 Y4.689 E1.01489
G1 X34.437 Y4.689 E1.01678
G1 X32.108 Y7.017 E1.04122
G1 X32.108 Y7.272 E1.04311
G1 X34.691 Y4.689 E1.07023
G1 X34.946 Y4.689 E1.07212
G1 X32.108 Y7.526 E1.10191
G1 X32.108 Y7.781 E1.10380
G1 X35.200 Y4.689 E1.13626
G1 X35.455 Y4.689 E1.13815
G1 X32.108 Y8.035 E1.17328
G1 X32.108 Y8.290 E1.17517
G1 X35.710 Y4.689 E1.21297
G1 X35.964 Y4.689 E1.21486
G1 X32.108 Y8.544 E1.25534
G1 X32.108 Y8.799 E1.25722
G1 X36.219 Y4.689 E1.30037
G1 X36.473 Y4.689 E1.30226
G1 X32.108 Y9.053 E1.34808
G1 X32.108 Y9.308 E1.34997
G1 X36.728 Y4.689 E1.39846
G1 X36.982 Y4.689 E1.40035
G1 X35.424 Y6.247 E1.41671
G1 X35.908 Y6.017 E1.42068
G1 X37.237 Y4.689 E1.43463
G1 X37.491 Y4.689 E1.43652
G1 X36.305 Y5.875 E1.44897
G1 X36.651 Y5.784 E1.45163
G1 X37.746 Y4.689 E1.46312
G1 X38.000 Y4.689 E1.46501
G1 X36.963 Y5.726 E1.47590
G1 X37.251 Y5.692 E1.47805
G1 X38.255 Y4.689 E1.48859
G1 X38.509 Y4.689 E1.49047
G1 X37.521 Y5.677 E1.50085
G1 X37.777 Y5.676 E1.50275
G1 X38.764 Y4.689 E1.51311
G1 X39.018 Y4.689 E1.51500
G1 X38.018 Y5.689 E1.52550
G1 X38.246 Y5.715 E1.52721
G1 X39.273 Y4.689 E1.53799
G1 X39.527 Y4.689 E1.53988
G1 X38.467 Y5.749 E1.55100
G1 X38.678 Y5.792 E1.55260
G1 X39.782 Y4.689 E1.56419
G1 X40.036 Y4.689 E1.56608
G1 X38.880 Y5.845 E1.57821
G1 X39.077 Y5.903 E1.57974
G1 X40.291 Y4.689 E1.59248
G1 X40.545 Y4.689 E1.59437
G1 X39.263 Y5.970 E1.60783
G1 X39.446 Y6.043 E1.60928
G1 X40.800 Y4.689 E1.62350
G1 X41.054 Y4.689 E1.62539
G1 X39.621 Y6.122 E1.64044
G1 X39.790 Y6.208 E1.64184
G1 X41.309 Y4.689 E1.65779
G1 X41.563 Y4.689 E1.65968
G1 X39.954 Y6.298 E1.67657
G1 X40.111 Y6.395 E1.67794
G1 X41.818 Y4.689 E1.69586
G1 X42.072 Y4.689 E1.69775
G1 X40.265 Y6.496 E1.71672
G1 X40.411 Y6.604 E1.71807
G1 X42.327 Y4.689 E1.73818
G1 X42.581 Y4.689 E1.74007
G1 X40.555 Y6.715 E1.76134
G1 X40.691 Y6.834 E1.76268
G1 X42.836 Y4.689 E1.78519
G1 X43.090 Y4.689 E1.78708
G1 X40.824 Y6.955 E1.81087
G1 X40.951 Y7.083 E1.81221
G1 X43.218 Y4.816 E1.83601
G1 X43.218 Y5.070 E1.83789
G1 X41.074 Y7.214 E1.86040
G1 X41.190 Y7.352 E1.86174
G1 X43.218 Y5.325 E1.88302
G1 X43.218 Y5.579 E1.88491
G1 X41.303 Y7.494 E1.90502
G1 X41.410 Y7.642 E1.90637
G1 X43.218 Y5.834 E1.92535
G1 X43.218 Y6.088 E1.92724
G1 X41.511 Y7.795 E1.94515
G1 X41.608 Y7.952 E1.94652
G1 X43.218 Y6.343 E1.96341
G1 X43.218 Y6.597 E1.96530
G1 X41.698 Y8.117 E1.98125
G1 X41.785 Y8.285 E1.98266
G1 X43.218 Y6.852 E1.99770
G1 X43.218 Y7.106 E1.99959
G1 X41.863 Y8.462 E2.01381
G1 X41.937 Y8.642 E2.01526
G1 X43.218 Y7.361 E2.02870
G1 X43.218 Y7.615 E2.03059
G1 X42.002 Y8.831 E2.04335
G1 X42.062 Y9.026 E2.04487
G1 X43.218 Y7.870 E2.05700
G1 X43.218 Y8.125 E2.05889
G1 X42.114 Y9.228 E2.07047
G1 X42.157 Y9.440 E2.07208
G1 X43.218 Y8.379 E2.08322
G1 X43.218 Y8.634 E2.08511
G1 X42.192 Y9.659 E2.09588
G1 X42.218 Y9.888 E2.09759
G1 X43.218 Y8.888 E2.10808
G1 X43.218 Y9.143 E2.10997
G1 X42.229 Y10.131 E2.12035
G1 X42.229 Y10.385 E2.12224
G1 X43.218 Y9.397 E2.13261
G1 X43.218 Y9.652 E2.13450
G1 X42.216 Y10.654 E2.14502
G1 X42.183 Y10.941 E2.14717
G1 X43.218 Y9.906 E2.15803
G1 X43.218 Y10.161 E2.15992
G1 X42.125 Y11.253 E2.17139
G1 X42.034 Y11.599 E2.17404
G1 X43.218 Y10.415 E2.18647
G1 X43.218 Y10.670 E2.18836
G1 X41.891 Y11.996 E2.20228
G1 X41.659 Y12.483 E2.20629
G1 X43.218 Y10.924 E2.22265
G1 X43.218 Y11.179 E2.22454
G1 X38.598 Y15.798 E2.27303
G1 X38.853 Y15.798 E2.27492
G1 X43.218 Y11.433 E2.32074
G1 X43.218 Y11.688 E2.32263
G1 X39.107 Y15.798 E2.36577
G1 X39.362 Y15.798 E2.36766
G1 X43.218 Y11.942 E2.40814
G1 X43.218 Y12.197 E2.41003
G1 X39.616 Y15.798 E2.44783
G1 X39.871 Y15.798 E2.44972
G1 X43.218 Y12.451 E2.48485
G1 X43.218 Y12.706 E2.48674
G1 X40.125 Y15.798 E2.51920
G1 X40.380 Y15.798 E2.52109
G1 X43.218 Y12.960 E2.55088
G1 X43.218 Y13.215 E2.55277
G1 X40.634 Y15.798 E2.57988
G1 X40.889 Y15.798 E2.58177
G1 X43.218 Y13.469 E2.60622
G1 X43.218 Y13.724 E2.60811
G1 X41.144 Y15.798 E2.62988
G1 X41.398 Y15.798 E2.63177
G1 X43.218 Y13.978 E2.65087
G1 X43.218 Y14.233 E2.65276
G1 X41.653 Y15.798 E2.66919
G1 X41.907 Y15.798 E2.67108
G1 X43.218 Y14.487 E2.68484
G1 X43.218 Y14.742 E2.68672
G1 X42.162 Y15.798 E2.69781
G1 X42.416 Y15.798 E2.69970
G1 X43.218 Y14.996 E2.70811
G1 X43.218 Y15.251 E2.71000
G1 X42.671 Y15.798 E2.71575
G1 X42.925 Y15.798 E2.71764
G1 X43.218 Y15.505 E2.72071
G1 X43.218 Y15.760 E2.72260
G1 X43.180 Y15.798 E2.72299
G4 P1
;G201 P1 X1
;G202 P1 X0
;G201 P0 X300
;G201 P0 X0

G1 Z0.400 F7800.000
G0 X10 Y10 ; Laser to park position
G4 P1
G202 P1 X0
G4 P1
G203 P1
G201 P1 X0.3
G203 P1
G4 P1000
G201 P0 X240
G201 P0 X0





G1 E1.82299 F3600.00000
G92 E0
G1 X43.218 Y9.562 F7800.000
G1 E0.90000 F3600.00000
G1 F600
G1 X41.659 Y8.004 E0.91636
G1 X41.892 Y8.491 E0.92036
G1 X43.218 Y9.817 E0.93428
G1 X43.218 Y10.071 E0.93617
G1 X42.033 Y8.887 E0.94860
G1 X42.125 Y9.233 E0.95125
G1 X43.218 Y10.326 E0.96273
G1 X43.218 Y10.580 E0.96462
G1 X42.183 Y9.546 E0.97548
G1 X42.216 Y9.833 E0.97763
G1 X43.218 Y10.835 E0.98814
G1 X43.218 Y11.089 E0.99003
G1 X42.230 Y10.101 E1.00041
G1 X42.229 Y10.356 E1.00229
G1 X43.218 Y11.344 E1.01267
G1 X43.218 Y11.598 E1.01456
G1 X42.218 Y10.598 E1.02505
G1 X42.192 Y10.828 E1.02676
G1 X43.218 Y11.853 E1.03753
G1 X43.218 Y12.107 E1.03942
G1 X42.157 Y11.047 E1.05056
G1 X42.114 Y11.259 E1.05216
G1 X43.218 Y12.362 E1.06374
G1 X43.218 Y12.617 E1.06563
G1 X42.062 Y11.461 E1.07777
G1 X42.002 Y11.656 E1.07928
G1 X43.218 Y12.871 E1.09204
G1 X43.218 Y13.126 E1.09393
G1 X41.937 Y11.845 E1.10737
G1 X41.863 Y12.025 E1.10882
G1 X43.218 Y13.380 E1.12304
G1 X43.218 Y13.635 E1.12493
G1 X41.785 Y12.201 E1.13997
G1 X41.698 Y12.370 E1.14138
G1 X43.218 Y13.889 E1.15733
G1 X43.218 Y14.144 E1.15921
G1 X41.608 Y12.534 E1.17611
G1 X41.511 Y12.692 E1.17748
G1 X43.218 Y14.398 E1.19539
G1 X43.218 Y14.653 E1.19728
G1 X41.410 Y12.845 E1.21626
G1 X41.303 Y12.992 E1.21761
G1 X43.218 Y14.907 E1.23771
G1 X43.218 Y15.162 E1.23960
G1 X41.190 Y13.134 E1.26088
G1 X41.074 Y13.272 E1.26222
G1 X43.218 Y15.416 E1.28473
G1 X43.218 Y15.671 E1.28662
G1 X40.951 Y13.404 E1.31041
G1 X40.825 Y13.532 E1.31175
G1 X43.090 Y15.798 E1.33554
G1 X42.836 Y15.798 E1.33742
G1 X40.691 Y13.653 E1.35994
G1 X40.555 Y13.771 E1.36128
G1 X42.581 Y15.798 E1.38255
G1 X42.327 Y15.798 E1.38444
G1 X40.411 Y13.883 E1.40455
G1 X40.265 Y13.990 E1.40590
G1 X42.072 Y15.798 E1.42487
G1 X41.818 Y15.798 E1.42676
G1 X40.111 Y14.091 E1.44468
G1 X39.954 Y14.189 E1.44605
G1 X41.563 Y15.798 E1.46294
G1 X41.309 Y15.798 E1.46483
G1 X39.790 Y14.279 E1.48078
G1 X39.621 Y14.365 E1.48218
G1 X41.054 Y15.798 E1.49723
G1 X40.800 Y15.798 E1.49912
G1 X39.446 Y14.444 E1.51333
G1 X39.264 Y14.516 E1.51479
G1 X40.545 Y15.798 E1.52824
G1 X40.291 Y15.798 E1.53013
G1 X39.076 Y14.584 E1.54288
G1 X38.880 Y14.642 E1.54440
G1 X40.036 Y15.798 E1.55654
G1 X39.782 Y15.798 E1.55842
G1 X38.678 Y14.695 E1.57001
G1 X38.467 Y14.738 E1.57161
G1 X39.527 Y15.798 E1.58273
G1 X39.273 Y15.798 E1.58462
G1 X38.246 Y14.771 E1.59540
G1 X38.018 Y14.798 E1.59710
G1 X39.018 Y15.798 E1.60761
G1 X38.764 Y15.798 E1.60949
G1 X37.777 Y14.811 E1.61985
G1 X37.521 Y14.810 E1.62175
G1 X38.509 Y15.798 E1.63213
G1 X38.255 Y15.798 E1.63402
G1 X37.251 Y14.795 E1.64455
G1 X36.963 Y14.761 E1.64670
G1 X38.000 Y15.798 E1.65758
G1 X37.746 Y15.798 E1.65947
G1 X36.650 Y14.703 E1.67097
G1 X36.305 Y14.611 E1.67362
G1 X37.491 Y15.798 E1.68608
G1 X37.237 Y15.798 E1.68797
G1 X35.908 Y14.470 E1.70191
G1 X35.424 Y14.240 E1.70589
G1 X36.982 Y15.798 E1.72225
G1 X36.728 Y15.798 E1.72414
G1 E0.82414 F3600.00000
G92 E0
G1 X32.146 Y15.798 F7800.000
G1 E0.90000 F3600.00000
G1 F600
G1 X32.108 Y15.760 E0.90040
G1 X32.108 Y15.505 E0.90229
G1 X32.401 Y15.798 E0.90536
G1 X32.655 Y15.798 E0.90725
G1 X32.108 Y15.251 E0.91299
G1 X32.108 Y14.996 E0.91488
G1 X32.910 Y15.798 E0.92329
G1 X33.164 Y15.798 E0.92518
G1 X32.108 Y14.742 E0.93627
G1 X32.108 Y14.487 E0.93816
G1 X33.419 Y15.798 E0.95192
G1 X33.673 Y15.798 E0.95381
G1 X32.108 Y14.233 E0.97024
G1 X32.108 Y13.978 E0.97213
G1 X33.928 Y15.798 E0.99123
G1 X34.182 Y15.798 E0.99312
G1 X32.108 Y13.724 E1.01489
G1 X32.108 Y13.469 E1.01678
G1 X34.437 Y15.798 E1.04122
G1 X34.691 Y15.798 E1.04311
G1 X32.108 Y13.215 E1.07023
G1 X32.108 Y12.960 E1.07212
G1 X34.946 Y15.798 E1.10191
G1 X35.200 Y15.798 E1.10380
G1 X32.108 Y12.706 E1.13626
G1 X32.108 Y12.451 E1.13815
G1 X35.455 Y15.798 E1.17328
G1 X35.710 Y15.798 E1.17517
G1 X32.108 Y12.197 E1.21297
G1 X32.108 Y11.942 E1.21486
G1 X35.964 Y15.798 E1.25534
G1 X36.219 Y15.798 E1.25723
G1 X32.108 Y11.688 E1.30037
G1 X32.108 Y11.433 E1.30226
G1 X36.473 Y15.798 E1.34808
G1 X36.728 Y15.798 E1.34997
G1 X32.108 Y11.179 E1.39846
G1 X32.108 Y10.924 E1.40035
G1 X33.670 Y12.486 E1.41674
G1 X33.435 Y11.996 E1.42077
G1 X32.108 Y10.670 E1.43470
G1 X32.108 Y10.415 E1.43659
G1 X33.295 Y11.602 E1.44905
G1 X33.204 Y11.256 E1.45170
G1 X32.108 Y10.161 E1.46320
G1 X32.108 Y9.906 E1.46509
G1 X33.146 Y10.943 E1.47598
G1 X33.112 Y10.655 E1.47814
G1 X32.108 Y9.652 E1.48867
G1 X32.108 Y9.397 E1.49056
G1 X33.095 Y10.384 E1.50092
G1 X33.095 Y10.129 E1.50280
G1 X32.108 Y9.143 E1.51316
G1 X32.108 Y8.888 E1.51505
G1 X33.110 Y9.890 E1.52557
G1 X33.134 Y9.659 E1.52729
G1 X32.108 Y8.634 E1.53806
G1 X32.108 Y8.379 E1.53995
G1 X33.168 Y9.438 E1.55107
G1 X33.213 Y9.229 E1.55266
G1 X32.108 Y8.124 E1.56425
G1 X32.108 Y7.870 E1.56614
G1 X33.264 Y9.025 E1.57827
G1 X33.323 Y8.830 E1.57979
G1 X32.108 Y7.615 E1.59254
G1 X32.108 Y7.361 E1.59443
G1 X33.390 Y8.643 E1.60789
G1 X33.462 Y8.460 E1.60935
G1 X32.108 Y7.106 E1.62356
G1 X32.108 Y6.852 E1.62545
G1 X33.543 Y8.286 E1.64050
G1 X33.626 Y8.115 E1.64192
G1 X32.108 Y6.597 E1.65785
G1 X32.108 Y6.343 E1.65974
G1 X33.719 Y7.953 E1.67664
G1 X33.814 Y7.794 E1.67802
G1 X32.108 Y6.088 E1.69593
G1 X32.108 Y5.834 E1.69782
G1 X33.916 Y7.642 E1.71680
G1 X34.023 Y7.495 E1.71815
G1 X32.108 Y5.579 E1.73826
G1 X32.108 Y5.325 E1.74014
G1 X34.135 Y7.352 E1.76142
G1 X34.253 Y7.215 E1.76276
G1 X32.108 Y5.070 E1.78528
G1 X32.108 Y4.816 E1.78717
G1 X34.375 Y7.082 E1.81096
G1 X34.503 Y6.956 E1.81230
G1 X32.236 Y4.689 E1.83610
G1 X32.490 Y4.689 E1.83799
G1 X34.634 Y6.833 E1.86049
G1 X34.772 Y6.716 E1.86184
G1 X32.745 Y4.689 E1.88312
G1 X32.999 Y4.689 E1.88501
G1 X34.913 Y6.603 E1.90511
G1 X35.062 Y6.497 E1.90646
G1 X33.254 Y4.689 E1.92545
G1 X33.508 Y4.689 E1.92734
G1 X35.213 Y6.394 E1.94524
G1 X35.373 Y6.299 E1.94662
G1 X33.763 Y4.689 E1.96352
G1 X34.017 Y4.689 E1.96541
G1 X35.536 Y6.207 E1.98135
G1 X35.706 Y6.123 E1.98276
G1 X34.272 Y4.689 E1.99782
G1 X34.526 Y4.689 E1.99971
G1 X35.881 Y6.044 E2.01393
G1 X36.062 Y5.970 E2.01538
G1 X34.781 Y4.689 E2.02883
G1 X35.035 Y4.689 E2.03072
G1 X36.251 Y5.905 E2.04348
G1 X36.445 Y5.843 E2.04499
G1 X35.290 Y4.689 E2.05711
G1 X35.544 Y4.689 E2.05900
G1 X36.649 Y5.793 E2.07060
G1 X36.859 Y5.749 E2.07219
G1 X35.799 Y4.689 E2.08333
G1 X36.053 Y4.689 E2.08522
G1 X37.078 Y5.713 E2.09597
G1 X37.309 Y5.690 E2.09770
G1 X36.308 Y4.689 E2.10821
G1 X36.562 Y4.689 E2.11010
G1 X37.551 Y5.677 E2.12047
G1 X37.803 Y5.675 E2.12235
G1 X36.817 Y4.689 E2.13270
G1 X37.071 Y4.689 E2.13459
G1 X38.073 Y5.690 E2.14511
G1 X38.363 Y5.725 E2.14727
G1 X37.326 Y4.689 E2.15816
G1 X37.580 Y4.689 E2.16005
G1 X38.675 Y5.783 E2.17154
G1 X39.020 Y5.874 E2.17419
G1 X37.835 Y4.689 E2.18663
G1 X38.089 Y4.689 E2.18852
G1 X39.414 Y6.013 E2.20242
G1 X39.905 Y6.250 E2.20647
G1 X38.344 Y4.689 E2.22286
G1 X38.598 Y4.689 E2.22475
G1 X43.218 Y9.308 E2.27324
G1 X43.218 Y9.053 E2.27512
G1 X38.853 Y4.689 E2.32094
G1 X39.107 Y4.689 E2.32283
G1 X43.218 Y8.799 E2.36598
G1 X43.218 Y8.544 E2.36787
G1 X39.362 Y4.689 E2.40834
G1 X39.616 Y4.689 E2.41023
G1 X43.218 Y8.290 E2.44804
G1 X43.218 Y8.035 E2.44993
G1 X39.871 Y4.689 E2.48506
G1 X40.125 Y4.689 E2.48695
G1 X43.218 Y7.781 E2.51941
G1 X43.218 Y7.526 E2.52130
G1 X40.380 Y4.689 E2.55108
G1 X40.634 Y4.689 E2.55297
G1 X43.218 Y7.272 E2.58009
G1 X43.218 Y7.017 E2.58198
G1 X40.889 Y4.689 E2.60642
G1 X41.144 Y4.689 E2.60831
G1 X43.218 Y6.763 E2.63009
G1 X43.218 Y6.508 E2.63198
G1 X41.398 Y4.689 E2.65108
G1 X41.653 Y4.689 E2.65297
G1 X43.218 Y6.254 E2.66940
G1 X43.218 Y5.999 E2.67128
G1 X41.907 Y4.689 E2.68504
G1 X42.162 Y4.689 E2.68693
G1 X43.218 Y5.745 E2.69802
G1 X43.218 Y5.490 E2.69991
G1 X42.416 Y4.689 E2.70832
G1 X42.671 Y4.689 E2.71021
G1 X43.218 Y5.236 E2.71595
G1 X43.218 Y4.981 E2.71784
G1 X42.925 Y4.689 E2.72091
G1 X43.180 Y4.689 E2.72280
G1 X43.218 Y4.727 E2.72320
G4 P1
;G201 P1 X1
;G202 P1 X0
;G201 P0 X300
;G201 P0 X0

G1 Z0.500 F7800.000
G0 X10 Y10 ; Laser to park position
G4 P1
G202 P1 X0
G4 P1
G203 P1
G201 P1 X0.3
G203 P1
G4 P1000
G201 P0 X240
G201 P0 X0





G1 E1.82320 F3600.00000
G92 E0
G1 X43.180 Y15.798 F7800.000
G1 E0.90000 F3600.00000
G1 F600
G1 X43.218 Y15.760 E0.90040
G1 X43.218 Y15.505 E0.90229
G1 X42.925 Y15.798 E0.90536
G1 X42.671 Y15.798 E0.90725
G1 X43.218 Y15.251 E0.91299
G1 X43.218 Y14.996 E0.91488
G1 X42.416 Y15.798 E0.92329
G1 X42.162 Y15.798 E0.92518
G1 X43.218 Y14.742 E0.93627
G1 X43.218 Y14.487 E0.93816
G1 X41.907 Y15.798 E0.95192
G1 X41.653 Y15.798 E0.95381
G1 X43.218 Y14.233 E0.97024
G1 X43.218 Y13.978 E0.97212
G1 X41.398 Y15.798 E0.99123
G1 X41.144 Y15.798 E0.99311
G1 X43.218 Y13.724 E1.01489
G1 X43.218 Y13.469 E1.01678
G1 X40.889 Y15.798 E1.04122
G1 X40.634 Y15.798 E1.04311
G1 X43.218 Y13.215 E1.07023
G1 X43.218 Y12.960 E1.07212
G1 X40.380 Y15.798 E1.10190
G1 X40.125 Y15.798 E1.10379
G1 X43.218 Y12.706 E1.13625
G1 X43.218 Y12.451 E1.13814
G1 X39.871 Y15.798 E1.17327
G1 X39.616 Y15.798 E1.17516
G1 X43.218 Y12.197 E1.21297
G1 X43.218 Y11.942 E1.21486
G1 X39.362 Y15.798 E1.25533
G1 X39.107 Y15.798 E1.25722
G1 X43.218 Y11.688 E1.30037
G1 X43.218 Y11.433 E1.30226
G1 X38.853 Y15.798 E1.34808
G1 X38.598 Y15.798 E1.34996
G1 X43.218 Y11.179 E1.39846
G1 X43.218 Y10.924 E1.40034
G1 X41.660 Y12.482 E1.41670
G1 X41.892 Y11.995 E1.42070
G1 X43.218 Y10.670 E1.43461
G1 X43.218 Y10.415 E1.43650
G1 X42.033 Y11.600 E1.44894
G1 X42.124 Y11.254 E1.45159
G1 X43.218 Y10.161 E1.46307
G1 X43.218 Y9.906 E1.46496
G1 X42.183 Y10.941 E1.47582
G1 X42.216 Y10.653 E1.47797
G1 X43.218 Y9.652 E1.48848
G1 X43.218 Y9.397 E1.49037
G1 X42.230 Y10.385 E1.50074
G1 X42.230 Y10.131 E1.50263
G1 X43.218 Y9.143 E1.51300
G1 X43.218 Y8.888 E1.51489
G1 X42.218 Y9.888 E1.52539
G1 X42.192 Y9.659 E1.52710
G1 X43.218 Y8.634 E1.53787
G1 X43.218 Y8.379 E1.53975
G1 X42.157 Y9.440 E1.55089
G1 X42.114 Y9.228 E1.55249
G1 X43.218 Y8.125 E1.56408
G1 X43.218 Y7.870 E1.56597
G1 X42.062 Y9.026 E1.57810
G1 X42.003 Y8.831 E1.57962
G1 X43.218 Y7.615 E1.59237
G1 X43.218 Y7.361 E1.59426
G1 X41.937 Y8.641 E1.60770
G1 X41.863 Y8.461 E1.60915
G1 X43.218 Y7.106 E1.62337
G1 X43.218 Y6.852 E1.62526
G1 X41.784 Y8.285 E1.64030
G1 X41.699 Y8.117 E1.64171
G1 X43.218 Y6.597 E1.65765
G1 X43.218 Y6.343 E1.65954
G1 X41.608 Y7.952 E1.67644
G1 X41.511 Y7.795 E1.67781
G1 X43.218 Y6.088 E1.69572
G1 X43.218 Y5.834 E1.69761
G1 X41.410 Y7.642 E1.71659
G1 X41.303 Y7.494 E1.71794
G1 X43.218 Y5.579 E1.73804
G1 X43.218 Y5.325 E1.73993
G1 X41.191 Y7.352 E1.76121
G1 X41.074 Y7.214 E1.76255
G1 X43.218 Y5.070 E1.78505
G1 X43.218 Y4.816 E1.78694
G1 X40.951 Y7.083 E1.81074
G1 X40.824 Y6.954 E1.81207
G1 X43.090 Y4.689 E1.83586
G1 X42.836 Y4.689 E1.83775
G1 X40.691 Y6.833 E1.86026
G1 X40.555 Y6.715 E1.86160
G1 X42.581 Y4.689 E1.88288
G1 X42.327 Y4.689 E1.88476
G1 X40.412 Y6.604 E1.90487
G1 X40.265 Y6.496 E1.90622
G1 X42.072 Y4.689 E1.92520
G1 X41.818 Y4.689 E1.92709
G1 X40.111 Y6.395 E1.94500
G1 X39.954 Y6.298 E1.94637
G1 X41.563 Y4.689 E1.96327
G1 X41.309 Y4.689 E1.96516
G1 X39.790 Y6.207 E1.98110
G1 X39.621 Y6.122 E1.98250
G1 X41.054 Y4.689 E1.99755
G1 X40.800 Y4.689 E1.99944
G1 X39.446 Y6.042 E2.01365
G1 X39.264 Y5.970 E2.01511
G1 X40.545 Y4.689 E2.02856
G1 X40.291 Y4.689 E2.03045
G1 X39.076 Y5.903 E2.04320
G1 X38.880 Y5.845 E2.04472
G1 X40.036 Y4.689 E2.05685
G1 X39.782 Y4.689 E2.05874
G1 X38.678 Y5.792 E2.07032
G1 X38.468 Y5.748 E2.07192
G1 X39.527 Y4.689 E2.08304
G1 X39.273 Y4.689 E2.08493
G1 X38.246 Y5.715 E2.09571
G1 X38.018 Y5.689 E2.09741
G1 X39.018 Y4.689 E2.10792
G1 X38.764 Y4.689 E2.10981
G1 X37.777 Y5.675 E2.12017
G1 X37.521 Y5.677 E2.12206
G1 X38.509 Y4.689 E2.13243
G1 X38.255 Y4.689 E2.13432
G1 X37.252 Y5.692 E2.14485
G1 X36.964 Y5.725 E2.14700
G1 X38.000 Y4.689 E2.15789
G1 X37.746 Y4.689 E2.15977
G1 X36.650 Y5.784 E2.17127
G1 X36.305 Y5.875 E2.17393
G1 X37.491 Y4.689 E2.18638
G1 X37.237 Y4.689 E2.18827
G1 X35.908 Y6.017 E2.20221
G1 X35.424 Y6.247 E2.20620
G1 X36.982 Y4.689 E2.22256
G1 X36.728 Y4.689 E2.22445
G1 X32.108 Y9.308 E2.27294
G1 X32.108 Y9.053 E2.27483
G1 X36.473 Y4.689 E2.32065
G1 X36.219 Y4.689 E2.32253
G1 X32.108 Y8.799 E2.36568
G1 X32.108 Y8.544 E2.36757
G1 X35.964 Y4.689 E2.40805
G1 X35.710 Y4.689 E2.40994
G1 X32.108 Y8.290 E2.44774
G1 X32.108 Y8.035 E2.44963
G1 X35.455 Y4.689 E2.48476
G1 X35.200 Y4.689 E2.48665
G1 X32.108 Y7.781 E2.51911
G1 X32.108 Y7.526 E2.52100
G1 X34.946 Y4.689 E2.55079
G1 X34.691 Y4.689 E2.55268
G1 X32.108 Y7.272 E2.57979
G1 X32.108 Y7.017 E2.58168
G1 X34.437 Y4.689 E2.60613
G1 X34.182 Y4.689 E2.60802
G1 X32.108 Y6.763 E2.62979
G1 X32.108 Y6.508 E2.63168
G1 X33.928 Y4.689 E2.65078
G1 X33.673 Y4.689 E2.65267
G1 X32.108 Y6.254 E2.66910
G1 X32.108 Y5.999 E2.67099
G1 X33.419 Y4.689 E2.68475
G1 X33.164 Y4.689 E2.68664
G1 X32.108 Y5.745 E2.69772
G1 X32.108 Y5.490 E2.69961
G1 X32.910 Y4.689 E2.70803
G1 X32.655 Y4.689 E2.70992
G1 X32.108 Y5.236 E2.71566
G1 X32.108 Y4.981 E2.71755
G1 X32.401 Y4.689 E2.72062
G1 X32.146 Y4.689 E2.72251
G1 X32.108 Y4.726 E2.72291
G1 E1.82291 F3600.00000
G92 E0
G1 X32.108 Y9.308 F7800.000
G1 E0.90000 F3600.00000
G1 F600
G1 X32.108 Y9.562 E0.90189
G1 X33.669 Y8.001 E0.91828
G1 X33.435 Y8.490 E0.92231
G1 X32.108 Y9.817 E0.93623
G1 X32.108 Y10.071 E0.93812
G1 X33.295 Y8.885 E0.95058
G1 X33.204 Y9.230 E0.95323
G1 X32.108 Y10.326 E0.96473
G1 X32.108 Y10.580 E0.96662
G1 X33.145 Y9.543 E0.97750
G1 X33.111 Y9.832 E0.97966
G1 X32.108 Y10.835 E0.99019
G1 X32.108 Y11.089 E0.99208
G1 X33.095 Y10.103 E1.00244
G1 X33.095 Y10.357 E1.00433
G1 X32.108 Y11.344 E1.01469
G1 X32.108 Y11.598 E1.01658
G1 X33.110 Y10.597 E1.02709
G1 X33.134 Y10.827 E1.02881
G1 X32.108 Y11.853 E1.03958
G1 X32.108 Y12.108 E1.04147
G1 X33.168 Y11.048 E1.05259
G1 X33.213 Y11.258 E1.05418
G1 X32.108 Y12.362 E1.06577
G1 X32.108 Y12.617 E1.06766
G1 X33.264 Y11.461 E1.07979
G1 X33.323 Y11.656 E1.08130
G1 X32.108 Y12.871 E1.09406
G1 X32.108 Y13.126 E1.09595
G1 X33.390 Y11.844 E1.10940
G1 X33.462 Y12.026 E1.11086
G1 X32.108 Y13.380 E1.12507
G1 X32.108 Y13.635 E1.12696
G1 X33.542 Y12.200 E1.14202
G1 X33.626 Y12.371 E1.14343
G1 X32.108 Y13.889 E1.15936
G1 X32.108 Y14.144 E1.16125
G1 X33.718 Y12.533 E1.17816
G1 X33.814 Y12.692 E1.17953
G1 X32.108 Y14.398 E1.19744
G1 X32.108 Y14.653 E1.19933
G1 X33.916 Y12.844 E1.21831
G1 X34.023 Y12.992 E1.21966
G1 X32.108 Y14.907 E1.23977
G1 X32.108 Y15.162 E1.24166
G1 X34.136 Y13.134 E1.26294
G1 X34.253 Y13.271 E1.26428
G1 X32.108 Y15.416 E1.28679
G1 X32.108 Y15.671 E1.28868
G1 X34.375 Y13.404 E1.31247
G1 X34.503 Y13.531 E1.31381
G1 X32.236 Y15.798 E1.33761
G1 X32.490 Y15.798 E1.33950
G1 X34.634 Y13.654 E1.36201
G1 X34.772 Y13.770 E1.36335
G1 X32.745 Y15.798 E1.38463
G1 X32.999 Y15.798 E1.38652
G1 X34.913 Y13.884 E1.40662
G1 X35.062 Y13.989 E1.40797
G1 X33.254 Y15.798 E1.42696
G1 X33.508 Y15.798 E1.42885
G1 X35.213 Y14.093 E1.44675
G1 X35.373 Y14.188 E1.44813
G1 X33.763 Y15.798 E1.46503
G1 X34.017 Y15.798 E1.46692
G1 X35.536 Y14.279 E1.48286
G1 X35.706 Y14.364 E1.48427
G1 X34.272 Y15.798 E1.49933
G1 X34.526 Y15.798 E1.50122
G1 X35.881 Y14.443 E1.51544
G1 X36.062 Y14.517 E1.51689
G1 X34.781 Y15.798 E1.53034
G1 X35.035 Y15.798 E1.53223
G1 X36.251 Y14.582 E1.54499
G1 X36.444 Y14.643 E1.54650
G1 X35.290 Y15.798 E1.55862
G1 X35.544 Y15.798 E1.56051
G1 X36.649 Y14.693 E1.57211
G1 X36.859 Y14.738 E1.57370
G1 X35.799 Y15.798 E1.58483
G1 X36.053 Y15.798 E1.58672
G1 X37.078 Y14.773 E1.59748
G1 X37.309 Y14.797 E1.59920
G1 X36.308 Y15.798 E1.60971
G1 X36.562 Y15.798 E1.61160
G1 X37.550 Y14.810 E1.62198
G1 X37.803 Y14.811 E1.62385
G1 X36.817 Y15.798 E1.63421
G1 X37.071 Y15.798 E1.63610
G1 X38.073 Y14.796 E1.64662
G1 X38.362 Y14.761 E1.64878
G1 X37.326 Y15.798 E1.65966
G1 X37.580 Y15.798 E1.66155
G1 X38.675 Y14.703 E1.67304
G1 X39.020 Y14.613 E1.67568
G1 X37.835 Y15.798 E1.68812
G1 X38.089 Y15.798 E1.69001
G1 X39.415 Y14.473 E1.70392
G1 X39.904 Y14.237 E1.70796
G1 X38.344 Y15.798 E1.72434
G4 P1
;G201 P1 X1
;G202 P1 X0
;G201 P0 X300
;G201 P0 X0

G1 Z0.600 F7800.000
G0 X10 Y10 ; Laser to park position
G4 P1
G202 P1 X0
G4 P1
G203 P1
G201 P1 X0.3
G203 P1
G4 P1000
G201 P0 X240
G201 P0 X0





G1 X36.728 Y15.798 F7800.000
G1 F600
G1 X36.982 Y15.798 E1.72623
G1 X35.423 Y14.239 E1.74259
G1 X35.908 Y14.470 E1.74658
G1 X37.237 Y15.798 E1.76052
G1 X37.491 Y15.798 E1.76241
G1 X36.305 Y14.611 E1.77486
G1 X36.650 Y14.703 E1.77752
G1 X37.746 Y15.798 E1.78902
G1 X38.000 Y15.798 E1.79090
G1 X36.964 Y14.762 E1.80178
G1 X37.252 Y14.795 E1.80393
G1 X38.255 Y15.798 E1.81446
G1 X38.509 Y15.798 E1.81635
G1 X37.521 Y14.810 E1.82672
G1 X37.777 Y14.811 E1.82861
G1 X38.764 Y15.798 E1.83898
G1 X39.018 Y15.798 E1.84086
G1 X38.018 Y14.797 E1.85137
G1 X38.246 Y14.772 E1.85308
G1 X39.273 Y15.798 E1.86385
G1 X39.527 Y15.798 E1.86574
G1 X38.468 Y14.738 E1.87686
G1 X38.678 Y14.694 E1.87846
G1 X39.782 Y15.798 E1.89004
G1 X40.036 Y15.798 E1.89193
G1 X38.880 Y14.642 E1.90406
G1 X39.076 Y14.583 E1.90558
G1 X40.291 Y15.798 E1.91833
G1 X40.545 Y15.798 E1.92022
G1 X39.264 Y14.517 E1.93367
G1 X39.446 Y14.444 E1.93513
G1 X40.800 Y15.798 E1.94934
G1 X41.054 Y15.798 E1.95123
G1 X39.621 Y14.365 E1.96627
G1 X39.790 Y14.279 E1.96768
G1 X41.309 Y15.798 E1.98362
G1 X41.563 Y15.798 E1.98551
G1 X39.954 Y14.188 E2.00241
G1 X40.112 Y14.092 E2.00378
G1 X41.818 Y15.798 E2.02169
G1 X42.072 Y15.798 E2.02358
G1 X40.265 Y13.990 E2.04256
G1 X40.412 Y13.883 E2.04391
G1 X42.327 Y15.798 E2.06401
G1 X42.581 Y15.798 E2.06590
G1 X40.555 Y13.771 E2.08718
G1 X40.691 Y13.653 E2.08852
G1 X42.836 Y15.798 E2.11103
G1 X43.090 Y15.798 E2.11292
G1 X40.824 Y13.532 E2.13671
G1 X40.951 Y13.404 E2.13804
G1 X43.218 Y15.671 E2.16184
G1 X43.218 Y15.416 E2.16373
G1 X41.074 Y13.273 E2.18623
G1 X41.191 Y13.135 E2.18757
G1 X43.218 Y15.162 E2.20885
G1 X43.218 Y14.907 E2.21073
G1 X41.303 Y12.993 E2.23083
G1 X41.410 Y12.845 E2.23219
G1 X43.218 Y14.653 E2.25116
G1 X43.218 Y14.398 E2.25305
G1 X41.512 Y12.692 E2.27096
G1 X41.608 Y12.534 E2.27234
G1 X43.218 Y14.144 E2.28923
G1 X43.218 Y13.889 E2.29112
G1 X41.699 Y12.370 E2.30707
G1 X41.784 Y12.201 E2.30847
G1 X43.218 Y13.635 E2.32352
G1 X43.218 Y13.380 E2.32541
G1 X41.863 Y12.025 E2.33963
G1 X41.937 Y11.845 E2.34108
G1 X43.218 Y13.126 E2.35452
G1 X43.218 Y12.871 E2.35641
G1 X42.003 Y11.656 E2.36916
G1 X42.062 Y11.461 E2.37068
G1 X43.218 Y12.617 E2.38281
G1 X43.218 Y12.362 E2.38470
G1 X42.114 Y11.258 E2.39628
G1 X42.157 Y11.047 E2.39788
G1 X43.218 Y12.107 E2.40902
G1 X43.218 Y11.853 E2.41091
G1 X42.192 Y10.828 E2.42167
G1 X42.217 Y10.598 E2.42338
G1 X43.218 Y11.598 E2.43388
G1 X43.218 Y11.344 E2.43577
G1 X42.230 Y10.356 E2.44614
G1 X42.230 Y10.102 E2.44803
G1 X43.218 Y11.089 E2.45840
G1 X43.218 Y10.835 E2.46029
G1 X42.216 Y9.833 E2.47080
G1 X42.183 Y9.545 E2.47295
G1 X43.218 Y10.580 E2.48381
G1 X43.218 Y10.326 E2.48570
G1 X42.124 Y9.232 E2.49718
G1 X42.033 Y8.887 E2.49984
G1 X43.218 Y10.071 E2.51228
G1 X43.218 Y9.817 E2.51416
G1 X41.892 Y8.491 E2.52808
G1 X41.661 Y8.005 E2.53208
G1 X43.218 Y9.562 E2.54842
G1 E1.64842 F3600.00000
G92 E0
G1 X43.218 Y4.727 F7800.000
G1 E0.90000 F3600.00000
G1 F600
G1 X43.180 Y4.689 E0.90040
G1 X42.925 Y4.689 E0.90229
G1 X43.218 Y4.981 E0.90536
G1 X43.218 Y5.236 E0.90725
G1 X42.671 Y4.689 E0.91299
G1 X42.416 Y4.689 E0.91488
G1 X43.218 Y5.490 E0.92329
G1 X43.218 Y5.745 E0.92518
G1 X42.162 Y4.689 E0.93627
G1 X41.907 Y4.689 E0.93816
G1 X43.218 Y5.999 E0.95192
G1 X43.218 Y6.254 E0.95381
G1 X41.653 Y4.689 E0.97024
G1 X41.398 Y4.689 E0.97212
G1 X43.218 Y6.508 E0.99123
G1 X43.218 Y6.763 E0.99311
G1 X41.144 Y4.689 E1.01489
G1 X40.889 Y4.689 E1.01678
G1 X43.218 Y7.017 E1.04122
G1 X43.218 Y7.272 E1.04311
G1 X40.634 Y4.689 E1.07023
G1 X40.380 Y4.689 E1.07212
G1 X43.218 Y7.526 E1.10190
G1 X43.218 Y7.781 E1.10379
G1 X40.125 Y4.689 E1.13625
G1 X39.871 Y4.689 E1.13814
G1 X43.218 Y8.035 E1.17328
G1 X43.218 Y8.290 E1.17516
G1 X39.616 Y4.689 E1.21297
G1 X39.362 Y4.689 E1.21486
G1 X43.218 Y8.544 E1.25533
G1 X43.218 Y8.799 E1.25722
G1 X39.107 Y4.689 E1.30037
G1 X38.853 Y4.689 E1.30226
G1 X43.218 Y9.053 E1.34808
G1 X43.218 Y9.308 E1.34997
G1 X38.598 Y4.689 E1.39846
G1 X38.344 Y4.689 E1.40034
G1 X39.904 Y6.249 E1.41672
G1 X39.415 Y6.014 E1.42074
G1 X38.089 Y4.689 E1.43466
G1 X37.835 Y4.689 E1.43655
G1 X39.019 Y5.873 E1.44898
G1 X38.675 Y5.783 E1.45163
G1 X37.580 Y4.689 E1.46312
G1 X37.326 Y4.689 E1.46500
G1 X38.362 Y5.725 E1.47588
G1 X38.073 Y5.690 E1.47804
G1 X37.071 Y4.689 E1.48856
G1 X36.817 Y4.689 E1.49045
G1 X37.803 Y5.675 E1.50081
G1 X37.550 Y5.677 E1.50269
G1 X36.562 Y4.689 E1.51306
G1 X36.308 Y4.689 E1.51495
G1 X37.309 Y5.690 E1.52546
G1 X37.078 Y5.713 E1.52718
G1 X36.053 Y4.689 E1.53793
G1 X35.799 Y4.689 E1.53982
G1 X36.859 Y5.749 E1.55095
G1 X36.649 Y5.793 E1.55255
G1 X35.544 Y4.689 E1.56414
G1 X35.290 Y4.689 E1.56603
G1 X36.444 Y5.843 E1.57816
G1 X36.251 Y5.905 E1.57966
G1 X35.035 Y4.689 E1.59243
G1 X34.781 Y4.689 E1.59431
G1 X36.062 Y5.970 E1.60777
G1 X35.881 Y6.043 E1.60922
G1 X34.526 Y4.689 E1.62344
G1 X34.272 Y4.689 E1.62533
G1 X35.706 Y6.123 E1.64038
G1 X35.536 Y6.207 E1.64179
G1 X34.017 Y4.689 E1.65773
G1 X33.763 Y4.689 E1.65962
G1 X35.373 Y6.299 E1.67653
G1 X35.213 Y6.394 E1.67790
G1 X33.508 Y4.689 E1.69580
G1 X33.254 Y4.689 E1.69769
G1 X35.062 Y6.497 E1.71668
G1 X34.913 Y6.603 E1.71804
G1 X32.999 Y4.689 E1.73813
G1 X32.745 Y4.689 E1.74002
G1 X34.772 Y6.716 E1.76131
G1 X34.634 Y6.833 E1.76265
G1 X32.490 Y4.689 E1.78515
G1 X32.236 Y4.689 E1.78704
G1 X34.503 Y6.956 E1.81084
G1 X34.375 Y7.082 E1.81218
G1 X32.108 Y4.816 E1.83597
G1 X32.108 Y5.070 E1.83786
G1 X34.253 Y7.215 E1.86038
G1 X34.136 Y7.352 E1.86172
G1 X32.108 Y5.325 E1.88300
G1 X32.108 Y5.579 E1.88489
G1 X34.023 Y7.494 E1.90499
G1 X33.917 Y7.642 E1.90634
G1 X32.108 Y5.834 E1.92533
G1 X32.108 Y6.088 E1.92721
G1 X33.814 Y7.794 E1.94512
G1 X33.718 Y7.953 E1.94650
G1 X32.108 Y6.343 E1.96340
G1 X32.108 Y6.597 E1.96529
G1 X33.626 Y8.115 E1.98122
G1 X33.542 Y8.286 E1.98263
G1 X32.108 Y6.852 E1.99769
G1 X32.108 Y7.106 E1.99958
G1 X33.462 Y8.460 E2.01379
G1 X33.390 Y8.643 E2.01524
G1 X32.108 Y7.361 E2.02870
G1 X32.108 Y7.615 E2.03059
G1 X33.324 Y8.831 E2.04335
G1 X33.263 Y9.025 E2.04486
G1 X32.108 Y7.870 E2.05698
G1 X32.108 Y8.124 E2.05887
G1 X33.213 Y9.229 E2.07047
G1 X33.168 Y9.439 E2.07206
G1 X32.108 Y8.379 E2.08318
G1 X32.108 Y8.634 E2.08507
G1 X33.134 Y9.659 E2.09583
G1 X33.110 Y9.890 E2.09755
G1 X32.108 Y8.888 E2.10807
G1 X32.108 Y9.143 E2.10996
G1 X33.095 Y10.130 E2.12032
G1 X33.095 Y10.384 E2.12221
G1 X32.108 Y9.397 E2.13257
G1 X32.108 Y9.652 E2.13446
G1 X33.111 Y10.655 E2.14498
G1 X33.145 Y10.943 E2.14714
G1 X32.108 Y9.906 E2.15802
G1 X32.108 Y10.161 E2.15991
G1 X33.204 Y11.256 E2.17141
G1 X33.295 Y11.601 E2.17406
G1 X32.108 Y10.415 E2.18652
G1 X32.108 Y10.670 E2.18841
G1 X33.435 Y11.996 E2.20233
G1 X33.669 Y12.485 E2.20635
G1 X32.108 Y10.924 E2.22274
G1 X32.108 Y11.179 E2.22463
G1 X36.728 Y15.798 E2.27312
G1 X36.473 Y15.798 E2.27501
G1 X32.108 Y11.433 E2.32083
G1 X32.108 Y11.688 E2.32272
G1 X36.219 Y15.798 E2.36586
G1 X35.964 Y15.798 E2.36775
G1 X32.108 Y11.942 E2.40823
G1 X32.108 Y12.197 E2.41012
G1 X35.710 Y15.798 E2.44792
G1 X35.455 Y15.798 E2.44981
G1 X32.108 Y12.451 E2.48494
G1 X32.108 Y12.706 E2.48683
G1 X35.200 Y15.798 E2.51929
G1 X34.946 Y15.798 E2.52118
G1 X32.108 Y12.960 E2.55097
G1 X32.108 Y13.215 E2.55286
G1 X34.691 Y15.798 E2.57998
G1 X34.437 Y15.798 E2.58186
G1 X32.108 Y13.469 E2.60631
G1 X32.108 Y13.724 E2.60820
G1 X34.182 Y15.798 E2.62997
G1 X33.928 Y15.798 E2.63186
G1 X32.108 Y13.978 E2.65096
G1 X32.108 Y14.233 E2.65285
G1 X33.673 Y15.798 E2.66928
G1 X33.419 Y15.798 E2.67117
G1 X32.108 Y14.487 E2.68493
G1 X32.108 Y14.742 E2.68682
G1 X33.164 Y15.798 E2.69790
G1 X32.910 Y15.798 E2.69979
G1 X32.108 Y14.996 E2.70821
G1 X32.108 Y15.251 E2.71010
G1 X32.655 Y15.798 E2.71584
G1 X32.401 Y15.798 E2.71773
G1 X32.108 Y15.505 E2.72080
G1 X32.108 Y15.760 E2.72269
G1 X32.146 Y15.798 E2.72309
G4 P1
;G201 P1 X1
;G202 P1 X0
;G201 P0 X300
;G201 P0 X0

G1 Z0.700 F7800.000
G0 X10 Y10 ; Laser to park position
G4 P1
G202 P1 X0
G4 P1
G203 P1
G201 P1 X0.3
G203 P1
G4 P1000
G201 P0 X240
G201 P0 X0





G1 E1.82309 F3600.00000
G92 E0
G1 X38.344 Y15.798 F7800.000
G1 E0.90000 F3600.00000
G1 F600
G1 X39.903 Y14.239 E0.91637
G1 X39.415 Y14.472 E0.92038
G1 X38.089 Y15.798 E0.93430
G1 X37.835 Y15.798 E0.93619
G1 X39.020 Y14.613 E0.94863
G1 X38.674 Y14.704 E0.95128
G1 X37.580 Y15.798 E0.96276
G1 X37.326 Y15.798 E0.96465
G1 X38.362 Y14.762 E0.97553
G1 X38.073 Y14.796 E0.97769
G1 X37.071 Y15.798 E0.98821
G1 X36.817 Y15.798 E0.99009
G1 X37.804 Y14.811 E1.00045
G1 X37.550 Y14.810 E1.00234
G1 X36.562 Y15.798 E1.01271
G1 X36.308 Y15.798 E1.01459
G1 X37.308 Y14.797 E1.02510
G1 X37.078 Y14.773 E1.02682
G1 X36.053 Y15.798 E1.03758
G1 X35.799 Y15.798 E1.03947
G1 X36.859 Y14.738 E1.05060
G1 X36.649 Y14.693 E1.05219
G1 X35.544 Y15.798 E1.06379
G1 X35.290 Y15.798 E1.06568
G1 X36.444 Y14.643 E1.07780
G1 X36.251 Y14.582 E1.07930
G1 X35.035 Y15.798 E1.09207
G1 X34.781 Y15.798 E1.09396
G1 X36.062 Y14.517 E1.10741
G1 X35.881 Y14.443 E1.10886
G1 X34.526 Y15.798 E1.12308
G1 X34.272 Y15.798 E1.12497
G1 X35.706 Y14.364 E1.14003
G1 X35.536 Y14.279 E1.14144
G1 X34.017 Y15.798 E1.15738
G1 X33.763 Y15.798 E1.15926
G1 X35.373 Y14.188 E1.17617
G1 X35.213 Y14.093 E1.17755
G1 X33.508 Y15.798 E1.19545
G1 X33.254 Y15.798 E1.19734
G1 X35.062 Y13.989 E1.21632
G1 X34.913 Y13.884 E1.21768
G1 X32.999 Y15.798 E1.23777
G1 X32.745 Y15.798 E1.23966
G1 X34.772 Y13.770 E1.26095
G1 X34.634 Y13.654 E1.26229
G1 X32.490 Y15.798 E1.28480
G1 X32.236 Y15.798 E1.28669
G1 X34.503 Y13.531 E1.31048
G1 X34.375 Y13.404 E1.31182
G1 X32.108 Y15.671 E1.33562
G1 X32.108 Y15.416 E1.33751
G1 X34.253 Y13.272 E1.36002
G1 X34.136 Y13.134 E1.36136
G1 X32.108 Y15.162 E1.38264
G1 X32.108 Y14.907 E1.38453
G1 X34.023 Y12.992 E1.40463
G1 X33.917 Y12.844 E1.40599
G1 X32.108 Y14.653 E1.42497
G1 X32.108 Y14.398 E1.42686
G1 X33.814 Y12.692 E1.44476
G1 X33.718 Y12.533 E1.44614
G1 X32.108 Y14.144 E1.46304
G1 X32.108 Y13.889 E1.46493
G1 X33.626 Y12.371 E1.48086
G1 X33.542 Y12.201 E1.48228
G1 X32.108 Y13.635 E1.49733
G1 X32.108 Y13.380 E1.49922
G1 X33.462 Y12.026 E1.51343
G1 X33.390 Y11.844 E1.51489
G1 X32.108 Y13.126 E1.52834
G1 X32.108 Y12.871 E1.53023
G1 X33.324 Y11.656 E1.54299
G1 X33.263 Y11.461 E1.54450
G1 X32.108 Y12.617 E1.55662
G1 X32.108 Y12.362 E1.55851
G1 X33.212 Y11.258 E1.57010
G1 X33.168 Y11.048 E1.57170
G1 X32.108 Y12.108 E1.58282
G1 X32.108 Y11.853 E1.58471
G1 X33.133 Y10.828 E1.59547
G1 X33.110 Y10.597 E1.59719
G1 X32.108 Y11.598 E1.60771
G1 X32.108 Y11.344 E1.60960
G1 X33.095 Y10.357 E1.61996
G1 X33.095 Y10.103 E1.62185
G1 X32.108 Y11.089 E1.63221
G1 X32.108 Y10.835 E1.63410
G1 X33.111 Y9.832 E1.64462
G1 X33.145 Y9.544 E1.64678
G1 X32.108 Y10.580 E1.65766
G1 X32.108 Y10.326 E1.65955
G1 X33.203 Y9.231 E1.67104
G1 X33.294 Y8.885 E1.67369
G1 X32.108 Y10.071 E1.68615
G1 X32.108 Y9.817 E1.68804
G1 X33.435 Y8.490 E1.70197
G1 X33.669 Y8.002 E1.70598
G1 X32.108 Y9.562 E1.72236
G1 X32.108 Y9.308 E1.72425
G1 E0.82425 F3600.00000
G92 E0
G1 X32.108 Y4.726 F7800.000
G1 E0.90000 F3600.00000
G1 F600
G1 X32.146 Y4.689 E0.90040
G1 X32.401 Y4.689 E0.90229
G1 X32.108 Y4.981 E0.90536
G1 X32.108 Y5.236 E0.90725
G1 X32.655 Y4.689 E0.91299
G1 X32.910 Y4.689 E0.91488
G1 X32.108 Y5.490 E0.92329
G1 X32.108 Y5.745 E0.92518
G1 X33.164 Y4.689 E0.93627
G1 X33.419 Y4.689 E0.93816
G1 X32.108 Y5.999 E0.95192
G1 X32.108 Y6.254 E0.95381
G1 X33.673 Y4.689 E0.97024
G1 X33.928 Y4.689 E0.97212
G1 X32.108 Y6.508 E0.99123
G1 X32.108 Y6.763 E0.99312
G1 X34.182 Y4.689 E1.01489
G1 X34.437 Y4.689 E1.01678
G1 X32.108 Y7.017 E1.04122
G1 X32.108 Y7.272 E1.04311
G1 X34.691 Y4.689 E1.07023
G1 X34.946 Y4.689 E1.07212
G1 X32.108 Y7.526 E1.10191
G1 X32.108 Y7.781 E1.10380
G1 X35.200 Y4.689 E1.13626
G1 X35.455 Y4.689 E1.13815
G1 X32.108 Y8.035 E1.17328
G1 X32.108 Y8.290 E1.17517
G1 X35.710 Y4.689 E1.21297
G1 X35.964 Y4.689 E1.21486
G1 X32.108 Y8.544 E1.25534
G1 X32.108 Y8.799 E1.25722
G1 X36.219 Y4.689 E1.30037
G1 X36.473 Y4.689 E1.30226
G1 X32.108 Y9.053 E1.34808
G1 X32.108 Y9.308 E1.34997
G1 X36.728 Y4.689 E1.39846
G1 X36.982 Y4.689 E1.40035
G1 X35.423 Y6.247 E1.41671
G1 X35.909 Y6.017 E1.42070
G1 X37.237 Y4.689 E1.43464
G1 X37.491 Y4.689 E1.43653
G1 X36.305 Y5.875 E1.44899
G1 X36.650 Y5.784 E1.45164
G1 X37.746 Y4.689 E1.46314
G1 X38.000 Y4.689 E1.46503
G1 X36.964 Y5.725 E1.47591
G1 X37.252 Y5.691 E1.47806
G1 X38.255 Y4.689 E1.48858
G1 X38.509 Y4.689 E1.49047
G1 X37.521 Y5.676 E1.50084
G1 X37.777 Y5.676 E1.50273
G1 X38.764 Y4.689 E1.51309
G1 X39.018 Y4.689 E1.51498
G1 X38.018 Y5.689 E1.52549
G1 X38.247 Y5.715 E1.52720
G1 X39.273 Y4.689 E1.53797
G1 X39.527 Y4.689 E1.53986
G1 X38.468 Y5.748 E1.55098
G1 X38.678 Y5.792 E1.55258
G1 X39.782 Y4.689 E1.56416
G1 X40.036 Y4.689 E1.56605
G1 X38.881 Y5.844 E1.57818
G1 X39.076 Y5.904 E1.57970
G1 X40.291 Y4.689 E1.59245
G1 X40.545 Y4.689 E1.59434
G1 X39.264 Y5.970 E1.60779
G1 X39.446 Y6.042 E1.60924
G1 X40.800 Y4.689 E1.62346
G1 X41.054 Y4.689 E1.62534
G1 X39.621 Y6.122 E1.64039
G1 X39.790 Y6.207 E1.64180
G1 X41.309 Y4.689 E1.65774
G1 X41.563 Y4.689 E1.65963
G1 X39.954 Y6.298 E1.67653
G1 X40.112 Y6.395 E1.67790
G1 X41.818 Y4.689 E1.69581
G1 X42.072 Y4.689 E1.69770
G1 X40.264 Y6.497 E1.71668
G1 X40.412 Y6.603 E1.71803
G1 X42.327 Y4.689 E1.73813
G1 X42.581 Y4.689 E1.74002
G1 X40.554 Y6.716 E1.76130
G1 X40.692 Y6.833 E1.76264
G1 X42.836 Y4.689 E1.78515
G1 X43.090 Y4.689 E1.78704
G1 X40.824 Y6.955 E1.81083
G1 X40.951 Y7.082 E1.81216
G1 X43.218 Y4.816 E1.83596
G1 X43.218 Y5.070 E1.83785
G1 X41.074 Y7.214 E1.86035
G1 X41.191 Y7.352 E1.86169
G1 X43.218 Y5.325 E1.88297
G1 X43.218 Y5.579 E1.88486
G1 X41.303 Y7.494 E1.90495
G1 X41.410 Y7.642 E1.90631
G1 X43.218 Y5.834 E1.92529
G1 X43.218 Y6.088 E1.92717
G1 X41.512 Y7.794 E1.94508
G1 X41.608 Y7.953 E1.94646
G1 X43.218 Y6.343 E1.96336
G1 X43.218 Y6.597 E1.96525
G1 X41.699 Y8.116 E1.98119
G1 X41.784 Y8.285 E1.98260
G1 X43.218 Y6.852 E1.99764
G1 X43.218 Y7.106 E1.99953
G1 X41.863 Y8.461 E2.01375
G1 X41.937 Y8.642 E2.01520
G1 X43.218 Y7.361 E2.02864
G1 X43.218 Y7.615 E2.03053
G1 X42.002 Y8.831 E2.04329
G1 X42.062 Y9.025 E2.04480
G1 X43.218 Y7.870 E2.05693
G1 X43.218 Y8.125 E2.05882
G1 X42.114 Y9.228 E2.07041
G1 X42.157 Y9.439 E2.07201
G1 X43.218 Y8.379 E2.08314
G1 X43.218 Y8.634 E2.08503
G1 X42.192 Y9.659 E2.09579
G1 X42.217 Y9.888 E2.09751
G1 X43.218 Y8.888 E2.10801
G1 X43.218 Y9.143 E2.10990
G1 X42.230 Y10.130 E2.12026
G1 X42.230 Y10.384 E2.12215
G1 X43.218 Y9.397 E2.13252
G1 X43.218 Y9.652 E2.13441
G1 X42.216 Y10.653 E2.14492
G1 X42.183 Y10.941 E2.14707
G1 X43.218 Y9.906 E2.15794
G1 X43.218 Y10.161 E2.15982
G1 X42.124 Y11.255 E2.17131
G1 X42.032 Y11.600 E2.17396
G1 X43.218 Y10.415 E2.18640
G1 X43.218 Y10.670 E2.18829
G1 X41.891 Y11.996 E2.20222
G1 X41.661 Y12.481 E2.20620
G1 X43.218 Y10.924 E2.22254
G1 X43.218 Y11.179 E2.22443
G1 X38.598 Y15.798 E2.27292
G1 X38.853 Y15.798 E2.27481
G1 X43.218 Y11.433 E2.32063
G1 X43.218 Y11.688 E2.32252
G1 X39.107 Y15.798 E2.36566
G1 X39.362 Y15.798 E2.36755
G1 X43.218 Y11.942 E2.40803
G1 X43.218 Y12.197 E2.40992
G1 X39.616 Y15.798 E2.44772
G1 X39.871 Y15.798 E2.44961
G1 X43.218 Y12.451 E2.48474
G1 X43.218 Y12.706 E2.48663
G1 X40.125 Y15.798 E2.51909
G1 X40.380 Y15.798 E2.52098
G1 X43.218 Y12.960 E2.55077
G1 X43.218 Y13.215 E2.55266
G1 X40.634 Y15.798 E2.57977
G1 X40.889 Y15.798 E2.58166
G1 X43.218 Y13.469 E2.60611
G1 X43.218 Y13.724 E2.60800
G1 X41.144 Y15.798 E2.62977
G1 X41.398 Y15.798 E2.63166
G1 X43.218 Y13.978 E2.65076
G1 X43.218 Y14.233 E2.65265
G1 X41.653 Y15.798 E2.66908
G1 X41.907 Y15.798 E2.67097
G1 X43.218 Y14.487 E2.68473
G1 X43.218 Y14.742 E2.68662
G1 X42.162 Y15.798 E2.69770
G1 X42.416 Y15.798 E2.69959
G1 X43.218 Y14.996 E2.70800
G1 X43.218 Y15.251 E2.70989
G1 X42.671 Y15.798 E2.71564
G1 X42.925 Y15.798 E2.71753
G1 X43.218 Y15.505 E2.72060
G1 X43.218 Y15.760 E2.72249
G1 X43.180 Y15.798 E2.72288
G4 P1
;G201 P1 X1
;G202 P1 X0
;G201 P0 X300
;G201 P0 X0

G1 Z0.800 F7800.000
G0 X10 Y10 ; Laser to park position
G4 P1
G202 P1 X0
G4 P1
G203 P1
G201 P1 X0.3
G203 P1
G4 P1000
G201 P0 X240
G201 P0 X0





G1 E1.82288 F3600.00000
G92 E0
G1 X43.218 Y9.562 F7800.000
G1 E0.90000 F3600.00000
G1 F600
G1 X41.660 Y8.005 E0.91635
G1 X41.891 Y8.490 E0.92033
G1 X43.218 Y9.817 E0.93426
G1 X43.218 Y10.071 E0.93615
G1 X42.032 Y8.886 E0.94859
G1 X42.123 Y9.232 E0.95125
G1 X43.218 Y10.326 E0.96273
G1 X43.218 Y10.580 E0.96462
G1 X42.183 Y9.545 E0.97549
G1 X42.216 Y9.833 E0.97764
G1 X43.218 Y10.835 E0.98815
G1 X43.218 Y11.089 E0.99004
G1 X42.230 Y10.102 E1.00041
G1 X42.230 Y10.356 E1.00230
G1 X43.218 Y11.344 E1.01266
G1 X43.218 Y11.598 E1.01455
G1 X42.217 Y10.598 E1.02506
G1 X42.192 Y10.828 E1.02677
G1 X43.218 Y11.853 E1.03753
G1 X43.218 Y12.107 E1.03942
G1 X42.157 Y11.047 E1.05055
G1 X42.114 Y11.258 E1.05215
G1 X43.218 Y12.362 E1.06374
G1 X43.218 Y12.617 E1.06563
G1 X42.062 Y11.461 E1.07776
G1 X42.002 Y11.656 E1.07927
G1 X43.218 Y12.871 E1.09203
G1 X43.218 Y13.126 E1.09392
G1 X41.937 Y11.845 E1.10736
G1 X41.863 Y12.026 E1.10881
G1 X43.218 Y13.380 E1.12303
G1 X43.218 Y13.635 E1.12492
G1 X41.784 Y12.201 E1.13997
G1 X41.699 Y12.370 E1.14137
G1 X43.218 Y13.889 E1.15732
G1 X43.218 Y14.144 E1.15920
G1 X41.608 Y12.534 E1.17611
G1 X41.512 Y12.692 E1.17748
G1 X43.218 Y14.398 E1.19539
G1 X43.218 Y14.653 E1.19728
G1 X41.409 Y12.844 E1.21626
G1 X41.303 Y12.993 E1.21761
G1 X43.218 Y14.907 E1.23771
G1 X43.218 Y15.162 E1.23960
G1 X41.190 Y13.134 E1.26088
G1 X41.074 Y13.272 E1.26222
G1 X43.218 Y15.416 E1.28472
G1 X43.218 Y15.671 E1.28661
G1 X40.951 Y13.404 E1.31040
G1 X40.824 Y13.532 E1.31174
G1 X43.090 Y15.798 E1.33553
G1 X42.836 Y15.798 E1.33742
G1 X40.692 Y13.654 E1.35993
G1 X40.554 Y13.771 E1.36127
G1 X42.581 Y15.798 E1.38255
G1 X42.327 Y15.798 E1.38443
G1 X40.412 Y13.883 E1.40453
G1 X40.264 Y13.990 E1.40589
G1 X42.072 Y15.798 E1.42487
G1 X41.818 Y15.798 E1.42676
G1 X40.112 Y14.092 E1.44466
G1 X39.953 Y14.188 E1.44604
G1 X41.563 Y15.798 E1.46294
G1 X41.309 Y15.798 E1.46483
G1 X39.791 Y14.280 E1.48077
G1 X39.621 Y14.364 E1.48218
G1 X41.054 Y15.798 E1.49723
G1 X40.800 Y15.798 E1.49912
G1 X39.446 Y14.444 E1.51333
G1 X39.264 Y14.517 E1.51478
G1 X40.545 Y15.798 E1.52823
G1 X40.291 Y15.798 E1.53012
G1 X39.076 Y14.583 E1.54287
G1 X38.881 Y14.643 E1.54438
G1 X40.036 Y15.798 E1.55651
G1 X39.782 Y15.798 E1.55840
G1 X38.678 Y14.694 E1.56999
G1 X38.467 Y14.738 E1.57159
G1 X39.527 Y15.798 E1.58271
G1 X39.273 Y15.798 E1.58460
G1 X38.247 Y14.772 E1.59537
G1 X38.018 Y14.797 E1.59708
G1 X39.018 Y15.798 E1.60759
G1 X38.764 Y15.798 E1.60948
G1 X37.776 Y14.811 E1.61984
G1 X37.522 Y14.810 E1.62173
G1 X38.509 Y15.798 E1.63210
G1 X38.255 Y15.798 E1.63399
G1 X37.252 Y14.796 E1.64451
G1 X36.964 Y14.762 E1.64666
G1 X38.000 Y15.798 E1.65753
G1 X37.746 Y15.798 E1.65942
G1 X36.650 Y14.703 E1.67092
G1 X36.304 Y14.611 E1.67358
G1 X37.491 Y15.798 E1.68603
G1 X37.237 Y15.798 E1.68792
G1 X35.908 Y14.470 E1.70186
G1 X35.423 Y14.239 E1.70585
G1 X36.982 Y15.798 E1.72222
G1 X36.728 Y15.798 E1.72411
G1 E0.82411 F3600.00000
G92 E0
G1 X32.146 Y15.798 F7800.000
G1 E0.90000 F3600.00000
G1 F600
G1 X32.108 Y15.760 E0.90040
G1 X32.108 Y15.505 E0.90229
G1 X32.401 Y15.798 E0.90536
G1 X32.655 Y15.798 E0.90725
G1 X32.108 Y15.251 E0.91299
G1 X32.108 Y14.996 E0.91488
G1 X32.910 Y15.798 E0.92329
G1 X33.164 Y15.798 E0.92518
G1 X32.108 Y14.742 E0.93627
G1 X32.108 Y14.487 E0.93816
G1 X33.419 Y15.798 E0.95192
G1 X33.673 Y15.798 E0.95381
G1 X32.108 Y14.233 E0.97024
G1 X32.108 Y13.978 E0.97213
G1 X33.928 Y15.798 E0.99123
G1 X34.182 Y15.798 E0.99312
G1 X32.108 Y13.724 E1.01489
G1 X32.108 Y13.469 E1.01678
G1 X34.437 Y15.798 E1.04122
G1 X34.691 Y15.798 E1.04311
G1 X32.108 Y13.215 E1.07023
G1 X32.108 Y12.960 E1.07212
G1 X34.946 Y15.798 E1.10191
G1 X35.200 Y15.798 E1.10380
G1 X32.108 Y12.706 E1.13626
G1 X32.108 Y12.451 E1.13815
G1 X35.455 Y15.798 E1.17328
G1 X35.710 Y15.798 E1.17517
G1 X32.108 Y12.197 E1.21297
G1 X32.108 Y11.942 E1.21486
G1 X35.964 Y15.798 E1.25534
G1 X36.219 Y15.798 E1.25723
G1 X32.108 Y11.688 E1.30037
G1 X32.108 Y11.433 E1.30226
G1 X36.473 Y15.798 E1.34808
G1 X36.728 Y15.798 E1.34997
G1 X32.108 Y11.179 E1.39846
G1 X32.108 Y10.924 E1.40035
G1 X33.668 Y12.484 E1.41673
G1 X33.436 Y11.997 E1.42073
G1 X32.108 Y10.670 E1.43467
G1 X32.108 Y10.415 E1.43656
G1 X33.294 Y11.601 E1.44900
G1 X33.203 Y11.256 E1.45166
G1 X32.108 Y10.161 E1.46315
G1 X32.108 Y9.906 E1.46504
G1 X33.144 Y10.942 E1.47592
G1 X33.111 Y10.654 E1.47807
G1 X32.108 Y9.652 E1.48859
G1 X32.108 Y9.397 E1.49048
G1 X33.095 Y10.384 E1.50085
G1 X33.096 Y10.130 E1.50273
G1 X32.108 Y9.143 E1.51310
G1 X32.108 Y8.888 E1.51499
G1 X33.110 Y9.889 E1.52550
G1 X33.134 Y9.659 E1.52722
G1 X32.108 Y8.634 E1.53798
G1 X32.108 Y8.379 E1.53987
G1 X33.168 Y9.439 E1.55099
G1 X33.213 Y9.229 E1.55259
G1 X32.108 Y8.124 E1.56418
G1 X32.108 Y7.870 E1.56607
G1 X33.263 Y9.025 E1.57819
G1 X33.324 Y8.831 E1.57970
G1 X32.108 Y7.615 E1.59246
G1 X32.108 Y7.361 E1.59435
G1 X33.390 Y8.642 E1.60780
G1 X33.463 Y8.461 E1.60926
G1 X32.108 Y7.106 E1.62347
G1 X32.108 Y6.852 E1.62536
G1 X33.542 Y8.286 E1.64041
G1 X33.626 Y8.115 E1.64183
G1 X32.108 Y6.597 E1.65776
G1 X32.108 Y6.343 E1.65965
G1 X33.719 Y7.953 E1.67655
G1 X33.814 Y7.794 E1.67793
G1 X32.108 Y6.088 E1.69583
G1 X32.108 Y5.834 E1.69772
G1 X33.917 Y7.642 E1.71671
G1 X34.023 Y7.494 E1.71806
G1 X32.108 Y5.579 E1.73816
G1 X32.108 Y5.325 E1.74005
G1 X34.136 Y7.352 E1.76133
G1 X34.253 Y7.215 E1.76267
G1 X32.108 Y5.070 E1.78519
G1 X32.108 Y4.816 E1.78708
G1 X34.375 Y7.083 E1.81087
G1 X34.503 Y6.956 E1.81221
G1 X32.236 Y4.689 E1.83601
G1 X32.490 Y4.689 E1.83789
G1 X34.634 Y6.833 E1.86040
G1 X34.772 Y6.716 E1.86174
G1 X32.745 Y4.689 E1.88303
G1 X32.999 Y4.689 E1.88492
G1 X34.913 Y6.603 E1.90501
G1 X35.062 Y6.497 E1.90637
G1 X33.254 Y4.689 E1.92535
G1 X33.508 Y4.689 E1.92724
G1 X35.213 Y6.394 E1.94514
G1 X35.373 Y6.299 E1.94652
G1 X33.763 Y4.689 E1.96343
G1 X34.017 Y4.689 E1.96532
G1 X35.536 Y6.207 E1.98126
G1 X35.706 Y6.123 E1.98267
G1 X34.272 Y4.689 E1.99772
G1 X34.526 Y4.689 E1.99961
G1 X35.881 Y6.043 E2.01383
G1 X36.062 Y5.970 E2.01528
G1 X34.781 Y4.689 E2.02874
G1 X35.035 Y4.689 E2.03062
G1 X36.251 Y5.905 E2.04339
G1 X36.444 Y5.843 E2.04489
G1 X35.290 Y4.689 E2.05702
G1 X35.544 Y4.689 E2.05890
G1 X36.649 Y5.793 E2.07050
G1 X36.859 Y5.749 E2.07210
G1 X35.799 Y4.689 E2.08322
G1 X36.053 Y4.689 E2.08511
G1 X37.078 Y5.714 E2.09587
G1 X37.309 Y5.689 E2.09759
G1 X36.308 Y4.689 E2.10810
G1 X36.562 Y4.689 E2.10999
G1 X37.550 Y5.676 E2.12036
G1 X37.804 Y5.676 E2.12224
G1 X36.817 Y4.689 E2.13260
G1 X37.071 Y4.689 E2.13449
G1 X38.073 Y5.691 E2.14501
G1 X38.362 Y5.725 E2.14716
G1 X37.326 Y4.689 E2.15804
G1 X37.580 Y4.689 E2.15993
G1 X38.674 Y5.782 E2.17141
G1 X39.020 Y5.874 E2.17407
G1 X37.835 Y4.689 E2.18651
G1 X38.089 Y4.689 E2.18840
G1 X39.416 Y6.015 E2.20232
G1 X39.903 Y6.247 E2.20632
G1 X38.344 Y4.689 E2.22269
G1 X38.598 Y4.689 E2.22458
G1 X43.218 Y9.308 E2.27307
G1 X43.218 Y9.053 E2.27495
G1 X38.853 Y4.689 E2.32077
G1 X39.107 Y4.689 E2.32266
G1 X43.218 Y8.799 E2.36581
G1 X43.218 Y8.544 E2.36770
G1 X39.362 Y4.689 E2.40817
G1 X39.616 Y4.689 E2.41006
G1 X43.218 Y8.290 E2.44787
G1 X43.218 Y8.035 E2.44976
G1 X39.871 Y4.689 E2.48489
G1 X40.125 Y4.689 E2.48678
G1 X43.218 Y7.781 E2.51924
G1 X43.218 Y7.526 E2.52113
G1 X40.380 Y4.689 E2.55091
G1 X40.634 Y4.689 E2.55280
G1 X43.218 Y7.272 E2.57992
G1 X43.218 Y7.017 E2.58181
G1 X40.889 Y4.689 E2.60625
G1 X41.144 Y4.689 E2.60814
G1 X43.218 Y6.763 E2.62992
G1 X43.218 Y6.508 E2.63181
G1 X41.398 Y4.689 E2.65091
G1 X41.653 Y4.689 E2.65280
G1 X43.218 Y6.254 E2.66923
G1 X43.218 Y5.999 E2.67111
G1 X41.907 Y4.689 E2.68487
G1 X42.162 Y4.689 E2.68676
G1 X43.218 Y5.745 E2.69785
G1 X43.218 Y5.490 E2.69974
G1 X42.416 Y4.689 E2.70815
G1 X42.671 Y4.689 E2.71004
G1 X43.218 Y5.236 E2.71578
G1 X43.218 Y4.981 E2.71767
G1 X42.925 Y4.689 E2.72074
G1 X43.180 Y4.689 E2.72263
G1 X43.218 Y4.727 E2.72303
G4 P1
;G201 P1 X1
;G202 P1 X0
;G201 P0 X300
;G201 P0 X0

G1 Z0.900 F7800.000
G0 X10 Y10 ; Laser to park position
G4 P1
G202 P1 X0
G4 P1
G203 P1
G201 P1 X0.3
G203 P1
G4 P1000
G201 P0 X240
G201 P0 X0





G1 E1.82303 F3600.00000
G92 E0
G1 X43.180 Y15.798 F7800.000
G1 E0.90000 F3600.00000
G1 F600
G1 X43.218 Y15.760 E0.90040
G1 X43.218 Y15.505 E0.90229
G1 X42.925 Y15.798 E0.90536
G1 X42.671 Y15.798 E0.90725
G1 X43.218 Y15.251 E0.91299
G1 X43.218 Y14.996 E0.91488
G1 X42.416 Y15.798 E0.92329
G1 X42.162 Y15.798 E0.92518
G1 X43.218 Y14.742 E0.93627
G1 X43.218 Y14.487 E0.93816
G1 X41.907 Y15.798 E0.95192
G1 X41.653 Y15.798 E0.95381
G1 X43.218 Y14.233 E0.97024
G1 X43.218 Y13.978 E0.97212
G1 X41.398 Y15.798 E0.99123
G1 X41.144 Y15.798 E0.99311
G1 X43.218 Y13.724 E1.01489
G1 X43.218 Y13.469 E1.01678
G1 X40.889 Y15.798 E1.04122
G1 X40.634 Y15.798 E1.04311
G1 X43.218 Y13.215 E1.07023
G1 X43.218 Y12.960 E1.07212
G1 X40.380 Y15.798 E1.10190
G1 X40.125 Y15.798 E1.10379
G1 X43.218 Y12.706 E1.13625
G1 X43.218 Y12.451 E1.13814
G1 X39.871 Y15.798 E1.17327
G1 X39.616 Y15.798 E1.17516
G1 X43.218 Y12.197 E1.21297
G1 X43.218 Y11.942 E1.21486
G1 X39.362 Y15.798 E1.25533
G1 X39.107 Y15.798 E1.25722
G1 X43.218 Y11.688 E1.30037
G1 X43.218 Y11.433 E1.30226
G1 X38.853 Y15.798 E1.34808
G1 X38.598 Y15.798 E1.34996
G1 X43.218 Y11.179 E1.39846
G1 X43.218 Y10.924 E1.40034
G1 X41.660 Y12.482 E1.41670
G1 X41.890 Y11.997 E1.42068
G1 X43.218 Y10.670 E1.43462
G1 X43.218 Y10.415 E1.43651
G1 X42.032 Y11.601 E1.44895
G1 X42.123 Y11.255 E1.45161
G1 X43.218 Y10.161 E1.46310
G1 X43.218 Y9.906 E1.46499
G1 X42.183 Y10.941 E1.47585
G1 X42.216 Y10.654 E1.47800
G1 X43.218 Y9.652 E1.48852
G1 X43.218 Y9.397 E1.49041
G1 X42.230 Y10.384 E1.50077
G1 X42.230 Y10.130 E1.50266
G1 X43.218 Y9.143 E1.51303
G1 X43.218 Y8.888 E1.51492
G1 X42.217 Y9.889 E1.52542
G1 X42.192 Y9.659 E1.52714
G1 X43.218 Y8.634 E1.53790
G1 X43.218 Y8.379 E1.53979
G1 X42.157 Y9.439 E1.55092
G1 X42.113 Y9.229 E1.55252
G1 X43.218 Y8.125 E1.56411
G1 X43.218 Y7.870 E1.56600
G1 X42.063 Y9.025 E1.57812
G1 X42.002 Y8.831 E1.57963
G1 X43.218 Y7.615 E1.59239
G1 X43.218 Y7.361 E1.59428
G1 X41.937 Y8.642 E1.60773
G1 X41.863 Y8.461 E1.60918
G1 X43.218 Y7.106 E1.62339
G1 X43.218 Y6.852 E1.62528
G1 X41.784 Y8.286 E1.64034
G1 X41.699 Y8.116 E1.64174
G1 X43.218 Y6.597 E1.65768
G1 X43.218 Y6.343 E1.65957
G1 X41.608 Y7.953 E1.67648
G1 X41.512 Y7.794 E1.67785
G1 X43.218 Y6.088 E1.69576
G1 X43.218 Y5.834 E1.69765
G1 X41.409 Y7.642 E1.71663
G1 X41.304 Y7.493 E1.71798
G1 X43.218 Y5.579 E1.73808
G1 X43.218 Y5.325 E1.73997
G1 X41.190 Y7.352 E1.76125
G1 X41.074 Y7.214 E1.76259
G1 X43.218 Y5.070 E1.78509
G1 X43.218 Y4.816 E1.78698
G1 X40.951 Y7.082 E1.81078
G1 X40.824 Y6.955 E1.81211
G1 X43.090 Y4.689 E1.83591
G1 X42.836 Y4.689 E1.83779
G1 X40.692 Y6.833 E1.86030
G1 X40.554 Y6.716 E1.86164
G1 X42.581 Y4.689 E1.88292
G1 X42.327 Y4.689 E1.88481
G1 X40.412 Y6.603 E1.90491
G1 X40.264 Y6.497 E1.90626
G1 X42.072 Y4.689 E1.92525
G1 X41.818 Y4.689 E1.92714
G1 X40.112 Y6.394 E1.94504
G1 X39.953 Y6.299 E1.94642
G1 X41.563 Y4.689 E1.96332
G1 X41.309 Y4.689 E1.96521
G1 X39.791 Y6.207 E1.98114
G1 X39.621 Y6.122 E1.98255
G1 X41.054 Y4.689 E1.99761
G1 X40.800 Y4.689 E1.99949
G1 X39.446 Y6.043 E2.01371
G1 X39.264 Y5.969 E2.01516
G1 X40.545 Y4.689 E2.02861
G1 X40.291 Y4.689 E2.03050
G1 X39.075 Y5.904 E2.04325
G1 X38.881 Y5.844 E2.04476
G1 X40.036 Y4.689 E2.05689
G1 X39.782 Y4.689 E2.05878
G1 X38.678 Y5.793 E2.07037
G1 X38.467 Y5.748 E2.07197
G1 X39.527 Y4.689 E2.08309
G1 X39.273 Y4.689 E2.08498
G1 X38.247 Y5.714 E2.09575
G1 X38.017 Y5.689 E2.09746
G1 X39.018 Y4.689 E2.10797
G1 X38.764 Y4.689 E2.10986
G1 X37.776 Y5.676 E2.12022
G1 X37.522 Y5.676 E2.12211
G1 X38.509 Y4.689 E2.13248
G1 X38.255 Y4.689 E2.13437
G1 X37.252 Y5.691 E2.14489
G1 X36.965 Y5.724 E2.14704
G1 X38.000 Y4.689 E2.15791
G1 X37.746 Y4.689 E2.15980
G1 X36.650 Y5.784 E2.17129
G1 X36.304 Y5.875 E2.17395
G1 X37.491 Y4.689 E2.18641
G1 X37.237 Y4.689 E2.18830
G1 X35.908 Y6.017 E2.20224
G1 X35.423 Y6.248 E2.20623
G1 X36.982 Y4.689 E2.22260
G1 X36.728 Y4.689 E2.22449
G1 X32.108 Y9.308 E2.27298
G1 X32.108 Y9.053 E2.27487
G1 X36.473 Y4.689 E2.32069
G1 X36.219 Y4.689 E2.32258
G1 X32.108 Y8.799 E2.36572
G1 X32.108 Y8.544 E2.36761
G1 X35.964 Y4.689 E2.40809
G1 X35.710 Y4.689 E2.40998
G1 X32.108 Y8.290 E2.44778
G1 X32.108 Y8.035 E2.44967
G1 X35.455 Y4.689 E2.48480
G1 X35.200 Y4.689 E2.48669
G1 X32.108 Y7.781 E2.51915
G1 X32.108 Y7.526 E2.52104
G1 X34.946 Y4.689 E2.55083
G1 X34.691 Y4.689 E2.55272
G1 X32.108 Y7.272 E2.57984
G1 X32.108 Y7.017 E2.58173
G1 X34.437 Y4.689 E2.60617
G1 X34.182 Y4.689 E2.60806
G1 X32.108 Y6.763 E2.62983
G1 X32.108 Y6.508 E2.63172
G1 X33.928 Y4.689 E2.65082
G1 X33.673 Y4.689 E2.65271
G1 X32.108 Y6.254 E2.66914
G1 X32.108 Y5.999 E2.67103
G1 X33.419 Y4.689 E2.68479
G1 X33.164 Y4.689 E2.68668
G1 X32.108 Y5.745 E2.69777
G1 X32.108 Y5.490 E2.69966
G1 X32.910 Y4.689 E2.70807
G1 X32.655 Y4.689 E2.70996
G1 X32.108 Y5.236 E2.71570
G1 X32.108 Y4.981 E2.71759
G1 X32.401 Y4.689 E2.72066
G1 X32.146 Y4.689 E2.72255
G1 X32.108 Y4.726 E2.72295
G1 E1.82295 F3600.00000
G92 E0
G1 X32.108 Y9.308 F7800.000
G1 E0.90000 F3600.00000
G1 F600
G1 X32.108 Y9.562 E0.90189
G1 X33.668 Y8.003 E0.91826
G1 X33.436 Y8.489 E0.92226
G1 X32.108 Y9.817 E0.93620
G1 X32.108 Y10.071 E0.93809
G1 X33.294 Y8.885 E0.95054
G1 X33.203 Y9.231 E0.95319
G1 X32.108 Y10.326 E0.96468
G1 X32.108 Y10.580 E0.96657
G1 X33.144 Y9.545 E0.97745
G1 X33.111 Y9.832 E0.97960
G1 X32.108 Y10.835 E0.99012
G1 X32.108 Y11.089 E0.99201
G1 X33.095 Y10.102 E1.00237
G1 X33.096 Y10.357 E1.00426
G1 X32.108 Y11.344 E1.01463
G1 X32.108 Y11.598 E1.01652
G1 X33.110 Y10.597 E1.02703
G1 X33.134 Y10.828 E1.02875
G1 X32.108 Y11.853 E1.03951
G1 X32.108 Y12.108 E1.04140
G1 X33.168 Y11.048 E1.05252
G1 X33.213 Y11.258 E1.05412
G1 X32.108 Y12.362 E1.06571
G1 X32.108 Y12.617 E1.06760
G1 X33.263 Y11.462 E1.07972
G1 X33.324 Y11.655 E1.08123
G1 X32.108 Y12.871 E1.09399
G1 X32.108 Y13.126 E1.09588
G1 X33.390 Y11.844 E1.10933
G1 X33.463 Y12.026 E1.11078
G1 X32.108 Y13.380 E1.12500
G1 X32.108 Y13.635 E1.12689
G1 X33.542 Y12.201 E1.14194
G1 X33.626 Y12.371 E1.14335
G1 X32.108 Y13.889 E1.15929
G1 X32.108 Y14.144 E1.16118
G1 X33.719 Y12.533 E1.17808
G1 X33.814 Y12.693 E1.17946
G1 X32.108 Y14.398 E1.19736
G1 X32.108 Y14.653 E1.19925
G1 X33.917 Y12.844 E1.21824
G1 X34.023 Y12.992 E1.21959
G1 X32.108 Y14.907 E1.23969
G1 X32.108 Y15.162 E1.24158
G1 X34.136 Y13.134 E1.26287
G1 X34.253 Y13.272 E1.26421
G1 X32.108 Y15.416 E1.28672
G1 X32.108 Y15.671 E1.28861
G1 X34.375 Y13.404 E1.31240
G1 X34.502 Y13.531 E1.31374
G1 X32.236 Y15.798 E1.33754
G1 X32.490 Y15.798 E1.33943
G1 X34.634 Y13.654 E1.36194
G1 X34.772 Y13.770 E1.36328
G1 X32.745 Y15.798 E1.38456
G1 X32.999 Y15.798 E1.38645
G1 X34.914 Y13.884 E1.40655
G1 X35.062 Y13.989 E1.40790
G1 X33.254 Y15.798 E1.42689
G1 X33.508 Y15.798 E1.42878
G1 X35.213 Y14.093 E1.44668
G1 X35.373 Y14.187 E1.44806
G1 X33.763 Y15.798 E1.46496
G1 X34.017 Y15.798 E1.46685
G1 X35.536 Y14.280 E1.48279
G1 X35.706 Y14.364 E1.48420
G1 X34.272 Y15.798 E1.49926
G1 X34.526 Y15.798 E1.50115
G1 X35.881 Y14.443 E1.51537
G1 X36.062 Y14.517 E1.51682
G1 X34.781 Y15.798 E1.53027
G1 X35.035 Y15.798 E1.53216
G1 X36.251 Y14.582 E1.54493
G1 X36.444 Y14.643 E1.54643
G1 X35.290 Y15.798 E1.55855
G1 X35.544 Y15.798 E1.56044
G1 X36.649 Y14.693 E1.57204
G1 X36.859 Y14.738 E1.57363
G1 X35.799 Y15.798 E1.58476
G1 X36.053 Y15.798 E1.58665
G1 X37.078 Y14.773 E1.59741
G1 X37.309 Y14.797 E1.59913
G1 X36.308 Y15.798 E1.60963
G1 X36.562 Y15.798 E1.61152
G1 X37.550 Y14.810 E1.62189
G1 X37.804 Y14.811 E1.62378
G1 X36.817 Y15.798 E1.63414
G1 X37.071 Y15.798 E1.63603
G1 X38.073 Y14.796 E1.64655
G1 X38.362 Y14.762 E1.64870
G1 X37.326 Y15.798 E1.65957
G1 X37.580 Y15.798 E1.66146
G1 X38.675 Y14.704 E1.67295
G1 X39.020 Y14.612 E1.67560
G1 X37.835 Y15.798 E1.68805
G1 X38.089 Y15.798 E1.68994
G1 X39.416 Y14.471 E1.70387
G1 X39.902 Y14.240 E1.70786
G1 X38.344 Y15.798 E1.72422
G4 P1
;G201 P1 X1
;G202 P1 X0
;G201 P0 X300
;G201 P0 X0

G1 Z1.000 F7800.000
G0 X10 Y10 ; Laser to park position
G4 P1
G202 P1 X0
G4 P1
G203 P1
G201 P1 X0.3
G203 P1
G4 P1000
G201 P0 X240
G201 P0 X0





G1 X36.728 Y15.798 F7800.000
G1 F600
G1 X36.982 Y15.798 E1.72611
G1 X35.423 Y14.238 E1.74248
G1 X35.908 Y14.470 E1.74647
G1 X37.237 Y15.798 E1.76041
G1 X37.491 Y15.798 E1.76230
G1 X36.304 Y14.611 E1.77476
G1 X36.650 Y14.703 E1.77742
G1 X37.746 Y15.798 E1.78892
G1 X38.000 Y15.798 E1.79080
G1 X36.965 Y14.763 E1.80167
G1 X37.252 Y14.796 E1.80382
G1 X38.255 Y15.798 E1.81434
G1 X38.509 Y15.798 E1.81623
G1 X37.522 Y14.810 E1.82659
G1 X37.776 Y14.810 E1.82848
G1 X38.764 Y15.798 E1.83885
G1 X39.018 Y15.798 E1.84074
G1 X38.017 Y14.797 E1.85125
G1 X38.247 Y14.772 E1.85296
G1 X39.273 Y15.798 E1.86373
G1 X39.527 Y15.798 E1.86562
G1 X38.467 Y14.738 E1.87674
G1 X38.677 Y14.694 E1.87834
G1 X39.782 Y15.798 E1.88993
G1 X40.036 Y15.798 E1.89182
G1 X38.881 Y14.643 E1.90394
G1 X39.075 Y14.582 E1.90545
G1 X40.291 Y15.798 E1.91821
G1 X40.545 Y15.798 E1.92010
G1 X39.264 Y14.517 E1.93355
G1 X39.445 Y14.444 E1.93500
G1 X40.800 Y15.798 E1.94922
G1 X41.054 Y15.798 E1.95111
G1 X39.620 Y14.364 E1.96616
G1 X39.791 Y14.280 E1.96757
G1 X41.309 Y15.798 E1.98350
G1 X41.563 Y15.798 E1.98539
G1 X39.953 Y14.188 E2.00230
G1 X40.112 Y14.092 E2.00367
G1 X41.818 Y15.798 E2.02158
G1 X42.072 Y15.798 E2.02347
G1 X40.264 Y13.989 E2.04245
G1 X40.412 Y13.884 E2.04381
G1 X42.327 Y15.798 E2.06390
G1 X42.581 Y15.798 E2.06579
G1 X40.554 Y13.770 E2.08708
G1 X40.692 Y13.654 E2.08842
G1 X42.836 Y15.798 E2.11092
G1 X43.090 Y15.798 E2.11281
G1 X40.824 Y13.531 E2.13661
G1 X40.951 Y13.404 E2.13794
G1 X43.218 Y15.671 E2.16174
G1 X43.218 Y15.416 E2.16363
G1 X41.074 Y13.272 E2.18614
G1 X41.190 Y13.134 E2.18748
G1 X43.218 Y15.162 E2.20876
G1 X43.218 Y14.907 E2.21065
G1 X41.303 Y12.993 E2.23074
G1 X41.409 Y12.844 E2.23210
G1 X43.218 Y14.653 E2.25108
G1 X43.218 Y14.398 E2.25297
G1 X41.512 Y12.693 E2.27087
G1 X41.607 Y12.533 E2.27225
G1 X43.218 Y14.144 E2.28916
G1 X43.218 Y13.889 E2.29105
G1 X41.699 Y12.371 E2.30698
G1 X41.784 Y12.201 E2.30839
G1 X43.218 Y13.635 E2.32345
G1 X43.218 Y13.380 E2.32534
G1 X41.863 Y12.026 E2.33955
G1 X41.936 Y11.844 E2.34100
G1 X43.218 Y13.126 E2.35445
G1 X43.218 Y12.871 E2.35634
G1 X42.002 Y11.655 E2.36910
G1 X42.063 Y11.462 E2.37061
G1 X43.218 Y12.617 E2.38274
G1 X43.218 Y12.362 E2.38462
G1 X42.113 Y11.258 E2.39622
G1 X42.157 Y11.047 E2.39781
G1 X43.218 Y12.107 E2.40894
G1 X43.218 Y11.853 E2.41083
G1 X42.192 Y10.828 E2.42160
G1 X42.217 Y10.598 E2.42331
G1 X43.218 Y11.598 E2.43382
G1 X43.218 Y11.344 E2.43571
G1 X42.230 Y10.356 E2.44607
G1 X42.230 Y10.102 E2.44796
G1 X43.218 Y11.089 E2.45833
G1 X43.218 Y10.835 E2.46022
G1 X42.216 Y9.833 E2.47073
G1 X42.183 Y9.545 E2.47288
G1 X43.218 Y10.580 E2.48375
G1 X43.218 Y10.326 E2.48564
G1 X42.123 Y9.231 E2.49713
G1 X42.032 Y8.885 E2.49978
G1 X43.218 Y10.071 E2.51224
G1 X43.218 Y9.817 E2.51413
G1 X41.890 Y8.489 E2.52806
G1 X41.659 Y8.004 E2.53205
G1 X43.218 Y9.562 E2.54841
G1 E1.64841 F3600.00000
G92 E0
G1 X43.218 Y4.727 F7800.000
G1 E0.90000 F3600.00000
G1 F600
G1 X43.180 Y4.689 E0.90040
G1 X42.925 Y4.689 E0.90229
G1 X43.218 Y4.981 E0.90536
G1 X43.218 Y5.236 E0.90725
G1 X42.671 Y4.689 E0.91299
G1 X42.416 Y4.689 E0.91488
G1 X43.218 Y5.490 E0.92329
G1 X43.218 Y5.745 E0.92518
G1 X42.162 Y4.689 E0.93627
G1 X41.907 Y4.689 E0.93816
G1 X43.218 Y5.999 E0.95192
G1 X43.218 Y6.254 E0.95381
G1 X41.653 Y4.689 E0.97024
G1 X41.398 Y4.689 E0.97212
G1 X43.218 Y6.508 E0.99123
G1 X43.218 Y6.763 E0.99311
G1 X41.144 Y4.689 E1.01489
G1 X40.889 Y4.689 E1.01678
G1 X43.218 Y7.017 E1.04122
G1 X43.218 Y7.272 E1.04311
G1 X40.634 Y4.689 E1.07023
G1 X40.380 Y4.689 E1.07212
G1 X43.218 Y7.526 E1.10190
G1 X43.218 Y7.781 E1.10379
G1 X40.125 Y4.689 E1.13625
G1 X39.871 Y4.689 E1.13814
G1 X43.218 Y8.035 E1.17328
G1 X43.218 Y8.290 E1.17516
G1 X39.616 Y4.689 E1.21297
G1 X39.362 Y4.689 E1.21486
G1 X43.218 Y8.544 E1.25533
G1 X43.218 Y8.799 E1.25722
G1 X39.107 Y4.689 E1.30037
G1 X38.853 Y4.689 E1.30226
G1 X43.218 Y9.053 E1.34808
G1 X43.218 Y9.308 E1.34997
G1 X38.598 Y4.689 E1.39846
G1 X38.344 Y4.689 E1.40034
G1 X39.902 Y6.247 E1.41670
G1 X39.417 Y6.016 E1.42069
G1 X38.089 Y4.689 E1.43463
G1 X37.835 Y4.689 E1.43652
G1 X39.021 Y5.875 E1.44896
G1 X38.675 Y5.783 E1.45162
G1 X37.580 Y4.689 E1.46311
G1 X37.326 Y4.689 E1.46500
G1 X38.361 Y5.724 E1.47587
G1 X38.073 Y5.691 E1.47802
G1 X37.071 Y4.689 E1.48854
G1 X36.817 Y4.689 E1.49043
G1 X37.804 Y5.676 E1.50079
G1 X37.550 Y5.676 E1.50268
G1 X36.562 Y4.689 E1.51305
G1 X36.308 Y4.689 E1.51494
G1 X37.309 Y5.689 E1.52544
G1 X37.079 Y5.714 E1.52716
G1 X36.053 Y4.689 E1.53792
G1 X35.799 Y4.689 E1.53981
G1 X36.859 Y5.749 E1.55094
G1 X36.649 Y5.793 E1.55253
G1 X35.544 Y4.689 E1.56413
G1 X35.290 Y4.689 E1.56602
G1 X36.444 Y5.843 E1.57814
G1 X36.251 Y5.905 E1.57965
G1 X35.035 Y4.689 E1.59241
G1 X34.781 Y4.689 E1.59430
G1 X36.062 Y5.970 E1.60775
G1 X35.881 Y6.043 E1.60920
G1 X34.526 Y4.689 E1.62342
G1 X34.272 Y4.689 E1.62531
G1 X35.706 Y6.123 E1.64037
G1 X35.535 Y6.207 E1.64178
G1 X34.017 Y4.689 E1.65772
G1 X33.763 Y4.689 E1.65961
G1 X35.373 Y6.299 E1.67652
G1 X35.213 Y6.394 E1.67790
G1 X33.508 Y4.689 E1.69579
G1 X33.254 Y4.689 E1.69768
G1 X35.062 Y6.497 E1.71667
G1 X34.914 Y6.603 E1.71802
G1 X32.999 Y4.689 E1.73812
G1 X32.745 Y4.689 E1.74001
G1 X34.772 Y6.716 E1.76130
G1 X34.634 Y6.833 E1.76264
G1 X32.490 Y4.689 E1.78515
G1 X32.236 Y4.689 E1.78704
G1 X34.503 Y6.956 E1.81084
G1 X34.375 Y7.083 E1.81217
G1 X32.108 Y4.816 E1.83597
G1 X32.108 Y5.070 E1.83786
G1 X34.253 Y7.215 E1.86037
G1 X34.136 Y7.353 E1.86171
G1 X32.108 Y5.325 E1.88299
G1 X32.108 Y5.579 E1.88488
G1 X34.023 Y7.494 E1.90498
G1 X33.917 Y7.643 E1.90634
G1 X32.108 Y5.834 E1.92532
G1 X32.108 Y6.088 E1.92721
G1 X33.814 Y7.794 E1.94511
G1 X33.719 Y7.953 E1.94649
G1 X32.108 Y6.343 E1.96340
G1 X32.108 Y6.597 E1.96529
G1 X33.625 Y8.114 E1.98121
G1 X33.542 Y8.286 E1.98263
G1 X32.108 Y6.852 E1.99768
G1 X32.108 Y7.106 E1.99957
G1 X33.463 Y8.461 E2.01379
G1 X33.390 Y8.642 E2.01524
G1 X32.108 Y7.361 E2.02869
G1 X32.108 Y7.615 E2.03058
G1 X33.324 Y8.831 E2.04334
G1 X33.263 Y9.025 E2.04485
G1 X32.108 Y7.870 E2.05697
G1 X32.108 Y8.124 E2.05886
G1 X33.213 Y9.229 E2.07045
G1 X33.168 Y9.439 E2.07205
G1 X32.108 Y8.379 E2.08317
G1 X32.108 Y8.634 E2.08506
G1 X33.134 Y9.659 E2.09583
G1 X33.109 Y9.889 E2.09755
G1 X32.108 Y8.888 E2.10806
G1 X32.108 Y9.143 E2.10994
G1 X33.096 Y10.130 E2.12031
G1 X33.096 Y10.384 E2.12220
G1 X32.108 Y9.397 E2.13256
G1 X32.108 Y9.652 E2.13445
G1 X33.111 Y10.654 E2.14497
G1 X33.144 Y10.942 E2.14712
G1 X32.108 Y9.906 E2.15799
G1 X32.108 Y10.161 E2.15988
G1 X33.203 Y11.255 E2.17138
G1 X33.295 Y11.601 E2.17403
G1 X32.108 Y10.415 E2.18648
G1 X32.108 Y10.670 E2.18837
G1 X33.436 Y11.997 E2.20231
G1 X33.668 Y12.483 E2.20631
G1 X32.108 Y10.924 E2.22268
G1 X32.108 Y11.179 E2.22456
G1 X36.728 Y15.798 E2.27306
G1 X36.473 Y15.798 E2.27494
G1 X32.108 Y11.433 E2.32076
G1 X32.108 Y11.688 E2.32265
G1 X36.219 Y15.798 E2.36580
G1 X35.964 Y15.798 E2.36769
G1 X32.108 Y11.942 E2.40816
G1 X32.108 Y12.197 E2.41005
G1 X35.710 Y15.798 E2.44786
G1 X35.455 Y15.798 E2.44975
G1 X32.108 Y12.451 E2.48488
G1 X32.108 Y12.706 E2.48677
G1 X35.200 Y15.798 E2.51923
G1 X34.946 Y15.798 E2.52112
G1 X32.108 Y12.960 E2.55091
G1 X32.108 Y13.215 E2.55280
G1 X34.691 Y15.798 E2.57991
G1 X34.437 Y15.798 E2.58180
G1 X32.108 Y13.469 E2.60625
G1 X32.108 Y13.724 E2.60814
G1 X34.182 Y15.798 E2.62991
G1 X33.928 Y15.798 E2.63180
G1 X32.108 Y13.978 E2.65090
G1 X32.108 Y14.233 E2.65279
G1 X33.673 Y15.798 E2.66922
G1 X33.419 Y15.798 E2.67111
G1 X32.108 Y14.487 E2.68487
G1 X32.108 Y14.742 E2.68676
G1 X33.164 Y15.798 E2.69784
G1 X32.910 Y15.798 E2.69973
G1 X32.108 Y14.996 E2.70815
G1 X32.108 Y15.251 E2.71004
G1 X32.655 Y15.798 E2.71578
G1 X32.401 Y15.798 E2.71767
G1 X32.108 Y15.505 E2.72074
G1 X32.108 Y15.760 E2.72263
G1 X32.146 Y15.798 E2.72303
G4 P1
;G201 P1 X1
;G202 P1 X0
;G201 P0 X300
;G201 P0 X0

G1 Z1.100 F7800.000
G0 X10 Y10 ; Laser to park position
G4 P1
G202 P1 X0
G4 P1
G203 P1
G201 P1 X0.3
G203 P1
G4 P1000
G201 P0 X240
G201 P0 X0





G1 X34.093 Y15.798 F7800.000
G1 F600
G1 X34.131 Y15.760 E2.72342
G1 X34.129 Y15.497 E2.72538
G1 X33.828 Y15.798 E2.72854
G1 X33.562 Y15.798 E2.73051
G1 X34.127 Y15.233 E2.73643
G1 X34.125 Y14.970 E2.73839
G1 X33.297 Y15.798 E2.74708
G1 X33.031 Y15.798 E2.74906
G1 X34.123 Y14.706 E2.76051
G1 X34.121 Y14.443 E2.76247
G1 X32.766 Y15.798 E2.77670
G1 X32.500 Y15.798 E2.77867
G1 X34.119 Y14.179 E2.79566
G1 X34.117 Y13.916 E2.79762
G1 X32.234 Y15.798 E2.81738
G1 X32.108 Y15.798 E2.81831
G1 X32.108 Y15.659 E2.81935
G1 X33.991 Y13.776 E2.83911
G1 X33.723 Y13.779 E2.84110
G1 X32.108 Y15.393 E2.85805
G1 X32.108 Y15.128 E2.86002
G1 X33.455 Y13.781 E2.87415
G1 X33.187 Y13.784 E2.87614
G1 X32.108 Y14.862 E2.88746
G1 X32.108 Y14.596 E2.88943
G1 X32.922 Y13.783 E2.89797
G1 X32.663 Y13.776 E2.89989
G1 X32.108 Y14.331 E2.90571
G1 X32.108 Y14.065 E2.90769
G1 X32.405 Y13.769 E2.91080
G1 X32.146 Y13.762 E2.91272
G1 X32.108 Y13.800 E2.91311
G1 E2.01311 F3600.00000
G92 E0
G1 X34.093 Y6.696 F7800.000
G1 E0.90000 F3600.00000
G1 F600
G1 X34.131 Y6.658 E0.90040
G1 X34.129 Y6.397 E0.90234
G1 X33.828 Y6.698 E0.90550
G1 X33.562 Y6.700 E0.90747
G1 X34.126 Y6.136 E0.91339
G1 X34.124 Y5.875 E0.91533
G1 X33.296 Y6.702 E0.92402
G1 X33.031 Y6.704 E0.92599
G1 X34.121 Y5.613 E0.93744
G1 X34.126 Y5.345 E0.93943
G1 X32.765 Y6.706 E0.95372
G1 X32.499 Y6.708 E0.95570
G1 X34.134 Y5.074 E0.97285
G1 X34.141 Y4.803 E0.97487
G1 X32.234 Y6.710 E0.99489
G1 X32.108 Y6.712 E0.99582
G1 X32.108 Y6.572 E0.99686
G1 X33.992 Y4.689 E1.01663
G1 X33.728 Y4.689 E1.01859
G1 X32.108 Y6.308 E1.03559
G1 X32.108 Y6.045 E1.03755
G1 X33.464 Y4.689 E1.05178
G1 X33.201 Y4.689 E1.05374
G1 X32.108 Y5.781 E1.06521
G1 X32.108 Y5.518 E1.06717
G1 X32.937 Y4.689 E1.07587
G1 X32.674 Y4.689 E1.07783
G1 X32.108 Y5.254 E1.08376
G1 X32.108 Y4.990 E1.08572
G1 X32.410 Y4.689 E1.08888
G1 X32.146 Y4.689 E1.09084
G1 X32.108 Y4.726 E1.09124
G1 E0.19124 F3600.00000
G92 E0
G1 X32.146 Y6.852 F7800.000
G1 E0.90000 F3600.00000
G1 F600
G1 X32.108 Y6.890 E0.90040
G1 X32.108 Y7.145 E0.90231
G1 X32.403 Y6.850 E0.90543
G1 X32.660 Y6.848 E0.90735
G1 X32.108 Y7.399 E0.91318
G1 X32.108 Y7.654 E0.91509
G1 X32.916 Y6.846 E0.92364
G1 X33.173 Y6.844 E0.92556
G1 X32.108 Y7.908 E0.93682
G1 X32.108 Y8.163 E0.93872
G1 X33.429 Y6.842 E0.95270
G1 X33.686 Y6.840 E0.95462
G1 X32.108 Y8.417 E0.97131
G1 X32.108 Y8.672 E0.97321
G1 X33.942 Y6.838 E0.99262
G1 X34.199 Y6.836 E0.99453
G1 X32.108 Y8.926 E1.01665
G1 X32.108 Y9.181 E1.01856
G1 X36.601 Y4.689 E1.06609
G1 X36.855 Y4.689 E1.06799
G1 X35.094 Y6.449 E1.08662
G1 X35.467 Y6.222 E1.08989
G1 X35.682 Y6.116 E1.09168
G1 X37.110 Y4.689 E1.10679
G1 X37.364 Y4.689 E1.10869
G1 X36.117 Y5.936 E1.12189
G1 X36.483 Y5.825 E1.12474
G1 X37.619 Y4.689 E1.13676
G1 X37.873 Y4.689 E1.13867
G1 X36.811 Y5.751 E1.14990
G1 X37.113 Y5.703 E1.15219
G1 X38.128 Y4.689 E1.16293
G1 X38.382 Y4.689 E1.16483
G1 X37.390 Y5.680 E1.17532
G1 X37.652 Y5.673 E1.17728
G1 X38.637 Y4.689 E1.18770
G1 X38.891 Y4.689 E1.18960
G1 X37.899 Y5.681 E1.20010
G1 X38.136 Y5.698 E1.20188
G1 X39.146 Y4.689 E1.21256
G1 X39.400 Y4.689 E1.21446
G1 X38.359 Y5.729 E1.22548
G1 X38.575 Y5.769 E1.22712
G1 X39.655 Y4.689 E1.23854
G1 X39.909 Y4.689 E1.24045
G1 X38.780 Y5.818 E1.25240
G1 X38.979 Y5.873 E1.25394
G1 X40.164 Y4.689 E1.26648
G1 X40.418 Y4.689 E1.26839
G1 X39.171 Y5.935 E1.28158
G1 X39.355 Y6.006 E1.28305
G1 X40.673 Y4.689 E1.29699
G1 X40.927 Y4.689 E1.29890
G1 X39.535 Y6.081 E1.31363
G1 X39.706 Y6.165 E1.31506
G1 X41.055 Y4.815 E1.32934
G1 X41.057 Y5.067 E1.33123
G1 X39.873 Y6.252 E1.34376
G1 X40.033 Y6.346 E1.34515
G1 X41.059 Y5.320 E1.35601
G1 X41.061 Y5.573 E1.35790
G1 X40.188 Y6.445 E1.36713
G1 X40.339 Y6.549 E1.36850
G1 X41.063 Y5.825 E1.37616
G1 X41.065 Y6.078 E1.37805
G1 X40.483 Y6.660 E1.38421
G1 X40.624 Y6.773 E1.38557
G1 X41.067 Y6.330 E1.39025
G1 X41.069 Y6.583 E1.39214
G1 X40.758 Y6.894 E1.39543
G1 X40.889 Y7.017 E1.39678
G1 X41.071 Y6.836 E1.39870
G1 X41.071 Y6.854 E1.39884
G1 X41.309 Y6.852 E1.40062
G1 X41.012 Y7.149 E1.40376
G1 X41.133 Y7.282 E1.40511
G1 X41.566 Y6.849 E1.40969
G1 X41.823 Y6.847 E1.41161
G1 X41.247 Y7.423 E1.41771
G1 X41.357 Y7.567 E1.41907
G1 X42.080 Y6.844 E1.42672
G1 X42.337 Y6.842 E1.42864
G1 X41.461 Y7.718 E1.43791
G1 X41.560 Y7.873 E1.43929
G1 X42.585 Y6.848 E1.45013
G1 X42.833 Y6.855 E1.45199
G1 X41.654 Y8.034 E1.46446
G1 X41.741 Y8.201 E1.46587
G1 X43.081 Y6.862 E1.48004
G1 X43.218 Y6.865 E1.48106
G1 X43.218 Y6.979 E1.48191
G1 X41.825 Y8.371 E1.49665
G1 X41.900 Y8.552 E1.49810
G1 X43.218 Y7.234 E1.51205
G1 X43.218 Y7.488 E1.51395
G1 X41.971 Y8.735 E1.52715
G1 X42.033 Y8.928 E1.52866
G1 X43.218 Y7.743 E1.54120
G1 X43.218 Y7.997 E1.54310
G1 X42.088 Y9.127 E1.55505
G1 X42.138 Y9.331 E1.55663
G1 X43.218 Y8.252 E1.56806
G1 X43.218 Y8.506 E1.56996
G1 X42.177 Y9.547 E1.58097
G1 X42.206 Y9.772 E1.58267
G1 X43.218 Y8.761 E1.59337
G1 X43.218 Y9.015 E1.59527
G1 X42.226 Y10.007 E1.60577
G1 X42.233 Y10.254 E1.60762
G1 X43.218 Y9.270 E1.61804
G1 X43.218 Y9.524 E1.61994
G1 X42.226 Y10.516 E1.63044
G1 X42.201 Y10.795 E1.63253
G1 X43.218 Y9.779 E1.64329
G1 X43.218 Y10.033 E1.64520
G1 X42.156 Y11.095 E1.65643
G1 X42.082 Y11.423 E1.65895
G1 X43.218 Y10.288 E1.67097
G1 X43.218 Y10.542 E1.67287
G1 X41.971 Y11.789 E1.68606
G1 X41.791 Y12.224 E1.68958
G1 X43.218 Y10.797 E1.70468
G1 X43.218 Y11.051 E1.70659
G1 X41.458 Y12.811 E1.72521
G1 X43.180 Y13.634 F7800.000
G1 F600
G1 X43.218 Y13.596 E1.72561
G1 X43.218 Y13.342 E1.72751
G1 X42.923 Y13.637 E1.73064
G1 X42.666 Y13.639 E1.73256
G1 X43.218 Y13.087 E1.73839
G1 X43.218 Y12.833 E1.74029
G1 X42.410 Y13.641 E1.74884
G1 X42.153 Y13.643 E1.75076
G1 X43.218 Y12.578 E1.76202
G1 X43.218 Y12.324 E1.76393
G1 X41.897 Y13.644 E1.77790
G1 X41.640 Y13.646 E1.77982
G1 X43.218 Y12.069 E1.79651
G1 X43.218 Y11.815 E1.79841
G1 X41.384 Y13.648 E1.81782
G1 X41.127 Y13.650 E1.81974
G1 X43.218 Y11.560 E1.84185
G1 X43.218 Y11.306 E1.84376
G1 X38.725 Y15.798 E1.89129
G1 X38.471 Y15.798 E1.89319
G1 X40.231 Y14.038 E1.91181
G1 X39.880 Y14.252 E1.91489
G1 X39.643 Y14.371 E1.91687
G1 X38.216 Y15.798 E1.93197
G1 X37.962 Y15.798 E1.93387
G1 X39.208 Y14.551 E1.94706
G1 X38.843 Y14.662 E1.94992
G1 X37.707 Y15.798 E1.96193
G1 X37.453 Y15.798 E1.96384
G1 X38.515 Y14.736 E1.97507
G1 X38.211 Y14.785 E1.97737
G1 X37.198 Y15.798 E1.98809
G1 X36.944 Y15.798 E1.98999
G1 X37.936 Y14.806 E2.00049
G1 X37.674 Y14.813 E2.00245
G1 X36.689 Y15.798 E2.01286
G1 X36.435 Y15.798 E2.01477
G1 X37.427 Y14.806 E2.02526
G1 X37.191 Y14.787 E2.02703
G1 X36.180 Y15.798 E2.03773
G1 X35.926 Y15.798 E2.03963
G1 X36.967 Y14.757 E2.05065
G1 X36.751 Y14.718 E2.05229
G1 X35.671 Y15.798 E2.06371
G1 X35.417 Y15.798 E2.06562
G1 X36.547 Y14.668 E2.07757
G1 X36.347 Y14.613 E2.07912
G1 X35.162 Y15.798 E2.09166
G1 X34.908 Y15.798 E2.09356
G1 X36.155 Y14.551 E2.10676
G1 X35.971 Y14.480 E2.10823
G1 X34.653 Y15.798 E2.12218
G1 X34.399 Y15.798 E2.12408
G1 X35.791 Y14.405 E2.13881
G1 X35.621 Y14.322 E2.14024
G1 X34.271 Y15.672 E2.15452
G1 X34.269 Y15.419 E2.15641
G1 X35.453 Y14.234 E2.16895
G1 X35.293 Y14.140 E2.17034
G1 X34.267 Y15.167 E2.18120
G1 X34.265 Y14.914 E2.18309
G1 X35.138 Y14.041 E2.19233
G1 X34.987 Y13.937 E2.19370
G1 X34.263 Y14.661 E2.20136
G1 X34.261 Y14.409 E2.20325
G1 X34.843 Y13.827 E2.20941
G1 X34.702 Y13.713 E2.21076
G1 X34.259 Y14.156 E2.21545
G1 X34.257 Y13.904 E2.21734
G1 X34.569 Y13.592 E2.22063
G1 X34.437 Y13.469 E2.22198
G1 X34.255 Y13.651 E2.22390
G1 X34.255 Y13.632 E2.22404
G1 X34.017 Y13.635 E2.22582
G1 X34.314 Y13.338 E2.22897
G1 X34.193 Y13.205 E2.23031
G1 X33.760 Y13.637 E2.23489
G1 X33.503 Y13.640 E2.23682
G1 X34.079 Y13.063 E2.24291
G1 X33.969 Y12.919 E2.24427
G1 X33.246 Y13.642 E2.25192
G1 X32.989 Y13.645 E2.25384
G1 X33.865 Y12.769 E2.26311
G1 X33.766 Y12.613 E2.26449
G1 X32.741 Y13.638 E2.27534
G1 X32.493 Y13.632 E2.27719
G1 X33.672 Y12.453 E2.28966
G1 X33.585 Y12.286 E2.29107
G1 X32.245 Y13.625 E2.30524
G1 X32.108 Y13.621 E2.30627
G1 X32.108 Y13.507 E2.30712
G1 X33.501 Y12.115 E2.32185
G1 X33.426 Y11.935 E2.32331
G1 X32.108 Y13.253 E2.33726
G1 X32.108 Y12.998 E2.33916
G1 X33.355 Y11.752 E2.35236
G1 X33.293 Y11.559 E2.35387
G1 X32.108 Y12.744 E2.36641
G1 X32.108 Y12.489 E2.36831
G1 X33.238 Y11.360 E2.38026
G1 X33.188 Y11.155 E2.38184
G1 X32.108 Y12.235 E2.39327
G1 X32.108 Y11.980 E2.39518
G1 X33.149 Y10.940 E2.40619
G1 X33.118 Y10.716 E2.40788
G1 X32.108 Y11.726 E2.41857
G1 X32.108 Y11.471 E2.42047
G1 X33.100 Y10.479 E2.43097
G1 X33.093 Y10.232 E2.43282
G1 X32.108 Y11.217 E2.44323
G1 X32.108 Y10.962 E2.44514
G1 X33.100 Y9.970 E2.45563
G1 X33.121 Y9.695 E2.45770
G1 X32.108 Y10.708 E2.46842
G1 X32.108 Y10.453 E2.47032
G1 X33.170 Y9.392 E2.48155
G1 X33.244 Y9.063 E2.48407
G1 X32.108 Y10.199 E2.49609
G1 X32.108 Y9.944 E2.49800
G1 X33.355 Y8.698 E2.51119
G1 X33.535 Y8.263 E2.51471
G1 X32.108 Y9.690 E2.52981
G1 X32.108 Y9.435 E2.53172
G1 X33.869 Y7.675 E2.55034
G1 X34.273 Y6.762 F7800.000
G1 F600
G1 X36.346 Y4.689 E2.57228
G1 X36.092 Y4.689 E2.57419
G1 X34.270 Y6.510 E2.59346
G1 X34.268 Y6.258 E2.59534
G1 X35.837 Y4.689 E2.61195
G1 X35.583 Y4.689 E2.61385
G1 X34.265 Y6.006 E2.62779
G1 X34.263 Y5.754 E2.62967
G1 X35.328 Y4.689 E2.64094
G1 X35.074 Y4.689 E2.64285
G1 X34.264 Y5.498 E2.65142
G1 X34.271 Y5.237 E2.65337
G1 X34.819 Y4.689 E2.65917
G1 X34.565 Y4.689 E2.66108
G1 X34.278 Y4.975 E2.66411
G1 X34.285 Y4.726 E2.66597
G1 X34.527 Y4.726 E2.66777
G1 E1.76777 F3600.00000
G92 E0
G1 X38.725 Y15.798 F7800.000
G1 E0.90000 F3600.00000
G1 F600
G1 X38.980 Y15.798 E0.90190
G1 X41.053 Y13.725 E0.92384
G1 X41.056 Y13.977 E0.92573
G1 X39.234 Y15.798 E0.94500
G1 X39.489 Y15.798 E0.94690
G1 X41.058 Y14.229 E0.96351
G1 X41.060 Y14.481 E0.96539
G1 X39.743 Y15.798 E0.97933
G1 X39.998 Y15.798 E0.98123
G1 X41.063 Y14.733 E0.99250
G1 X41.062 Y14.988 E0.99441
G1 X40.252 Y15.798 E1.00298
G1 X40.507 Y15.798 E1.00488
G1 X41.055 Y15.250 E1.01068
G1 X41.048 Y15.512 E1.01264
G1 X40.761 Y15.798 E1.01567
G1 E0.11567 F3600.00000
G92 E0
G1 X41.195 Y13.828 F7800.000
G1 E0.90000 F3600.00000
G1 F600
G1 X41.233 Y13.790 E0.90040
G1 X41.498 Y13.788 E0.90237
G1 X41.197 Y14.090 E0.90553
G1 X41.200 Y14.351 E0.90747
G1 X41.764 Y13.786 E0.91339
G1 X42.030 Y13.784 E0.91537
G1 X41.202 Y14.612 E0.92405
G1 X41.205 Y14.873 E0.92599
G1 X42.295 Y13.782 E0.93744
G1 X42.561 Y13.780 E0.93941
G1 X41.200 Y15.142 E0.95370
G1 X41.192 Y15.413 E0.95571
G1 X42.826 Y13.778 E0.97287
G1 X43.092 Y13.776 E0.97484
G1 X41.185 Y15.684 E0.99487
G1 X41.181 Y15.798 E0.99571
G1 X41.334 Y15.798 E0.99685
G1 X43.218 Y13.914 E1.01662
G1 X43.218 Y14.178 E1.01858
G1 X41.598 Y15.798 E1.03558
G1 X41.861 Y15.798 E1.03754
G1 X43.218 Y14.442 E1.05177
G1 X43.218 Y14.705 E1.05373
G1 X42.125 Y15.798 E1.06520
G1 X42.389 Y15.798 E1.06716
G1 X43.218 Y14.969 E1.07586
G1 X43.218 Y15.233 E1.07782
G1 X42.652 Y15.798 E1.08375
G1 X42.916 Y15.798 E1.08571
G1 X43.218 Y15.496 E1.08887
G1 X43.218 Y15.760 E1.09083
G1 X43.180 Y15.798 E1.09123
G1 E0.19123 F3600.00000
G92 E0
G1 X43.180 Y6.725 F7800.000
G1 E0.90000 F3600.00000
G1 F600
G1 X43.218 Y6.687 E0.90040
G1 X43.218 Y6.421 E0.90237
G1 X42.921 Y6.718 E0.90548
G1 X42.663 Y6.710 E0.90740
G1 X43.218 Y6.156 E0.91323
G1 X43.218 Y5.890 E0.91520
G1 X42.404 Y6.703 E0.92373
G1 X42.139 Y6.703 E0.92570
G1 X43.218 Y5.625 E0.93702
G1 X43.218 Y5.359 E0.93899
G1 X41.871 Y6.705 E0.95312
G1 X41.603 Y6.708 E0.95511
G1 X43.218 Y5.093 E0.97206
G1 X43.218 Y4.828 E0.97403
G1 X41.335 Y6.710 E0.99380
G1 X41.210 Y6.712 E0.99472
G1 X41.209 Y6.571 E0.99577
G1 X43.091 Y4.689 E1.01553
G1 X42.826 Y4.689 E1.01750
G1 X41.207 Y6.307 E1.03449
G1 X41.205 Y6.044 E1.03645
G1 X42.560 Y4.689 E1.05067
G1 X42.295 Y4.689 E1.05264
G1 X41.203 Y5.780 E1.06410
G1 X41.201 Y5.517 E1.06606
G1 X42.029 Y4.689 E1.07475
G1 X41.764 Y4.689 E1.07673
G1 X41.199 Y5.253 E1.08265
G1 X41.197 Y4.990 E1.08461
G1 X41.498 Y4.689 E1.08777
G1 X41.233 Y4.689 E1.08974
G1 X41.195 Y4.726 E1.09014
M106 S237.15
G4 P1
;G201 P1 X1
;G202 P1 X0
;G201 P0 X300
;G201 P0 X0

G1 Z1.200 F7800.000
G0 X10 Y10 ; Laser to park position
G4 P1
G202 P1 X0
G4 P1
G203 P1
G201 P1 X0.3
G203 P1
G4 P1000
G201 P0 X240
G201 P0 X0





G1 E0.19014 F3600.00000
G92 E0
G1 X43.218 Y10.813 F7800.000
G1 E0.90000 F3600.00000
G1 F600
G1 X43.180 Y10.775 E0.90040
G1 X42.926 Y10.777 E0.90231
G1 X43.218 Y11.069 E0.90541
G1 X43.218 Y11.325 E0.90734
G1 X42.672 Y10.779 E0.91315
G1 X42.418 Y10.781 E0.91506
G1 X43.218 Y11.581 E0.92357
G1 X43.218 Y11.837 E0.92550
G1 X42.194 Y10.813 E0.93639
G1 X42.160 Y11.035 E0.93808
G1 X43.218 Y12.093 E0.94934
G1 X43.218 Y12.349 E0.95127
G1 X42.115 Y11.246 E0.96300
G1 X42.065 Y11.453 E0.96460
G1 X43.218 Y12.605 E0.97686
G1 X43.218 Y12.861 E0.97879
G1 X42.004 Y11.647 E0.99170
G1 X41.939 Y11.838 E0.99322
G1 X43.218 Y13.117 E1.00683
G1 X43.218 Y13.373 E1.00876
G1 X41.865 Y12.020 E1.02316
G1 X41.785 Y12.196 E1.02461
G1 X43.218 Y13.629 E1.03986
G1 X43.218 Y13.885 E1.04179
G1 X41.701 Y12.368 E1.05793
G1 X41.608 Y12.531 E1.05934
G1 X43.218 Y14.141 E1.07648
G1 X43.218 Y14.224 E1.07711
G1 X43.044 Y14.224 E1.07841
G1 X41.513 Y12.692 E1.09471
G1 X41.409 Y12.844 E1.09609
G1 X42.786 Y14.221 E1.11075
G1 X42.527 Y14.218 E1.11270
G1 X41.302 Y12.994 E1.12573
G1 X41.188 Y13.136 E1.12710
G1 X42.268 Y14.215 E1.13860
G1 X42.010 Y14.213 E1.14055
G1 X41.071 Y13.274 E1.15054
G1 X40.948 Y13.407 E1.15190
G1 X41.751 Y14.210 E1.16045
G1 X41.633 Y14.209 E1.16134
G1 X41.633 Y14.348 E1.16239
G1 X40.819 Y13.535 E1.17105
G1 X40.687 Y13.658 E1.17241
G1 X41.633 Y14.604 E1.18249
G1 X41.633 Y14.861 E1.18441
G1 X40.548 Y13.775 E1.19597
G1 X40.405 Y13.889 E1.19734
G1 X41.634 Y15.117 E1.21042
G1 X41.634 Y15.373 E1.21234
G1 X40.255 Y13.995 E1.22702
G1 X40.103 Y14.099 E1.22840
G1 X41.634 Y15.629 E1.24469
G1 X41.633 Y15.798 E1.24596
G1 X41.547 Y15.798 E1.24661
G1 X39.942 Y14.194 E1.26369
G1 X39.778 Y14.286 E1.26511
G1 X41.291 Y15.798 E1.28120
G1 X41.035 Y15.798 E1.28313
G1 X39.607 Y14.370 E1.29833
G1 X39.430 Y14.449 E1.29979
G1 X40.779 Y15.798 E1.31414
G1 X40.522 Y15.798 E1.31607
G1 X39.248 Y14.523 E1.32964
G1 X39.056 Y14.588 E1.33116
G1 X40.266 Y15.798 E1.34404
G1 X40.010 Y15.798 E1.34596
G1 X38.861 Y14.649 E1.35820
G1 X38.655 Y14.698 E1.35979
G1 X39.754 Y15.798 E1.37150
G1 X39.498 Y15.798 E1.37342
G1 X38.443 Y14.742 E1.38466
G1 X38.220 Y14.776 E1.38635
G1 X39.242 Y15.798 E1.39723
G1 X38.986 Y15.798 E1.39916
G1 X38.201 Y15.012 E1.40752
G1 X38.194 Y15.262 E1.40940
G1 X38.730 Y15.798 E1.41511
G1 X38.474 Y15.798 E1.41703
G1 X38.187 Y15.511 E1.42009
G1 X38.180 Y15.760 E1.42196
G1 X38.218 Y15.798 E1.42237
G1 E0.52237 F3600.00000
G92 E0
G1 X41.774 Y15.760 F7800.000
G1 E0.90000 F3600.00000
G1 F600
G1 X41.812 Y15.798 E0.90040
G1 X42.067 Y15.798 E0.90229
G1 X41.774 Y15.506 E0.90536
G1 X41.775 Y15.251 E0.90724
G1 X42.321 Y15.798 E0.91298
G1 X42.576 Y15.798 E0.91487
G1 X41.774 Y14.996 E0.92329
G1 X41.774 Y14.742 E0.92518
G1 X42.830 Y15.798 E0.93627
G1 X43.085 Y15.798 E0.93816
G1 X41.774 Y14.487 E0.95192
G1 X41.774 Y14.351 E0.95292
G1 X41.894 Y14.353 E0.95382
G1 X43.218 Y15.676 E0.96771
G1 X43.218 Y15.421 E0.96960
G1 X42.152 Y14.355 E0.98079
G1 X42.409 Y14.358 E0.98270
G1 X43.218 Y15.167 E0.99119
G1 X43.218 Y14.912 E0.99308
G1 X42.666 Y14.361 E0.99887
G1 X42.923 Y14.363 E1.00078
G1 X43.218 Y14.658 E1.00387
G1 X43.218 Y14.403 F7800.000
G1 F600
G1 X43.180 Y14.365 E1.00427
G1 E0.10427 F3600.00000
G92 E0
G1 X37.123 Y14.816 F7800.000
G1 E0.90000 F3600.00000
G1 F600
G1 X37.085 Y14.778 E0.90041
G1 X36.780 Y14.730 E0.90275
G1 X37.125 Y15.076 E0.90646
G1 X37.127 Y15.336 E0.90843
G1 X36.444 Y14.652 E0.91576
G1 X36.067 Y14.534 E0.91876
G1 X37.129 Y15.596 E0.93015
G1 X37.132 Y15.798 E0.93168
G1 X37.073 Y15.798 E0.93213
G1 X35.611 Y14.335 E0.94781
G1 X35.180 Y14.096 E0.95155
G1 X34.967 Y13.949 E0.95351
G1 X36.815 Y15.798 E0.97334
G1 X36.557 Y15.798 E0.97530
G1 X32.108 Y11.349 E1.02302
G1 X32.108 Y11.607 E1.02497
G1 X36.300 Y15.798 E1.06992
G1 X36.042 Y15.798 E1.07188
G1 X32.108 Y11.865 E1.11407
G1 X32.108 Y12.123 E1.11602
G1 X35.784 Y15.798 E1.15544
G1 X35.526 Y15.798 E1.15740
G1 X32.108 Y12.381 E1.19405
G1 X32.108 Y12.639 E1.19600
G1 X33.683 Y14.213 E1.21289
G1 X33.425 Y14.213 E1.21485
G1 X32.108 Y12.897 E1.22897
G1 X32.108 Y13.155 E1.23092
G1 X33.167 Y14.214 E1.24228
G1 X32.910 Y14.214 E1.24424
G1 X32.108 Y13.412 E1.25283
G1 X32.108 Y13.670 E1.25479
G1 X32.652 Y14.214 E1.26062
G1 X32.394 Y14.214 E1.26258
G1 X32.108 Y13.928 E1.26564
G1 E0.36564 F3600.00000
G92 E0
G1 X33.682 Y15.760 F7800.000
G1 E0.90000 F3600.00000
G1 F600
G1 X33.720 Y15.798 E0.90041
G1 X33.978 Y15.798 E0.90236
G1 X33.683 Y15.504 E0.90552
G1 X33.686 Y15.248 E0.90746
G1 X34.236 Y15.798 E0.91335
G1 X34.494 Y15.798 E0.91531
G1 X33.689 Y14.993 E0.92394
G1 X33.691 Y14.738 E0.92588
G1 X34.752 Y15.798 E0.93725
G1 X35.010 Y15.798 E0.93920
G1 X33.694 Y14.482 E0.95331
G1 X33.697 Y14.227 E0.95525
G1 X35.268 Y15.798 E0.97210
G1 E0.07210 F3600.00000
G92 E0
G1 X33.176 Y11.126 F7800.000
G1 E0.90000 F3600.00000
G1 F600
G1 X32.830 Y10.780 E0.90371
G1 X32.565 Y10.773 E0.90572
G1 X33.254 Y11.462 E0.91311
G1 X33.372 Y11.839 E0.91611
G1 X32.299 Y10.766 E0.92762
G1 X32.108 Y10.761 E0.92907
G1 X32.108 Y10.833 E0.92961
G1 X33.571 Y12.295 E0.94530
G1 X33.807 Y12.722 E0.94900
G1 X33.957 Y12.939 E0.95100
G1 X32.108 Y11.091 E0.97083
G1 X32.108 Y11.349 E0.97278
G1 E0.07278 F3600.00000
G92 E0
G1 X33.555 Y14.392 F7800.000
G1 E0.90000 F3600.00000
G1 F600
G1 X33.517 Y14.354 E0.90040
G1 X33.261 Y14.354 E0.90230
G1 X33.552 Y14.645 E0.90535
G1 X33.550 Y14.898 E0.90723
G1 X33.006 Y14.354 E0.91294
G1 X32.750 Y14.355 E0.91484
G1 X33.547 Y15.152 E0.92320
G1 X33.544 Y15.405 E0.92508
G1 X32.494 Y14.355 E0.93610
G1 X32.238 Y14.354 E0.93801
G1 X33.542 Y15.658 E0.95169
G1 X33.541 Y15.798 E0.95273
G1 X33.426 Y15.798 E0.95359
G1 X32.108 Y14.481 E0.96742
G1 X32.108 Y14.736 E0.96931
G1 X33.170 Y15.798 E0.98046
G1 X32.914 Y15.798 E0.98236
G1 X32.108 Y14.992 E0.99081
G1 X32.108 Y15.248 E0.99271
G1 X32.658 Y15.798 E0.99848
G1 X32.402 Y15.798 E1.00038
G1 X32.108 Y15.504 E1.00347
G1 X32.108 Y15.760 E1.00537
G1 X32.146 Y15.798 E1.00577
G1 E0.10577 F3600.00000
G92 E0
G1 X32.146 Y9.712 F7800.000
G1 E0.90000 F3600.00000
G1 F600
G1 X32.108 Y9.674 E0.90040
G1 X32.108 Y9.418 E0.90233
G1 X32.400 Y9.709 E0.90543
G1 X32.654 Y9.707 E0.90734
G1 X32.108 Y9.162 E0.91315
G1 X32.108 Y8.906 E0.91508
G1 X32.908 Y9.705 E0.92359
G1 X33.128 Y9.704 E0.92525
G1 X33.132 Y9.674 E0.92548
G1 X32.108 Y8.650 E0.93637
G1 X32.108 Y8.394 E0.93830
G1 X33.166 Y9.452 E0.94956
G1 X33.210 Y9.240 E0.95119
G1 X32.108 Y8.138 E0.96292
G1 X32.108 Y7.882 E0.96485
G1 X33.260 Y9.034 E0.97711
G1 X33.322 Y8.839 E0.97865
G1 X32.108 Y7.626 E0.99156
G1 X32.108 Y7.370 E0.99349
G1 X33.387 Y8.649 E1.00710
G1 X33.461 Y8.466 E1.00858
G1 X32.108 Y7.114 E1.02298
G1 X32.108 Y6.858 E1.02491
G1 X33.541 Y8.290 E1.04015
G1 X33.625 Y8.119 E1.04159
G1 X32.108 Y6.602 E1.05774
G1 X32.108 Y6.346 E1.05967
G1 X33.718 Y7.955 E1.07680
G1 X33.813 Y7.794 E1.07821
G1 X32.282 Y6.263 E1.09451
G1 X32.540 Y6.266 E1.09645
G1 X33.917 Y7.643 E1.11111
G1 X34.024 Y7.493 E1.11249
G1 X32.799 Y6.268 E1.12553
G1 X33.058 Y6.271 E1.12747
G1 X34.138 Y7.351 E1.13897
G1 X34.255 Y7.212 E1.14034
G1 X33.316 Y6.274 E1.15033
G1 X33.575 Y6.276 E1.15228
G1 X34.378 Y7.080 E1.16083
G1 X34.507 Y6.952 E1.16219
G1 X33.693 Y6.138 E1.17085
G1 X33.693 Y5.882 E1.17278
G1 X34.639 Y6.829 E1.18285
G1 X34.778 Y6.712 E1.18422
G1 X33.693 Y5.626 E1.19578
G1 X33.692 Y5.369 E1.19771
G1 X34.921 Y6.598 E1.21078
G1 X35.071 Y6.492 E1.21216
G1 X33.692 Y5.113 E1.22684
G1 X33.692 Y4.858 E1.22876
G1 X35.223 Y6.388 E1.24505
G1 X35.384 Y6.293 E1.24646
G1 X33.779 Y4.689 E1.26354
G1 X34.035 Y4.689 E1.26546
G1 X35.548 Y6.201 E1.28156
G1 X35.719 Y6.116 E1.28300
G1 X34.291 Y4.689 E1.29820
G1 X34.547 Y4.689 E1.30012
G1 X35.896 Y6.037 E1.31448
G1 X36.078 Y5.964 E1.31596
