; generated by Slic3r 1.3.1-dev on 2019-04-08 at 12:28:21

; external perimeters extrusion width = 0.20mm (0.18mm^3/s)
; perimeters extrusion width = 0.20mm (0.18mm^3/s)
; infill extrusion width = 0.20mm (0.18mm^3/s)
; solid infill extrusion width = 0.20mm (0.18mm^3/s)
; top infill extrusion width = 0.20mm (0.18mm^3/s)

M107
M190 S120 ; set bed temperature and wait for it to be reached
M104 S65 ; set temperature
G205 P0
G28
M3 S255


G4 P1
G202 P1 X0
G4 P1
G203 P1
G201 P1 X0.5

; Filament gcode

M109 S65 ; set temperature and wait for it to be reached
G21 ; set units to millimeters
G90 ; use absolute coordinates
M82 ; use absolute distances for extrusion
G92 E0
G92 E0
G4 P1
;G201 P1 X1
;G202 P1 X0
;G201 P0 X300
;G201 P0 X0

G1 Z0.100 F7800.000
G0 X10 Y10 ; Laser to park position
G4 P1
G202 P1 X0
G4 P1
G203 P1
G201 P1 X0.3
G203 P1
G4 P1000
G201 P0 X240
G201 P0 X0





G1 E-0.90000 F3600.00000
G92 E0
G1 X38.116 Y4.256 F7800.000
G1 E0.90000 F3600.00000
M201 X10 Y10
M204 P10 T10
G1 F600
G1 X38.153 Y4.219 E0.90040
G1 X38.406 Y4.219 E0.90227
G1 X38.115 Y4.509 E0.90532
G1 X38.115 Y4.762 E0.90720
G1 X38.658 Y4.219 E0.91290
G1 X38.911 Y4.219 E0.91477
G1 X38.115 Y5.014 E0.92312
G1 X38.115 Y5.267 E0.92500
G1 X39.163 Y4.219 E0.93600
G1 X39.416 Y4.219 E0.93788
G1 X38.115 Y5.519 E0.95153
G1 X38.115 Y5.772 E0.95340
G1 X39.668 Y4.219 E0.96971
G1 X39.921 Y4.219 E0.97158
G1 X38.115 Y6.024 E0.99054
G1 X38.115 Y6.277 E0.99241
G1 X40.173 Y4.219 E1.01402
G1 X40.426 Y4.219 E1.01589
G1 X38.115 Y6.529 E1.04015
G1 X38.115 Y6.782 E1.04202
G1 X40.678 Y4.219 E1.06893
G1 X40.931 Y4.219 E1.07080
G1 X38.115 Y7.034 E1.10036
G1 X38.115 Y7.287 E1.10223
G1 X41.175 Y4.227 E1.13435
G1 X41.175 Y4.480 E1.13623
G1 X38.115 Y7.539 E1.16834
G1 X38.115 Y7.792 E1.17022
G1 X41.175 Y4.732 E1.20233
G1 X41.175 Y4.985 E1.20421
G1 X38.115 Y8.044 E1.23633
G1 X38.115 Y8.297 E1.23820
G1 X41.175 Y5.237 E1.27032
G1 X41.175 Y5.490 E1.27219
G1 X38.115 Y8.549 E1.30431
G1 X38.115 Y8.802 E1.30618
G1 X41.175 Y5.742 E1.33830
G1 X41.175 Y5.995 E1.34017
G1 X38.115 Y9.054 E1.37229
G1 X38.115 Y9.307 E1.37417
G1 X41.175 Y6.247 E1.40628
G1 X41.175 Y6.500 E1.40816
G1 X38.115 Y9.559 E1.44027
G1 X38.115 Y9.812 E1.44215
G1 X41.175 Y6.752 E1.47426
G1 X41.175 Y7.005 E1.47614
G1 X38.115 Y10.064 E1.50826
G1 X38.115 Y10.317 E1.51013
G1 X41.175 Y7.257 E1.54225
G1 X41.175 Y7.510 E1.54412
G1 X38.115 Y10.569 E1.57624
G1 X38.115 Y10.822 E1.57811
G1 X41.175 Y7.762 E1.61023
G1 X41.175 Y8.015 E1.61210
G1 X38.115 Y11.074 E1.64422
G1 X38.115 Y11.327 E1.64610
G1 X41.175 Y8.267 E1.67821
G1 X41.175 Y8.520 E1.68009
G1 X38.115 Y11.579 E1.71220
G1 X38.115 Y11.832 E1.71408
G1 X41.175 Y8.772 E1.74620
G1 X41.175 Y9.025 E1.74807
G1 X38.115 Y12.084 E1.78019
G1 X38.115 Y12.337 E1.78206
G1 X41.175 Y9.277 E1.81418
G1 X41.175 Y9.530 E1.81605
G1 X38.115 Y12.589 E1.84817
G1 X38.115 Y12.842 E1.85004
G1 X41.175 Y9.782 E1.88216
G1 X41.175 Y10.035 E1.88403
G1 X38.115 Y13.094 E1.91615
G1 X38.115 Y13.347 E1.91803
G1 X41.175 Y10.287 E1.95014
G1 X41.175 Y10.540 E1.95202
G1 X38.115 Y13.599 E1.98413
G1 X38.359 Y13.608 E1.98595
G1 X41.175 Y10.792 E2.01550
G1 X41.175 Y11.045 E2.01738
G1 X38.612 Y13.608 E2.04428
G1 X38.864 Y13.608 E2.04616
G1 X41.175 Y11.297 E2.07041
G1 X41.175 Y11.550 E2.07229
G1 X39.117 Y13.608 E2.09389
G1 X39.369 Y13.608 E2.09577
G1 X41.175 Y11.802 E2.11472
G1 X41.175 Y12.055 E2.11660
G1 X39.622 Y13.608 E2.13290
G1 X39.874 Y13.608 E2.13477
G1 X41.175 Y12.307 E2.14843
G1 X41.175 Y12.560 E2.15030
G1 X40.127 Y13.608 E2.16130
G1 X40.379 Y13.608 E2.16318
G1 X41.175 Y12.812 E2.17153
G1 X41.175 Y13.065 E2.17340
G1 X40.632 Y13.608 E2.17910
G1 X40.884 Y13.608 E2.18098
G1 X41.175 Y13.317 E2.18403
G1 X41.175 Y13.570 E2.18590
G1 X41.137 Y13.608 E2.18630
M106 S247.35
G4 P1
;G201 P1 X1
;G202 P1 X0
;G201 P0 X300
;G201 P0 X0

G1 Z0.200 F7800.000
G0 X10 Y10 ; Laser to park position
G4 P1
G202 P1 X0
G4 P1
G203 P1
G201 P1 X0.3
G203 P1
G4 P1000
G201 P0 X240
G201 P0 X0





G1 E1.28630 F3600.00000
G92 E0
G1 X38.153 Y13.608 F7800.000
G1 E0.90000 F3600.00000
G1 F600
G1 X38.115 Y13.570 E0.90040
G1 X38.115 Y13.317 E0.90227
G1 X38.406 Y13.608 E0.90532
G1 X38.658 Y13.608 E0.90720
G1 X38.115 Y13.065 E0.91290
G1 X38.115 Y12.812 E0.91477
G1 X38.911 Y13.608 E0.92312
G1 X39.163 Y13.608 E0.92500
G1 X38.115 Y12.560 E0.93600
G1 X38.115 Y12.307 E0.93788
G1 X39.416 Y13.608 E0.95153
G1 X39.668 Y13.608 E0.95340
G1 X38.115 Y12.055 E0.96971
G1 X38.115 Y11.802 E0.97158
G1 X39.921 Y13.608 E0.99054
G1 X40.173 Y13.608 E0.99241
G1 X38.115 Y11.550 E1.01402
G1 X38.115 Y11.297 E1.01589
G1 X40.426 Y13.608 E1.04015
G1 X40.678 Y13.608 E1.04202
G1 X38.115 Y11.045 E1.06893
G1 X38.115 Y10.792 E1.07080
G1 X40.931 Y13.608 E1.10036
G1 X41.175 Y13.599 E1.10217
G1 X38.115 Y10.540 E1.13429
G1 X38.115 Y10.287 E1.13616
G1 X41.175 Y13.347 E1.16828
G1 X41.175 Y13.094 E1.17015
G1 X38.115 Y10.035 E1.20227
G1 X38.115 Y9.782 E1.20415
G1 X41.175 Y12.842 E1.23626
G1 X41.175 Y12.589 E1.23814
G1 X38.115 Y9.530 E1.27025
G1 X38.115 Y9.277 E1.27213
G1 X41.175 Y12.337 E1.30425
G1 X41.175 Y12.084 E1.30612
G1 X38.115 Y9.025 E1.33824
G1 X38.115 Y8.772 E1.34011
G1 X41.175 Y11.832 E1.37223
G1 X41.175 Y11.579 E1.37410
G1 X38.115 Y8.520 E1.40622
G1 X38.115 Y8.267 E1.40809
G1 X41.175 Y11.327 E1.44021
G1 X41.175 Y11.074 E1.44208
G1 X38.115 Y8.015 E1.47420
G1 X38.115 Y7.762 E1.47608
G1 X41.175 Y10.822 E1.50819
G1 X41.175 Y10.569 E1.51007
G1 X38.115 Y7.510 E1.54218
G1 X38.115 Y7.257 E1.54406
G1 X41.175 Y10.317 E1.57618
G1 X41.175 Y10.064 E1.57805
G1 X38.115 Y7.005 E1.61017
G1 X38.115 Y6.752 E1.61204
G1 X41.175 Y9.812 E1.64416
G1 X41.175 Y9.559 E1.64603
G1 X38.115 Y6.500 E1.67815
G1 X38.115 Y6.247 E1.68002
G1 X41.175 Y9.307 E1.71214
G1 X41.175 Y9.054 E1.71402
G1 X38.115 Y5.995 E1.74613
G1 X38.115 Y5.742 E1.74801
G1 X41.175 Y8.802 E1.78012
G1 X41.175 Y8.549 E1.78200
G1 X38.115 Y5.490 E1.81412
G1 X38.115 Y5.237 E1.81599
G1 X41.175 Y8.297 E1.84811
G1 X41.175 Y8.044 E1.84998
G1 X38.115 Y4.985 E1.88210
G1 X38.115 Y4.732 E1.88397
G1 X41.175 Y7.792 E1.91609
G1 X41.175 Y7.539 E1.91796
G1 X38.115 Y4.480 E1.95008
G1 X38.115 Y4.227 E1.95195
G1 X41.175 Y7.287 E1.98407
G1 X41.175 Y7.034 E1.98595
G1 X38.359 Y4.219 E2.01550
G1 X38.612 Y4.219 E2.01738
G1 X41.175 Y6.782 E2.04428
G1 X41.175 Y6.529 E2.04616
G1 X38.864 Y4.219 E2.07041
G1 X39.117 Y4.219 E2.07229
G1 X41.175 Y6.277 E2.09389
G1 X41.175 Y6.024 E2.09577
G1 X39.369 Y4.219 E2.11472
G1 X39.622 Y4.219 E2.11660
G1 X41.175 Y5.772 E2.13290
G1 X41.175 Y5.519 E2.13478
G1 X39.874 Y4.219 E2.14843
G1 X40.127 Y4.219 E2.15030
G1 X41.175 Y5.267 E2.16130
G1 X41.175 Y5.014 E2.16318
G1 X40.379 Y4.219 E2.17153
G1 X40.632 Y4.219 E2.17340
G1 X41.175 Y4.762 E2.17911
G1 X41.175 Y4.509 E2.18098
G1 X40.884 Y4.219 E2.18403
G1 X41.137 Y4.219 E2.18590
G1 X41.175 Y4.257 E2.18630
G4 P1
;G201 P1 X1
;G202 P1 X0
;G201 P0 X300
;G201 P0 X0

G1 Z0.300 F7800.000
G0 X10 Y10 ; Laser to park position
G4 P1
G202 P1 X0
G4 P1
G203 P1
G201 P1 X0.3
G203 P1
G4 P1000
G201 P0 X240
G201 P0 X0





G1 E1.28630 F3600.00000
G92 E0
G1 X38.115 Y4.256 F7800.000
G1 E0.90000 F3600.00000
G1 F600
G1 X38.153 Y4.219 E0.90040
G1 X38.406 Y4.219 E0.90227
G1 X38.115 Y4.509 E0.90532
G1 X38.115 Y4.762 E0.90720
G1 X38.658 Y4.219 E0.91290
G1 X38.911 Y4.219 E0.91477
G1 X38.115 Y5.014 E0.92312
G1 X38.115 Y5.267 E0.92500
G1 X39.163 Y4.219 E0.93600
G1 X39.416 Y4.219 E0.93787
G1 X38.115 Y5.519 E0.95152
G1 X38.115 Y5.772 E0.95340
G1 X39.668 Y4.219 E0.96970
G1 X39.921 Y4.219 E0.97158
G1 X38.115 Y6.024 E0.99053
G1 X38.115 Y6.277 E0.99240
G1 X40.173 Y4.219 E1.01401
G1 X40.426 Y4.219 E1.01588
G1 X38.115 Y6.529 E1.04014
G1 X38.115 Y6.782 E1.04201
G1 X40.678 Y4.219 E1.06892
G1 X40.931 Y4.219 E1.07079
G1 X38.115 Y7.034 E1.10035
G1 X38.115 Y7.287 E1.10222
G1 X41.175 Y4.227 E1.13434
G1 X41.175 Y4.480 E1.13621
G1 X38.115 Y7.539 E1.16833
G1 X38.115 Y7.792 E1.17020
G1 X41.175 Y4.732 E1.20232
G1 X41.175 Y4.985 E1.20419
G1 X38.115 Y8.044 E1.23631
G1 X38.115 Y8.297 E1.23818
G1 X41.175 Y5.237 E1.27030
G1 X41.175 Y5.490 E1.27217
G1 X38.115 Y8.549 E1.30429
G1 X38.115 Y8.802 E1.30616
G1 X41.175 Y5.742 E1.33828
G1 X41.175 Y5.995 E1.34015
G1 X38.115 Y9.054 E1.37227
G1 X38.115 Y9.307 E1.37414
G1 X41.175 Y6.247 E1.40626
G1 X41.175 Y6.500 E1.40813
G1 X38.115 Y9.559 E1.44025
G1 X38.115 Y9.812 E1.44212
G1 X41.175 Y6.752 E1.47423
G1 X41.175 Y7.005 E1.47611
G1 X38.115 Y10.064 E1.50822
G1 X38.115 Y10.317 E1.51010
G1 X41.175 Y7.257 E1.54221
G1 X41.175 Y7.510 E1.54409
G1 X38.115 Y10.569 E1.57620
G1 X38.115 Y10.822 E1.57808
G1 X41.175 Y7.762 E1.61019
G1 X41.175 Y8.015 E1.61207
G1 X38.115 Y11.074 E1.64418
G1 X38.115 Y11.327 E1.64606
G1 X41.175 Y8.267 E1.67817
G1 X41.175 Y8.520 E1.68005
G1 X38.115 Y11.579 E1.71216
G1 X38.115 Y11.832 E1.71404
G1 X41.175 Y8.772 E1.74615
G1 X41.175 Y9.025 E1.74803
G1 X38.115 Y12.084 E1.78014
G1 X38.115 Y12.337 E1.78202
G1 X41.175 Y9.277 E1.81413
G1 X41.175 Y9.530 E1.81601
G1 X38.115 Y12.589 E1.84812
G1 X38.115 Y12.842 E1.85000
G1 X41.175 Y9.782 E1.88211
G1 X41.175 Y10.035 E1.88399
G1 X38.115 Y13.094 E1.91610
G1 X38.115 Y13.347 E1.91798
G1 X41.175 Y10.287 E1.95009
G1 X41.175 Y10.540 E1.95197
G1 X38.115 Y13.599 E1.98408
G1 X38.359 Y13.608 E1.98589
G1 X41.175 Y10.792 E2.01545
G1 X41.175 Y11.045 E2.01732
G1 X38.612 Y13.608 E2.04423
G1 X38.864 Y13.608 E2.04610
G1 X41.175 Y11.297 E2.07036
G1 X41.175 Y11.550 E2.07223
G1 X39.117 Y13.608 E2.09384
G1 X39.369 Y13.608 E2.09571
G1 X41.175 Y11.802 E2.11466
G1 X41.175 Y12.055 E2.11654
G1 X39.622 Y13.608 E2.13284
G1 X39.874 Y13.608 E2.13471
G1 X41.175 Y12.307 E2.14837
G1 X41.175 Y12.560 E2.15024
G1 X40.127 Y13.608 E2.16124
G1 X40.379 Y13.608 E2.16312
G1 X41.175 Y12.812 E2.17147
G1 X41.175 Y13.065 E2.17334
G1 X40.632 Y13.608 E2.17904
G1 X40.884 Y13.608 E2.18092
G1 X41.175 Y13.317 E2.18397
G1 X41.175 Y13.570 E2.18584
G1 X41.137 Y13.608 E2.18624
G4 P1
;G201 P1 X1
;G202 P1 X0
;G201 P0 X300
;G201 P0 X0

G1 Z0.400 F7800.000
G0 X10 Y10 ; Laser to park position
G4 P1
G202 P1 X0
G4 P1
G203 P1
G201 P1 X0.3
G203 P1
G4 P1000
G201 P0 X240
G201 P0 X0





G1 E1.28624 F3600.00000
G92 E0
G1 X38.153 Y13.608 F7800.000
G1 E0.90000 F3600.00000
G1 F600
G1 X38.115 Y13.570 E0.90040
G1 X38.115 Y13.317 E0.90227
G1 X38.406 Y13.608 E0.90532
G1 X38.658 Y13.608 E0.90720
G1 X38.115 Y13.065 E0.91290
G1 X38.115 Y12.812 E0.91477
G1 X38.911 Y13.608 E0.92312
G1 X39.163 Y13.608 E0.92500
G1 X38.115 Y12.560 E0.93600
G1 X38.115 Y12.307 E0.93787
G1 X39.416 Y13.608 E0.95152
G1 X39.668 Y13.608 E0.95340
G1 X38.115 Y12.055 E0.96970
G1 X38.115 Y11.802 E0.97158
G1 X39.921 Y13.608 E0.99053
G1 X40.173 Y13.608 E0.99240
G1 X38.115 Y11.550 E1.01401
G1 X38.115 Y11.297 E1.01588
G1 X40.426 Y13.608 E1.04014
G1 X40.678 Y13.608 E1.04201
G1 X38.115 Y11.045 E1.06892
G1 X38.115 Y10.792 E1.07079
G1 X40.931 Y13.608 E1.10035
G1 X41.175 Y13.599 E1.10216
G1 X38.115 Y10.540 E1.13427
G1 X38.115 Y10.287 E1.13615
G1 X41.175 Y13.347 E1.16826
G1 X41.175 Y13.094 E1.17014
G1 X38.115 Y10.035 E1.20225
G1 X38.115 Y9.782 E1.20413
G1 X41.175 Y12.842 E1.23624
G1 X41.175 Y12.589 E1.23812
G1 X38.115 Y9.530 E1.27023
G1 X38.115 Y9.277 E1.27211
G1 X41.175 Y12.337 E1.30422
G1 X41.175 Y12.084 E1.30610
G1 X38.115 Y9.025 E1.33821
G1 X38.115 Y8.772 E1.34009
G1 X41.175 Y11.832 E1.37220
G1 X41.175 Y11.579 E1.37408
G1 X38.115 Y8.520 E1.40619
G1 X38.115 Y8.267 E1.40807
G1 X41.175 Y11.327 E1.44018
G1 X41.175 Y11.074 E1.44206
G1 X38.115 Y8.015 E1.47417
G1 X38.115 Y7.762 E1.47605
G1 X41.175 Y10.822 E1.50816
G1 X41.175 Y10.569 E1.51004
G1 X38.115 Y7.510 E1.54215
G1 X38.115 Y7.257 E1.54403
G1 X41.175 Y10.317 E1.57614
G1 X41.175 Y10.064 E1.57802
G1 X38.115 Y7.005 E1.61013
G1 X38.115 Y6.752 E1.61200
G1 X41.175 Y9.812 E1.64412
G1 X41.175 Y9.559 E1.64599
G1 X38.115 Y6.500 E1.67811
G1 X38.115 Y6.247 E1.67998
G1 X41.175 Y9.307 E1.71210
G1 X41.175 Y9.054 E1.71397
G1 X38.115 Y5.995 E1.74609
G1 X38.115 Y5.742 E1.74796
G1 X41.175 Y8.802 E1.78008
G1 X41.175 Y8.549 E1.78195
G1 X38.115 Y5.490 E1.81407
G1 X38.115 Y5.237 E1.81594
G1 X41.175 Y8.297 E1.84806
G1 X41.175 Y8.044 E1.84993
G1 X38.115 Y4.985 E1.88205
G1 X38.115 Y4.732 E1.88392
G1 X41.175 Y7.792 E1.91604
G1 X41.175 Y7.539 E1.91791
G1 X38.115 Y4.480 E1.95003
G1 X38.115 Y4.227 E1.95190
G1 X41.175 Y7.287 E1.98402
G1 X41.175 Y7.034 E1.98589
G1 X38.359 Y4.219 E2.01545
G1 X38.612 Y4.219 E2.01732
G1 X41.175 Y6.782 E2.04423
G1 X41.175 Y6.529 E2.04610
G1 X38.864 Y4.219 E2.07036
G1 X39.117 Y4.219 E2.07223
G1 X41.175 Y6.277 E2.09384
G1 X41.175 Y6.024 E2.09571
G1 X39.369 Y4.219 E2.11466
G1 X39.622 Y4.219 E2.11654
G1 X41.175 Y5.772 E2.13284
G1 X41.175 Y5.519 E2.13472
G1 X39.874 Y4.219 E2.14837
G1 X40.127 Y4.219 E2.15024
G1 X41.175 Y5.267 E2.16124
G1 X41.175 Y5.014 E2.16312
G1 X40.379 Y4.219 E2.17147
G1 X40.632 Y4.219 E2.17334
G1 X41.175 Y4.762 E2.17904
G1 X41.175 Y4.509 E2.18092
G1 X40.884 Y4.219 E2.18397
G1 X41.137 Y4.219 E2.18584
G1 X41.175 Y4.257 E2.18624
G4 P1
;G201 P1 X1
;G202 P1 X0
;G201 P0 X300
;G201 P0 X0

G1 Z0.500 F7800.000
G0 X10 Y10 ; Laser to park position
G4 P1
G202 P1 X0
G4 P1
G203 P1
G201 P1 X0.3
G203 P1
G4 P1000
G201 P0 X240
G201 P0 X0





G1 E1.28624 F3600.00000
G92 E0
G1 X38.115 Y4.256 F7800.000
G1 E0.90000 F3600.00000
G1 F600
G1 X38.153 Y4.219 E0.90040
G1 X38.406 Y4.219 E0.90227
G1 X38.115 Y4.509 E0.90532
G1 X38.115 Y4.762 E0.90720
G1 X38.658 Y4.219 E0.91290
G1 X38.911 Y4.219 E0.91477
G1 X38.115 Y5.014 E0.92312
G1 X38.115 Y5.267 E0.92500
G1 X39.163 Y4.219 E0.93600
G1 X39.416 Y4.219 E0.93787
G1 X38.115 Y5.519 E0.95152
G1 X38.115 Y5.772 E0.95340
G1 X39.668 Y4.219 E0.96970
G1 X39.921 Y4.219 E0.97158
G1 X38.115 Y6.024 E0.99053
G1 X38.115 Y6.277 E0.99240
G1 X40.173 Y4.219 E1.01401
G1 X40.426 Y4.219 E1.01588
G1 X38.115 Y6.529 E1.04014
G1 X38.115 Y6.782 E1.04201
G1 X40.678 Y4.219 E1.06892
G1 X40.931 Y4.219 E1.07079
G1 X38.115 Y7.034 E1.10035
G1 X38.115 Y7.287 E1.10222
G1 X41.175 Y4.227 E1.13434
G1 X41.175 Y4.480 E1.13621
G1 X38.115 Y7.539 E1.16833
G1 X38.115 Y7.792 E1.17020
G1 X41.175 Y4.732 E1.20232
G1 X41.175 Y4.985 E1.20419
G1 X38.115 Y8.044 E1.23631
G1 X38.115 Y8.297 E1.23818
G1 X41.175 Y5.237 E1.27030
G1 X41.175 Y5.490 E1.27217
G1 X38.115 Y8.549 E1.30429
G1 X38.115 Y8.802 E1.30616
G1 X41.175 Y5.742 E1.33828
G1 X41.175 Y5.995 E1.34015
G1 X38.115 Y9.054 E1.37227
G1 X38.115 Y9.307 E1.37414
G1 X41.175 Y6.247 E1.40626
G1 X41.175 Y6.500 E1.40813
G1 X38.115 Y9.559 E1.44025
G1 X38.115 Y9.812 E1.44212
G1 X41.175 Y6.752 E1.47423
G1 X41.175 Y7.005 E1.47611
G1 X38.115 Y10.064 E1.50822
G1 X38.115 Y10.317 E1.51010
G1 X41.175 Y7.257 E1.54221
G1 X41.175 Y7.510 E1.54409
G1 X38.115 Y10.569 E1.57620
G1 X38.115 Y10.822 E1.57808
G1 X41.175 Y7.762 E1.61019
G1 X41.175 Y8.015 E1.61207
G1 X38.115 Y11.074 E1.64418
G1 X38.115 Y11.327 E1.64606
G1 X41.175 Y8.267 E1.67817
G1 X41.175 Y8.520 E1.68005
G1 X38.115 Y11.579 E1.71216
G1 X38.115 Y11.832 E1.71404
G1 X41.175 Y8.772 E1.74615
G1 X41.175 Y9.025 E1.74803
G1 X38.115 Y12.084 E1.78014
G1 X38.115 Y12.337 E1.78202
G1 X41.175 Y9.277 E1.81413
G1 X41.175 Y9.530 E1.81601
G1 X38.115 Y12.589 E1.84812
G1 X38.115 Y12.842 E1.85000
G1 X41.175 Y9.782 E1.88211
G1 X41.175 Y10.035 E1.88399
G1 X38.115 Y13.094 E1.91610
G1 X38.115 Y13.347 E1.91798
G1 X41.175 Y10.287 E1.95009
G1 X41.175 Y10.540 E1.95197
G1 X38.115 Y13.599 E1.98408
G1 X38.359 Y13.608 E1.98589
G1 X41.175 Y10.792 E2.01545
G1 X41.175 Y11.045 E2.01732
G1 X38.612 Y13.608 E2.04423
G1 X38.864 Y13.608 E2.04610
G1 X41.175 Y11.297 E2.07036
G1 X41.175 Y11.550 E2.07223
G1 X39.117 Y13.608 E2.09384
G1 X39.369 Y13.608 E2.09571
G1 X41.175 Y11.802 E2.11466
G1 X41.175 Y12.055 E2.11654
G1 X39.622 Y13.608 E2.13284
G1 X39.874 Y13.608 E2.13471
G1 X41.175 Y12.307 E2.14837
G1 X41.175 Y12.560 E2.15024
G1 X40.127 Y13.608 E2.16124
G1 X40.379 Y13.608 E2.16312
G1 X41.175 Y12.812 E2.17147
G1 X41.175 Y13.065 E2.17334
G1 X40.632 Y13.608 E2.17904
G1 X40.884 Y13.608 E2.18092
G1 X41.175 Y13.317 E2.18397
G1 X41.175 Y13.570 E2.18584
G1 X41.137 Y13.608 E2.18624
G4 P1
;G201 P1 X1
;G202 P1 X0
;G201 P0 X300
;G201 P0 X0

G1 Z0.600 F7800.000
G0 X10 Y10 ; Laser to park position
G4 P1
G202 P1 X0
G4 P1
G203 P1
G201 P1 X0.3
G203 P1
G4 P1000
G201 P0 X240
G201 P0 X0





G1 E1.28624 F3600.00000
G92 E0
G1 X38.153 Y13.608 F7800.000
G1 E0.90000 F3600.00000
G1 F600
G1 X38.115 Y13.570 E0.90040
G1 X38.115 Y13.317 E0.90227
G1 X38.406 Y13.608 E0.90532
G1 X38.658 Y13.608 E0.90720
G1 X38.115 Y13.065 E0.91290
G1 X38.115 Y12.812 E0.91477
G1 X38.911 Y13.608 E0.92312
G1 X39.163 Y13.608 E0.92500
G1 X38.115 Y12.560 E0.93600
G1 X38.115 Y12.307 E0.93787
G1 X39.416 Y13.608 E0.95152
G1 X39.668 Y13.608 E0.95340
G1 X38.115 Y12.055 E0.96970
G1 X38.115 Y11.802 E0.97158
G1 X39.921 Y13.608 E0.99053
G1 X40.173 Y13.608 E0.99240
G1 X38.115 Y11.550 E1.01401
G1 X38.115 Y11.297 E1.01588
G1 X40.426 Y13.608 E1.04014
G1 X40.678 Y13.608 E1.04201
G1 X38.115 Y11.045 E1.06892
G1 X38.115 Y10.792 E1.07079
G1 X40.931 Y13.608 E1.10035
G1 X41.175 Y13.599 E1.10216
G1 X38.115 Y10.540 E1.13427
G1 X38.115 Y10.287 E1.13615
G1 X41.175 Y13.347 E1.16826
G1 X41.175 Y13.094 E1.17014
G1 X38.115 Y10.035 E1.20225
G1 X38.115 Y9.782 E1.20413
G1 X41.175 Y12.842 E1.23624
G1 X41.175 Y12.589 E1.23812
G1 X38.115 Y9.530 E1.27023
G1 X38.115 Y9.277 E1.27211
G1 X41.175 Y12.337 E1.30422
G1 X41.175 Y12.084 E1.30610
G1 X38.115 Y9.025 E1.33821
G1 X38.115 Y8.772 E1.34009
G1 X41.175 Y11.832 E1.37220
G1 X41.175 Y11.579 E1.37408
G1 X38.115 Y8.520 E1.40619
G1 X38.115 Y8.267 E1.40807
G1 X41.175 Y11.327 E1.44018
G1 X41.175 Y11.074 E1.44206
G1 X38.115 Y8.015 E1.47417
G1 X38.115 Y7.762 E1.47605
G1 X41.175 Y10.822 E1.50816
G1 X41.175 Y10.569 E1.51004
G1 X38.115 Y7.510 E1.54215
G1 X38.115 Y7.257 E1.54403
G1 X41.175 Y10.317 E1.57614
G1 X41.175 Y10.064 E1.57802
G1 X38.115 Y7.005 E1.61013
G1 X38.115 Y6.752 E1.61200
G1 X41.175 Y9.812 E1.64412
G1 X41.175 Y9.559 E1.64599
G1 X38.115 Y6.500 E1.67811
G1 X38.115 Y6.247 E1.67998
G1 X41.175 Y9.307 E1.71210
G1 X41.175 Y9.054 E1.71397
G1 X38.115 Y5.995 E1.74609
G1 X38.115 Y5.742 E1.74796
G1 X41.175 Y8.802 E1.78008
G1 X41.175 Y8.549 E1.78195
G1 X38.115 Y5.490 E1.81407
G1 X38.115 Y5.237 E1.81594
G1 X41.175 Y8.297 E1.84806
G1 X41.175 Y8.044 E1.84993
G1 X38.115 Y4.985 E1.88205
G1 X38.115 Y4.732 E1.88392
G1 X41.175 Y7.792 E1.91604
G1 X41.175 Y7.539 E1.91791
G1 X38.115 Y4.480 E1.95003
G1 X38.115 Y4.227 E1.95190
G1 X41.175 Y7.287 E1.98402
G1 X41.175 Y7.034 E1.98589
G1 X38.359 Y4.219 E2.01545
G1 X38.612 Y4.219 E2.01732
G1 X41.175 Y6.782 E2.04423
G1 X41.175 Y6.529 E2.04610
G1 X38.864 Y4.219 E2.07036
G1 X39.117 Y4.219 E2.07223
G1 X41.175 Y6.277 E2.09384
G1 X41.175 Y6.024 E2.09571
G1 X39.369 Y4.219 E2.11466
G1 X39.622 Y4.219 E2.11654
G1 X41.175 Y5.772 E2.13284
G1 X41.175 Y5.519 E2.13472
G1 X39.874 Y4.219 E2.14837
G1 X40.127 Y4.219 E2.15024
G1 X41.175 Y5.267 E2.16124
G1 X41.175 Y5.014 E2.16312
G1 X40.379 Y4.219 E2.17147
G1 X40.632 Y4.219 E2.17334
G1 X41.175 Y4.762 E2.17904
G1 X41.175 Y4.509 E2.18092
G1 X40.884 Y4.219 E2.18397
G1 X41.137 Y4.219 E2.18584
G1 X41.175 Y4.257 E2.18624
G4 P1
;G201 P1 X1
;G202 P1 X0
;G201 P0 X300
;G201 P0 X0

G1 Z0.700 F7800.000
G0 X10 Y10 ; Laser to park position
G4 P1
G202 P1 X0
G4 P1
G203 P1
G201 P1 X0.3
G203 P1
G4 P1000
G201 P0 X240
G201 P0 X0





G1 E1.28624 F3600.00000
G92 E0
G1 X38.115 Y4.256 F7800.000
G1 E0.90000 F3600.00000
G1 F600
G1 X38.153 Y4.219 E0.90040
G1 X38.406 Y4.219 E0.90227
G1 X38.115 Y4.509 E0.90532
G1 X38.115 Y4.762 E0.90720
G1 X38.658 Y4.219 E0.91290
G1 X38.911 Y4.219 E0.91477
G1 X38.115 Y5.014 E0.92312
G1 X38.115 Y5.267 E0.92500
G1 X39.163 Y4.219 E0.93600
G1 X39.416 Y4.219 E0.93787
G1 X38.115 Y5.519 E0.95152
G1 X38.115 Y5.772 E0.95340
G1 X39.668 Y4.219 E0.96970
G1 X39.921 Y4.219 E0.97158
G1 X38.115 Y6.024 E0.99053
G1 X38.115 Y6.277 E0.99240
G1 X40.173 Y4.219 E1.01401
G1 X40.426 Y4.219 E1.01588
G1 X38.115 Y6.529 E1.04014
G1 X38.115 Y6.782 E1.04201
G1 X40.678 Y4.219 E1.06892
G1 X40.931 Y4.219 E1.07079
G1 X38.115 Y7.034 E1.10035
G1 X38.115 Y7.287 E1.10222
G1 X41.175 Y4.227 E1.13434
G1 X41.175 Y4.480 E1.13621
G1 X38.115 Y7.539 E1.16833
G1 X38.115 Y7.792 E1.17020
G1 X41.175 Y4.732 E1.20232
G1 X41.175 Y4.985 E1.20419
G1 X38.115 Y8.044 E1.23631
G1 X38.115 Y8.297 E1.23818
G1 X41.175 Y5.237 E1.27030
G1 X41.175 Y5.490 E1.27217
G1 X38.115 Y8.549 E1.30429
G1 X38.115 Y8.802 E1.30616
G1 X41.175 Y5.742 E1.33828
G1 X41.175 Y5.995 E1.34015
G1 X38.115 Y9.054 E1.37227
G1 X38.115 Y9.307 E1.37414
G1 X41.175 Y6.247 E1.40626
G1 X41.175 Y6.500 E1.40813
G1 X38.115 Y9.559 E1.44025
G1 X38.115 Y9.812 E1.44212
G1 X41.175 Y6.752 E1.47423
G1 X41.175 Y7.005 E1.47611
G1 X38.115 Y10.064 E1.50822
G1 X38.115 Y10.317 E1.51010
G1 X41.175 Y7.257 E1.54221
G1 X41.175 Y7.510 E1.54409
G1 X38.115 Y10.569 E1.57620
G1 X38.115 Y10.822 E1.57808
G1 X41.175 Y7.762 E1.61019
G1 X41.175 Y8.015 E1.61207
G1 X38.115 Y11.074 E1.64418
G1 X38.115 Y11.327 E1.64606
G1 X41.175 Y8.267 E1.67817
G1 X41.175 Y8.520 E1.68005
G1 X38.115 Y11.579 E1.71216
G1 X38.115 Y11.832 E1.71404
G1 X41.175 Y8.772 E1.74615
G1 X41.175 Y9.025 E1.74803
G1 X38.115 Y12.084 E1.78014
G1 X38.115 Y12.337 E1.78202
G1 X41.175 Y9.277 E1.81413
G1 X41.175 Y9.530 E1.81601
G1 X38.115 Y12.589 E1.84812
G1 X38.115 Y12.842 E1.85000
G1 X41.175 Y9.782 E1.88211
G1 X41.175 Y10.035 E1.88399
G1 X38.115 Y13.094 E1.91610
G1 X38.115 Y13.347 E1.91798
G1 X41.175 Y10.287 E1.95009
G1 X41.175 Y10.540 E1.95197
G1 X38.115 Y13.599 E1.98408
G1 X38.359 Y13.608 E1.98589
G1 X41.175 Y10.792 E2.01545
G1 X41.175 Y11.045 E2.01732
G1 X38.612 Y13.608 E2.04423
G1 X38.864 Y13.608 E2.04610
G1 X41.175 Y11.297 E2.07036
G1 X41.175 Y11.550 E2.07223
G1 X39.117 Y13.608 E2.09384
G1 X39.369 Y13.608 E2.09571
G1 X41.175 Y11.802 E2.11466
G1 X41.175 Y12.055 E2.11654
G1 X39.622 Y13.608 E2.13284
G1 X39.874 Y13.608 E2.13471
G1 X41.175 Y12.307 E2.14837
G1 X41.175 Y12.560 E2.15024
G1 X40.127 Y13.608 E2.16124
G1 X40.379 Y13.608 E2.16312
G1 X41.175 Y12.812 E2.17147
G1 X41.175 Y13.065 E2.17334
G1 X40.632 Y13.608 E2.17904
G1 X40.884 Y13.608 E2.18092
G1 X41.175 Y13.317 E2.18397
G1 X41.175 Y13.570 E2.18584
G1 X41.137 Y13.608 E2.18624
G4 P1
;G201 P1 X1
;G202 P1 X0
;G201 P0 X300
;G201 P0 X0

G1 Z0.800 F7800.000
G0 X10 Y10 ; Laser to park position
G4 P1
G202 P1 X0
G4 P1
G203 P1
G201 P1 X0.3
G203 P1
G4 P1000
G201 P0 X240
G201 P0 X0





G1 E1.28624 F3600.00000
G92 E0
G1 X38.153 Y13.608 F7800.000
G1 E0.90000 F3600.00000
G1 F600
G1 X38.115 Y13.570 E0.90040
G1 X38.115 Y13.317 E0.90227
G1 X38.406 Y13.608 E0.90532
G1 X38.658 Y13.608 E0.90720
G1 X38.115 Y13.065 E0.91290
G1 X38.115 Y12.812 E0.91477
G1 X38.911 Y13.608 E0.92312
G1 X39.163 Y13.608 E0.92500
G1 X38.115 Y12.560 E0.93600
G1 X38.115 Y12.307 E0.93787
G1 X39.416 Y13.608 E0.95152
G1 X39.668 Y13.608 E0.95340
G1 X38.115 Y12.055 E0.96970
G1 X38.115 Y11.802 E0.97158
G1 X39.921 Y13.608 E0.99053
G1 X40.173 Y13.608 E0.99240
G1 X38.115 Y11.550 E1.01401
G1 X38.115 Y11.297 E1.01588
G1 X40.426 Y13.608 E1.04014
G1 X40.678 Y13.608 E1.04201
G1 X38.115 Y11.045 E1.06892
G1 X38.115 Y10.792 E1.07079
G1 X40.931 Y13.608 E1.10035
G1 X41.175 Y13.599 E1.10216
G1 X38.115 Y10.540 E1.13427
G1 X38.115 Y10.287 E1.13615
G1 X41.175 Y13.347 E1.16826
G1 X41.175 Y13.094 E1.17014
G1 X38.115 Y10.035 E1.20225
G1 X38.115 Y9.782 E1.20413
G1 X41.175 Y12.842 E1.23624
G1 X41.175 Y12.589 E1.23812
G1 X38.115 Y9.530 E1.27023
G1 X38.115 Y9.277 E1.27211
G1 X41.175 Y12.337 E1.30422
G1 X41.175 Y12.084 E1.30610
G1 X38.115 Y9.025 E1.33821
G1 X38.115 Y8.772 E1.34009
G1 X41.175 Y11.832 E1.37220
G1 X41.175 Y11.579 E1.37408
G1 X38.115 Y8.520 E1.40619
G1 X38.115 Y8.267 E1.40807
G1 X41.175 Y11.327 E1.44018
G1 X41.175 Y11.074 E1.44206
G1 X38.115 Y8.015 E1.47417
G1 X38.115 Y7.762 E1.47605
G1 X41.175 Y10.822 E1.50816
G1 X41.175 Y10.569 E1.51004
G1 X38.115 Y7.510 E1.54215
G1 X38.115 Y7.257 E1.54403
G1 X41.175 Y10.317 E1.57614
G1 X41.175 Y10.064 E1.57802
G1 X38.115 Y7.005 E1.61013
G1 X38.115 Y6.752 E1.61200
G1 X41.175 Y9.812 E1.64412
G1 X41.175 Y9.559 E1.64599
G1 X38.115 Y6.500 E1.67811
G1 X38.115 Y6.247 E1.67998
G1 X41.175 Y9.307 E1.71210
G1 X41.175 Y9.054 E1.71397
G1 X38.115 Y5.995 E1.74609
G1 X38.115 Y5.742 E1.74796
G1 X41.175 Y8.802 E1.78008
G1 X41.175 Y8.549 E1.78195
G1 X38.115 Y5.490 E1.81407
G1 X38.115 Y5.237 E1.81594
G1 X41.175 Y8.297 E1.84806
G1 X41.175 Y8.044 E1.84993
G1 X38.115 Y4.985 E1.88205
G1 X38.115 Y4.732 E1.88392
G1 X41.175 Y7.792 E1.91604
G1 X41.175 Y7.539 E1.91791
G1 X38.115 Y4.480 E1.95003
G1 X38.115 Y4.227 E1.95190
G1 X41.175 Y7.287 E1.98402
G1 X41.175 Y7.034 E1.98589
G1 X38.359 Y4.219 E2.01545
G1 X38.612 Y4.219 E2.01732
G1 X41.175 Y6.782 E2.04423
G1 X41.175 Y6.529 E2.04610
G1 X38.864 Y4.219 E2.07036
G1 X39.117 Y4.219 E2.07223
G1 X41.175 Y6.277 E2.09384
G1 X41.175 Y6.024 E2.09571
G1 X39.369 Y4.219 E2.11466
G1 X39.622 Y4.219 E2.11654
G1 X41.175 Y5.772 E2.13284
G1 X41.175 Y5.519 E2.13472
G1 X39.874 Y4.219 E2.14837
G1 X40.127 Y4.219 E2.15024
G1 X41.175 Y5.267 E2.16124
G1 X41.175 Y5.014 E2.16312
G1 X40.379 Y4.219 E2.17147
G1 X40.632 Y4.219 E2.17334
G1 X41.175 Y4.762 E2.17904
G1 X41.175 Y4.509 E2.18092
G1 X40.884 Y4.219 E2.18397
G1 X41.137 Y4.219 E2.18584
G1 X41.175 Y4.257 E2.18624
G4 P1
;G201 P1 X1
;G202 P1 X0
;G201 P0 X300
;G201 P0 X0

G1 Z0.900 F7800.000
G0 X10 Y10 ; Laser to park position
G4 P1
G202 P1 X0
G4 P1
G203 P1
G201 P1 X0.3
G203 P1
G4 P1000
G201 P0 X240
G201 P0 X0





G1 E1.28624 F3600.00000
G92 E0
G1 X38.115 Y4.256 F7800.000
G1 E0.90000 F3600.00000
G1 F600
G1 X38.153 Y4.219 E0.90040
G1 X38.406 Y4.219 E0.90227
G1 X38.115 Y4.509 E0.90532
G1 X38.115 Y4.762 E0.90720
G1 X38.658 Y4.219 E0.91290
G1 X38.911 Y4.219 E0.91477
G1 X38.115 Y5.014 E0.92312
G1 X38.115 Y5.267 E0.92500
G1 X39.163 Y4.219 E0.93600
G1 X39.416 Y4.219 E0.93787
G1 X38.115 Y5.519 E0.95152
G1 X38.115 Y5.772 E0.95340
G1 X39.668 Y4.219 E0.96970
G1 X39.921 Y4.219 E0.97158
G1 X38.115 Y6.024 E0.99053
G1 X38.115 Y6.277 E0.99240
G1 X40.173 Y4.219 E1.01401
G1 X40.426 Y4.219 E1.01588
G1 X38.115 Y6.529 E1.04014
G1 X38.115 Y6.782 E1.04201
G1 X40.678 Y4.219 E1.06892
G1 X40.931 Y4.219 E1.07079
G1 X38.115 Y7.034 E1.10035
G1 X38.115 Y7.287 E1.10222
G1 X41.175 Y4.227 E1.13434
G1 X41.175 Y4.480 E1.13621
G1 X38.115 Y7.539 E1.16833
G1 X38.115 Y7.792 E1.17020
G1 X41.175 Y4.732 E1.20232
G1 X41.175 Y4.985 E1.20419
G1 X38.115 Y8.044 E1.23631
G1 X38.115 Y8.297 E1.23818
G1 X41.175 Y5.237 E1.27030
G1 X41.175 Y5.490 E1.27217
G1 X38.115 Y8.549 E1.30429
G1 X38.115 Y8.802 E1.30616
G1 X41.175 Y5.742 E1.33828
G1 X41.175 Y5.995 E1.34015
G1 X38.115 Y9.054 E1.37227
G1 X38.115 Y9.307 E1.37414
G1 X41.175 Y6.247 E1.40626
G1 X41.175 Y6.500 E1.40813
G1 X38.115 Y9.559 E1.44025
G1 X38.115 Y9.812 E1.44212
G1 X41.175 Y6.752 E1.47423
G1 X41.175 Y7.005 E1.47611
G1 X38.115 Y10.064 E1.50822
G1 X38.115 Y10.317 E1.51010
G1 X41.175 Y7.257 E1.54221
G1 X41.175 Y7.510 E1.54409
G1 X38.115 Y10.569 E1.57620
G1 X38.115 Y10.822 E1.57808
G1 X41.175 Y7.762 E1.61019
G1 X41.175 Y8.015 E1.61207
G1 X38.115 Y11.074 E1.64418
G1 X38.115 Y11.327 E1.64606
G1 X41.175 Y8.267 E1.67817
G1 X41.175 Y8.520 E1.68005
G1 X38.115 Y11.579 E1.71216
G1 X38.115 Y11.832 E1.71404
G1 X41.175 Y8.772 E1.74615
G1 X41.175 Y9.025 E1.74803
G1 X38.115 Y12.084 E1.78014
G1 X38.115 Y12.337 E1.78202
G1 X41.175 Y9.277 E1.81413
G1 X41.175 Y9.530 E1.81601
G1 X38.115 Y12.589 E1.84812
G1 X38.115 Y12.842 E1.85000
G1 X41.175 Y9.782 E1.88211
G1 X41.175 Y10.035 E1.88399
G1 X38.115 Y13.094 E1.91610
G1 X38.115 Y13.347 E1.91798
G1 X41.175 Y10.287 E1.95009
G1 X41.175 Y10.540 E1.95197
G1 X38.115 Y13.599 E1.98408
G1 X38.359 Y13.608 E1.98589
G1 X41.175 Y10.792 E2.01545
G1 X41.175 Y11.045 E2.01732
G1 X38.612 Y13.608 E2.04423
G1 X38.864 Y13.608 E2.04610
G1 X41.175 Y11.297 E2.07036
G1 X41.175 Y11.550 E2.07223
G1 X39.117 Y13.608 E2.09384
G1 X39.369 Y13.608 E2.09571
G1 X41.175 Y11.802 E2.11466
G1 X41.175 Y12.055 E2.11654
G1 X39.622 Y13.608 E2.13284
G1 X39.874 Y13.608 E2.13471
G1 X41.175 Y12.307 E2.14837
G1 X41.175 Y12.560 E2.15024
G1 X40.127 Y13.608 E2.16124
G1 X40.379 Y13.608 E2.16312
G1 X41.175 Y12.812 E2.17147
G1 X41.175 Y13.065 E2.17334
G1 X40.632 Y13.608 E2.17904
G1 X40.884 Y13.608 E2.18092
G1 X41.175 Y13.317 E2.18397
G1 X41.175 Y13.570 E2.18584
G1 X41.137 Y13.608 E2.18624
G4 P1
;G201 P1 X1
;G202 P1 X0
;G201 P0 X300
;G201 P0 X0

G1 Z1.000 F7800.000
G0 X10 Y10 ; Laser to park position
G4 P1
G202 P1 X0
G4 P1
G203 P1
G201 P1 X0.3
G203 P1
G4 P1000
G201 P0 X240
G201 P0 X0





G1 E1.28624 F3600.00000
G92 E0
G1 X38.153 Y13.608 F7800.000
G1 E0.90000 F3600.00000
G1 F600
G1 X38.115 Y13.570 E0.90040
G1 X38.115 Y13.317 E0.90227
G1 X38.406 Y13.608 E0.90532
G1 X38.658 Y13.608 E0.90720
G1 X38.115 Y13.065 E0.91290
G1 X38.115 Y12.812 E0.91477
G1 X38.911 Y13.608 E0.92312
G1 X39.163 Y13.608 E0.92500
G1 X38.115 Y12.560 E0.93600
G1 X38.115 Y12.307 E0.93787
G1 X39.416 Y13.608 E0.95152
G1 X39.668 Y13.608 E0.95340
G1 X38.115 Y12.055 E0.96970
G1 X38.115 Y11.802 E0.97158
G1 X39.921 Y13.608 E0.99053
G1 X40.173 Y13.608 E0.99240
G1 X38.115 Y11.550 E1.01401
G1 X38.115 Y11.297 E1.01588
G1 X40.426 Y13.608 E1.04014
G1 X40.678 Y13.608 E1.04201
G1 X38.115 Y11.045 E1.06892
G1 X38.115 Y10.792 E1.07079
G1 X40.931 Y13.608 E1.10035
G1 X41.175 Y13.599 E1.10216
G1 X38.115 Y10.540 E1.13427
G1 X38.115 Y10.287 E1.13615
G1 X41.175 Y13.347 E1.16826
G1 X41.175 Y13.094 E1.17014
G1 X38.115 Y10.035 E1.20225
G1 X38.115 Y9.782 E1.20413
G1 X41.175 Y12.842 E1.23624
G1 X41.175 Y12.589 E1.23812
G1 X38.115 Y9.530 E1.27023
G1 X38.115 Y9.277 E1.27211
G1 X41.175 Y12.337 E1.30422
G1 X41.175 Y12.084 E1.30610
G1 X38.115 Y9.025 E1.33821
G1 X38.115 Y8.772 E1.34009
G1 X41.175 Y11.832 E1.37220
G1 X41.175 Y11.579 E1.37408
G1 X38.115 Y8.520 E1.40619
G1 X38.115 Y8.267 E1.40807
G1 X41.175 Y11.327 E1.44018
G1 X41.175 Y11.074 E1.44206
G1 X38.115 Y8.015 E1.47417
G1 X38.115 Y7.762 E1.47605
G1 X41.175 Y10.822 E1.50816
G1 X41.175 Y10.569 E1.51004
G1 X38.115 Y7.510 E1.54215
G1 X38.115 Y7.257 E1.54403
G1 X41.175 Y10.317 E1.57614
G1 X41.175 Y10.064 E1.57802
G1 X38.115 Y7.005 E1.61013
G1 X38.115 Y6.752 E1.61200
G1 X41.175 Y9.812 E1.64412
G1 X41.175 Y9.559 E1.64599
G1 X38.115 Y6.500 E1.67811
G1 X38.115 Y6.247 E1.67998
G1 X41.175 Y9.307 E1.71210
G1 X41.175 Y9.054 E1.71397
G1 X38.115 Y5.995 E1.74609
G1 X38.115 Y5.742 E1.74796
G1 X41.175 Y8.802 E1.78008
G1 X41.175 Y8.549 E1.78195
G1 X38.115 Y5.490 E1.81407
G1 X38.115 Y5.237 E1.81594
G1 X41.175 Y8.297 E1.84806
G1 X41.175 Y8.044 E1.84993
G1 X38.115 Y4.985 E1.88205
G1 X38.115 Y4.732 E1.88392
G1 X41.175 Y7.792 E1.91604
G1 X41.175 Y7.539 E1.91791
G1 X38.115 Y4.480 E1.95003
G1 X38.115 Y4.227 E1.95190
G1 X41.175 Y7.287 E1.98402
G1 X41.175 Y7.034 E1.98589
G1 X38.359 Y4.219 E2.01545
G1 X38.612 Y4.219 E2.01732
G1 X41.175 Y6.782 E2.04423
G1 X41.175 Y6.529 E2.04610
G1 X38.864 Y4.219 E2.07036
G1 X39.117 Y4.219 E2.07223
G1 X41.175 Y6.277 E2.09384
G1 X41.175 Y6.024 E2.09571
G1 X39.369 Y4.219 E2.11466
G1 X39.622 Y4.219 E2.11654
G1 X41.175 Y5.772 E2.13284
G1 X41.175 Y5.519 E2.13472
G1 X39.874 Y4.219 E2.14837
G1 X40.127 Y4.219 E2.15024
G1 X41.175 Y5.267 E2.16124
G1 X41.175 Y5.014 E2.16312
G1 X40.379 Y4.219 E2.17147
G1 X40.632 Y4.219 E2.17334
G1 X41.175 Y4.762 E2.17904
G1 X41.175 Y4.509 E2.18092
G1 X40.884 Y4.219 E2.18397
G1 X41.137 Y4.219 E2.18584
G1 X41.175 Y4.257 E2.18624
G4 P1
;G201 P1 X1
;G202 P1 X0
;G201 P0 X300
;G201 P0 X0

G1 Z1.100 F7800.000
G0 X10 Y10 ; Laser to park position
G4 P1
G202 P1 X0
G4 P1
G203 P1
G201 P1 X0.3
G203 P1
G4 P1000
G201 P0 X240
G201 P0 X0





G1 E1.28624 F3600.00000
G92 E0
G1 X38.115 Y4.256 F7800.000
G1 E0.90000 F3600.00000
G1 F600
G1 X38.153 Y4.219 E0.90040
G1 X38.406 Y4.219 E0.90227
G1 X38.115 Y4.509 E0.90532
G1 X38.115 Y4.762 E0.90720
G1 X38.658 Y4.219 E0.91290
G1 X38.911 Y4.219 E0.91477
G1 X38.115 Y5.014 E0.92312
G1 X38.115 Y5.267 E0.92500
G1 X39.163 Y4.219 E0.93600
G1 X39.416 Y4.219 E0.93787
G1 X38.115 Y5.519 E0.95152
G1 X38.115 Y5.772 E0.95340
G1 X39.668 Y4.219 E0.96970
G1 X39.921 Y4.219 E0.97158
G1 X38.115 Y6.024 E0.99053
G1 X38.115 Y6.277 E0.99240
G1 X40.173 Y4.219 E1.01401
G1 X40.426 Y4.219 E1.01588
G1 X38.115 Y6.529 E1.04014
G1 X38.115 Y6.782 E1.04201
G1 X40.678 Y4.219 E1.06892
G1 X40.931 Y4.219 E1.07079
G1 X38.115 Y7.034 E1.10035
G1 X38.115 Y7.287 E1.10222
G1 X41.175 Y4.227 E1.13434
G1 X41.175 Y4.480 E1.13621
G1 X38.115 Y7.539 E1.16833
G1 X38.115 Y7.792 E1.17020
G1 X41.175 Y4.732 E1.20232
G1 X41.175 Y4.985 E1.20419
G1 X38.115 Y8.044 E1.23631
G1 X38.115 Y8.297 E1.23818
G1 X41.175 Y5.237 E1.27030
G1 X41.175 Y5.490 E1.27217
G1 X38.115 Y8.549 E1.30429
G1 X38.115 Y8.802 E1.30616
G1 X41.175 Y5.742 E1.33828
G1 X41.175 Y5.995 E1.34015
G1 X38.115 Y9.054 E1.37227
G1 X38.115 Y9.307 E1.37414
G1 X41.175 Y6.247 E1.40626
G1 X41.175 Y6.500 E1.40813
G1 X38.115 Y9.559 E1.44025
G1 X38.115 Y9.812 E1.44212
G1 X41.175 Y6.752 E1.47423
G1 X41.175 Y7.005 E1.47611
G1 X38.115 Y10.064 E1.50822
G1 X38.115 Y10.317 E1.51010
G1 X41.175 Y7.257 E1.54221
G1 X41.175 Y7.510 E1.54409
G1 X38.115 Y10.569 E1.57620
G1 X38.115 Y10.822 E1.57808
G1 X41.175 Y7.762 E1.61019
G1 X41.175 Y8.015 E1.61207
G1 X38.115 Y11.074 E1.64418
G1 X38.115 Y11.327 E1.64606
G1 X41.175 Y8.267 E1.67817
G1 X41.175 Y8.520 E1.68005
G1 X38.115 Y11.579 E1.71216
G1 X38.115 Y11.832 E1.71404
G1 X41.175 Y8.772 E1.74615
G1 X41.175 Y9.025 E1.74803
G1 X38.115 Y12.084 E1.78014
G1 X38.115 Y12.337 E1.78202
G1 X41.175 Y9.277 E1.81413
G1 X41.175 Y9.530 E1.81601
G1 X38.115 Y12.589 E1.84812
G1 X38.115 Y12.842 E1.85000
G1 X41.175 Y9.782 E1.88211
G1 X41.175 Y10.035 E1.88399
G1 X38.115 Y13.094 E1.91610
G1 X38.115 Y13.347 E1.91798
G1 X41.175 Y10.287 E1.95009
G1 X41.175 Y10.540 E1.95197
G1 X38.115 Y13.599 E1.98408
G1 X38.359 Y13.608 E1.98589
G1 X41.175 Y10.792 E2.01545
G1 X41.175 Y11.045 E2.01732
G1 X38.612 Y13.608 E2.04423
G1 X38.864 Y13.608 E2.04610
G1 X41.175 Y11.297 E2.07036
G1 X41.175 Y11.550 E2.07223
G1 X39.117 Y13.608 E2.09384
G1 X39.369 Y13.608 E2.09571
G1 X41.175 Y11.802 E2.11466
G1 X41.175 Y12.055 E2.11654
G1 X39.622 Y13.608 E2.13284
G1 X39.874 Y13.608 E2.13471
G1 X41.175 Y12.307 E2.14837
G1 X41.175 Y12.560 E2.15024
G1 X40.127 Y13.608 E2.16124
G1 X40.379 Y13.608 E2.16312
G1 X41.175 Y12.812 E2.17147
G1 X41.175 Y13.065 E2.17334
G1 X40.632 Y13.608 E2.17904
G1 X40.884 Y13.608 E2.18092
G1 X41.175 Y13.317 E2.18397
G1 X41.175 Y13.570 E2.18584
G1 X41.137 Y13.608 E2.18624
G4 P1
;G201 P1 X1
;G202 P1 X0
;G201 P0 X300
;G201 P0 X0

G1 Z1.200 F7800.000
G0 X10 Y10 ; Laser to park position
G4 P1
G202 P1 X0
G4 P1
G203 P1
G201 P1 X0.3
G203 P1
G4 P1000
G201 P0 X240
G201 P0 X0





G1 E1.28624 F3600.00000
G92 E0
G1 X38.153 Y13.608 F7800.000
G1 E0.90000 F3600.00000
G1 F600
G1 X38.115 Y13.570 E0.90040
G1 X38.115 Y13.317 E0.90227
G1 X38.406 Y13.608 E0.90532
G1 X38.658 Y13.608 E0.90720
G1 X38.115 Y13.065 E0.91290
G1 X38.115 Y12.812 E0.91477
G1 X38.911 Y13.608 E0.92312
G1 X39.163 Y13.608 E0.92500
G1 X38.115 Y12.560 E0.93600
G1 X38.115 Y12.307 E0.93787
G1 X39.416 Y13.608 E0.95152
G1 X39.668 Y13.608 E0.95340
G1 X38.115 Y12.055 E0.96970
G1 X38.115 Y11.802 E0.97158
G1 X39.921 Y13.608 E0.99053
G1 X40.173 Y13.608 E0.99240
G1 X38.115 Y11.550 E1.01401
G1 X38.115 Y11.297 E1.01588
G1 X40.426 Y13.608 E1.04014
G1 X40.678 Y13.608 E1.04201
G1 X38.115 Y11.045 E1.06892
G1 X38.115 Y10.792 E1.07079
G1 X40.931 Y13.608 E1.10035
G1 X41.175 Y13.599 E1.10216
G1 X38.115 Y10.540 E1.13427
G1 X38.115 Y10.287 E1.13615
G1 X41.175 Y13.347 E1.16826
G1 X41.175 Y13.094 E1.17014
G1 X38.115 Y10.035 E1.20225
G1 X38.115 Y9.782 E1.20413
G1 X41.175 Y12.842 E1.23624
G1 X41.175 Y12.589 E1.23812
G1 X38.115 Y9.530 E1.27023
G1 X38.115 Y9.277 E1.27211
G1 X41.175 Y12.337 E1.30422
G1 X41.175 Y12.084 E1.30610
G1 X38.115 Y9.025 E1.33821
G1 X38.115 Y8.772 E1.34009
G1 X41.175 Y11.832 E1.37220
G1 X41.175 Y11.579 E1.37408
G1 X38.115 Y8.520 E1.40619
G1 X38.115 Y8.267 E1.40807
G1 X41.175 Y11.327 E1.44018
G1 X41.175 Y11.074 E1.44206
G1 X38.115 Y8.015 E1.47417
G1 X38.115 Y7.762 E1.47605
G1 X41.175 Y10.822 E1.50816
G1 X41.175 Y10.569 E1.51004
G1 X38.115 Y7.510 E1.54215
G1 X38.115 Y7.257 E1.54403
G1 X41.175 Y10.317 E1.57614
G1 X41.175 Y10.064 E1.57802
G1 X38.115 Y7.005 E1.61013
G1 X38.115 Y6.752 E1.61200
G1 X41.175 Y9.812 E1.64412
G1 X41.175 Y9.559 E1.64599
G1 X38.115 Y6.500 E1.67811
G1 X38.115 Y6.247 E1.67998
G1 X41.175 Y9.307 E1.71210
G1 X41.175 Y9.054 E1.71397
G1 X38.115 Y5.995 E1.74609
G1 X38.115 Y5.742 E1.74796
G1 X41.175 Y8.802 E1.78008
G1 X41.175 Y8.549 E1.78195
G1 X38.115 Y5.490 E1.81407
G1 X38.115 Y5.237 E1.81594
G1 X41.175 Y8.297 E1.84806
G1 X41.175 Y8.044 E1.84993
G1 X38.115 Y4.985 E1.88205
G1 X38.115 Y4.732 E1.88392
G1 X41.175 Y7.792 E1.91604
G1 X41.175 Y7.539 E1.91791
G1 X38.115 Y4.480 E1.95003
G1 X38.115 Y4.227 E1.95190
G1 X41.175 Y7.287 E1.98402
G1 X41.175 Y7.034 E1.98589
G1 X38.359 Y4.219 E2.01545
G1 X38.612 Y4.219 E2.01732
G1 X41.175 Y6.782 E2.04423
G1 X41.175 Y6.529 E2.04610
G1 X38.864 Y4.219 E2.07036
G1 X39.117 Y4.219 E2.07223
G1 X41.175 Y6.277 E2.09384
G1 X41.175 Y6.024 E2.09571
G1 X39.369 Y4.219 E2.11466
G1 X39.622 Y4.219 E2.11654
G1 X41.175 Y5.772 E2.13284
G1 X41.175 Y5.519 E2.13472
G1 X39.874 Y4.219 E2.14837
G1 X40.127 Y4.219 E2.15024
G1 X41.175 Y5.267 E2.16124
G1 X41.175 Y5.014 E2.16312
G1 X40.379 Y4.219 E2.17147
G1 X40.632 Y4.219 E2.17334
G1 X41.175 Y4.762 E2.17904
G1 X41.175 Y4.509 E2.18092
G1 X40.884 Y4.219 E2.18397
G1 X41.137 Y4.219 E2.18584
G1 X41.175 Y4.257 E2.18624
G4 P1
;G201 P1 X1
;G202 P1 X0
;G201 P0 X300
;G201 P0 X0

G1 Z1.300 F7800.000
G0 X10 Y10 ; Laser to park position
G4 P1
G202 P1 X0
G4 P1
G203 P1
G201 P1 X0.3
G203 P1
G4 P1000
G201 P0 X240
G201 P0 X0





G1 E1.28624 F3600.00000
G92 E0
G1 X38.115 Y4.256 F7800.000
G1 E0.90000 F3600.00000
G1 F600
G1 X38.153 Y4.219 E0.90040
G1 X38.406 Y4.219 E0.90227
G1 X38.115 Y4.509 E0.90532
G1 X38.115 Y4.762 E0.90720
G1 X38.658 Y4.219 E0.91290
G1 X38.911 Y4.219 E0.91477
G1 X38.115 Y5.014 E0.92312
G1 X38.115 Y5.267 E0.92500
G1 X39.163 Y4.219 E0.93600
G1 X39.416 Y4.219 E0.93787
G1 X38.115 Y5.519 E0.95152
G1 X38.115 Y5.772 E0.95340
G1 X39.668 Y4.219 E0.96970
G1 X39.921 Y4.219 E0.97158
G1 X38.115 Y6.024 E0.99053
G1 X38.115 Y6.277 E0.99240
G1 X40.173 Y4.219 E1.01401
G1 X40.426 Y4.219 E1.01588
G1 X38.115 Y6.529 E1.04014
G1 X38.115 Y6.782 E1.04201
G1 X40.678 Y4.219 E1.06892
G1 X40.931 Y4.219 E1.07079
G1 X38.115 Y7.034 E1.10035
G1 X38.115 Y7.287 E1.10222
G1 X41.175 Y4.227 E1.13434
G1 X41.175 Y4.480 E1.13621
G1 X38.115 Y7.539 E1.16833
G1 X38.115 Y7.792 E1.17020
G1 X41.175 Y4.732 E1.20232
G1 X41.175 Y4.985 E1.20419
G1 X38.115 Y8.044 E1.23631
G1 X38.115 Y8.297 E1.23818
G1 X41.175 Y5.237 E1.27030
G1 X41.175 Y5.490 E1.27217
G1 X38.115 Y8.549 E1.30429
G1 X38.115 Y8.802 E1.30616
G1 X41.175 Y5.742 E1.33828
G1 X41.175 Y5.995 E1.34015
G1 X38.115 Y9.054 E1.37227
G1 X38.115 Y9.307 E1.37414
G1 X41.175 Y6.247 E1.40626
G1 X41.175 Y6.500 E1.40813
G1 X38.115 Y9.559 E1.44025
G1 X38.115 Y9.812 E1.44212
G1 X41.175 Y6.752 E1.47423
G1 X41.175 Y7.005 E1.47611
G1 X38.115 Y10.064 E1.50822
G1 X38.115 Y10.317 E1.51010
G1 X41.175 Y7.257 E1.54221
G1 X41.175 Y7.510 E1.54409
G1 X38.115 Y10.569 E1.57620
G1 X38.115 Y10.822 E1.57808
G1 X41.175 Y7.762 E1.61019
G1 X41.175 Y8.015 E1.61207
G1 X38.115 Y11.074 E1.64418
G1 X38.115 Y11.327 E1.64606
G1 X41.175 Y8.267 E1.67817
G1 X41.175 Y8.520 E1.68005
G1 X38.115 Y11.579 E1.71216
G1 X38.115 Y11.832 E1.71404
G1 X41.175 Y8.772 E1.74615
G1 X41.175 Y9.025 E1.74803
G1 X38.115 Y12.084 E1.78014
G1 X38.115 Y12.337 E1.78202
G1 X41.175 Y9.277 E1.81413
G1 X41.175 Y9.530 E1.81601
G1 X38.115 Y12.589 E1.84812
G1 X38.115 Y12.842 E1.85000
G1 X41.175 Y9.782 E1.88211
G1 X41.175 Y10.035 E1.88399
G1 X38.115 Y13.094 E1.91610
G1 X38.115 Y13.347 E1.91798
G1 X41.175 Y10.287 E1.95009
G1 X41.175 Y10.540 E1.95197
G1 X38.115 Y13.599 E1.98408
G1 X38.359 Y13.608 E1.98589
G1 X41.175 Y10.792 E2.01545
G1 X41.175 Y11.045 E2.01732
G1 X38.612 Y13.608 E2.04423
G1 X38.864 Y13.608 E2.04610
G1 X41.175 Y11.297 E2.07036
G1 X41.175 Y11.550 E2.07223
G1 X39.117 Y13.608 E2.09384
G1 X39.369 Y13.608 E2.09571
G1 X41.175 Y11.802 E2.11466
G1 X41.175 Y12.055 E2.11654
G1 X39.622 Y13.608 E2.13284
G1 X39.874 Y13.608 E2.13471
G1 X41.175 Y12.307 E2.14837
G1 X41.175 Y12.560 E2.15024
G1 X40.127 Y13.608 E2.16124
G1 X40.379 Y13.608 E2.16312
G1 X41.175 Y12.812 E2.17147
G1 X41.175 Y13.065 E2.17334
G1 X40.632 Y13.608 E2.17904
G1 X40.884 Y13.608 E2.18092
G1 X41.175 Y13.317 E2.18397
G1 X41.175 Y13.570 E2.18584
G1 X41.137 Y13.608 E2.18624
G4 P1
;G201 P1 X1
;G202 P1 X0
;G201 P0 X300
;G201 P0 X0

G1 Z1.400 F7800.000
G0 X10 Y10 ; Laser to park position
G4 P1
G202 P1 X0
G4 P1
G203 P1
G201 P1 X0.3
G203 P1
G4 P1000
G201 P0 X240
G201 P0 X0





G1 E1.28624 F3600.00000
G92 E0
G1 X38.153 Y13.608 F7800.000
G1 E0.90000 F3600.00000
G1 F600
G1 X38.115 Y13.570 E0.90040
G1 X38.115 Y13.317 E0.90227
G1 X38.406 Y13.608 E0.90532
G1 X38.658 Y13.608 E0.90720
G1 X38.115 Y13.065 E0.91290
G1 X38.115 Y12.812 E0.91477
G1 X38.911 Y13.608 E0.92312
G1 X39.163 Y13.608 E0.92500
G1 X38.115 Y12.560 E0.93600
G1 X38.115 Y12.307 E0.93787
G1 X39.416 Y13.608 E0.95152
G1 X39.668 Y13.608 E0.95340
G1 X38.115 Y12.055 E0.96970
G1 X38.115 Y11.802 E0.97158
G1 X39.921 Y13.608 E0.99053
G1 X40.173 Y13.608 E0.99240
G1 X38.115 Y11.550 E1.01401
G1 X38.115 Y11.297 E1.01588
G1 X40.426 Y13.608 E1.04014
G1 X40.678 Y13.608 E1.04201
G1 X38.115 Y11.045 E1.06892
G1 X38.115 Y10.792 E1.07079
G1 X40.931 Y13.608 E1.10035
G1 X41.175 Y13.599 E1.10216
G1 X38.115 Y10.540 E1.13427
G1 X38.115 Y10.287 E1.13615
G1 X41.175 Y13.347 E1.16826
G1 X41.175 Y13.094 E1.17014
G1 X38.115 Y10.035 E1.20225
G1 X38.115 Y9.782 E1.20413
G1 X41.175 Y12.842 E1.23624
G1 X41.175 Y12.589 E1.23812
G1 X38.115 Y9.530 E1.27023
G1 X38.115 Y9.277 E1.27211
G1 X41.175 Y12.337 E1.30422
G1 X41.175 Y12.084 E1.30610
G1 X38.115 Y9.025 E1.33821
G1 X38.115 Y8.772 E1.34009
G1 X41.175 Y11.832 E1.37220
G1 X41.175 Y11.579 E1.37408
G1 X38.115 Y8.520 E1.40619
G1 X38.115 Y8.267 E1.40807
G1 X41.175 Y11.327 E1.44018
G1 X41.175 Y11.074 E1.44206
G1 X38.115 Y8.015 E1.47417
G1 X38.115 Y7.762 E1.47605
G1 X41.175 Y10.822 E1.50816
G1 X41.175 Y10.569 E1.51004
G1 X38.115 Y7.510 E1.54215
G1 X38.115 Y7.257 E1.54403
G1 X41.175 Y10.317 E1.57614
G1 X41.175 Y10.064 E1.57802
G1 X38.115 Y7.005 E1.61013
G1 X38.115 Y6.752 E1.61200
G1 X41.175 Y9.812 E1.64412
G1 X41.175 Y9.559 E1.64599
G1 X38.115 Y6.500 E1.67811
G1 X38.115 Y6.247 E1.67998
G1 X41.175 Y9.307 E1.71210
G1 X41.175 Y9.054 E1.71397
G1 X38.115 Y5.995 E1.74609
G1 X38.115 Y5.742 E1.74796
G1 X41.175 Y8.802 E1.78008
G1 X41.175 Y8.549 E1.78195
G1 X38.115 Y5.490 E1.81407
G1 X38.115 Y5.237 E1.81594
G1 X41.175 Y8.297 E1.84806
G1 X41.175 Y8.044 E1.84993
G1 X38.115 Y4.985 E1.88205
G1 X38.115 Y4.732 E1.88392
G1 X41.175 Y7.792 E1.91604
G1 X41.175 Y7.539 E1.91791
G1 X38.115 Y4.480 E1.95003
G1 X38.115 Y4.227 E1.95190
G1 X41.175 Y7.287 E1.98402
G1 X41.175 Y7.034 E1.98589
G1 X38.359 Y4.219 E2.01545
G1 X38.612 Y4.219 E2.01732
G1 X41.175 Y6.782 E2.04423
G1 X41.175 Y6.529 E2.04610
G1 X38.864 Y4.219 E2.07036
G1 X39.117 Y4.219 E2.07223
G1 X41.175 Y6.277 E2.09384
G1 X41.175 Y6.024 E2.09571
G1 X39.369 Y4.219 E2.11466
G1 X39.622 Y4.219 E2.11654
G1 X41.175 Y5.772 E2.13284
G1 X41.175 Y5.519 E2.13472
G1 X39.874 Y4.219 E2.14837
G1 X40.127 Y4.219 E2.15024
G1 X41.175 Y5.267 E2.16124
G1 X41.175 Y5.014 E2.16312
G1 X40.379 Y4.219 E2.17147
G1 X40.632 Y4.219 E2.17334
G1 X41.175 Y4.762 E2.17904
G1 X41.175 Y4.509 E2.18092
G1 X40.884 Y4.219 E2.18397
G1 X41.137 Y4.219 E2.18584
G1 X41.175 Y4.257 E2.18624
G4 P1
;G201 P1 X1
;G202 P1 X0
;G201 P0 X300
;G201 P0 X0

G1 Z1.500 F7800.000
G0 X10 Y10 ; Laser to park position
G4 P1
G202 P1 X0
G4 P1
G203 P1
G201 P1 X0.3
G203 P1
G4 P1000
G201 P0 X240
G201 P0 X0





G1 E1.28624 F3600.00000
G92 E0
G1 X38.115 Y4.256 F7800.000
G1 E0.90000 F3600.00000
G1 F600
G1 X38.153 Y4.219 E0.90040
G1 X38.406 Y4.219 E0.90227
G1 X38.115 Y4.509 E0.90532
G1 X38.115 Y4.762 E0.90720
G1 X38.658 Y4.219 E0.91290
G1 X38.911 Y4.219 E0.91477
G1 X38.115 Y5.014 E0.92312
G1 X38.115 Y5.267 E0.92500
G1 X39.163 Y4.219 E0.93600
G1 X39.416 Y4.219 E0.93787
G1 X38.115 Y5.519 E0.95152
G1 X38.115 Y5.772 E0.95340
G1 X39.668 Y4.219 E0.96970
G1 X39.921 Y4.219 E0.97158
G1 X38.115 Y6.024 E0.99053
G1 X38.115 Y6.277 E0.99240
G1 X40.173 Y4.219 E1.01401
G1 X40.426 Y4.219 E1.01588
G1 X38.115 Y6.529 E1.04014
G1 X38.115 Y6.782 E1.04201
G1 X40.678 Y4.219 E1.06892
G1 X40.931 Y4.219 E1.07079
G1 X38.115 Y7.034 E1.10035
G1 X38.115 Y7.287 E1.10222
G1 X41.175 Y4.227 E1.13434
G1 X41.175 Y4.480 E1.13621
G1 X38.115 Y7.539 E1.16833
G1 X38.115 Y7.792 E1.17020
G1 X41.175 Y4.732 E1.20232
G1 X41.175 Y4.985 E1.20419
G1 X38.115 Y8.044 E1.23631
G1 X38.115 Y8.297 E1.23818
G1 X41.175 Y5.237 E1.27030
G1 X41.175 Y5.490 E1.27217
G1 X38.115 Y8.549 E1.30429
G1 X38.115 Y8.802 E1.30616
G1 X41.175 Y5.742 E1.33828
G1 X41.175 Y5.995 E1.34015
G1 X38.115 Y9.054 E1.37227
G1 X38.115 Y9.307 E1.37414
G1 X41.175 Y6.247 E1.40626
G1 X41.175 Y6.500 E1.40813
G1 X38.115 Y9.559 E1.44025
G1 X38.115 Y9.812 E1.44212
G1 X41.175 Y6.752 E1.47423
G1 X41.175 Y7.005 E1.47611
G1 X38.115 Y10.064 E1.50822
G1 X38.115 Y10.317 E1.51010
G1 X41.175 Y7.257 E1.54221
G1 X41.175 Y7.510 E1.54409
G1 X38.115 Y10.569 E1.57620
G1 X38.115 Y10.822 E1.57808
G1 X41.175 Y7.762 E1.61019
G1 X41.175 Y8.015 E1.61207
G1 X38.115 Y11.074 E1.64418
G1 X38.115 Y11.327 E1.64606
G1 X41.175 Y8.267 E1.67817
G1 X41.175 Y8.520 E1.68005
G1 X38.115 Y11.579 E1.71216
G1 X38.115 Y11.832 E1.71404
G1 X41.175 Y8.772 E1.74615
G1 X41.175 Y9.025 E1.74803
G1 X38.115 Y12.084 E1.78014
G1 X38.115 Y12.337 E1.78202
G1 X41.175 Y9.277 E1.81413
G1 X41.175 Y9.530 E1.81601
G1 X38.115 Y12.589 E1.84812
G1 X38.115 Y12.842 E1.85000
G1 X41.175 Y9.782 E1.88211
G1 X41.175 Y10.035 E1.88399
G1 X38.115 Y13.094 E1.91610
G1 X38.115 Y13.347 E1.91798
G1 X41.175 Y10.287 E1.95009
G1 X41.175 Y10.540 E1.95197
G1 X38.115 Y13.599 E1.98408
G1 X38.359 Y13.608 E1.98589
G1 X41.175 Y10.792 E2.01545
G1 X41.175 Y11.045 E2.01732
G1 X38.612 Y13.608 E2.04423
G1 X38.864 Y13.608 E2.04610
G1 X41.175 Y11.297 E2.07036
G1 X41.175 Y11.550 E2.07223
G1 X39.117 Y13.608 E2.09384
G1 X39.369 Y13.608 E2.09571
G1 X41.175 Y11.802 E2.11466
G1 X41.175 Y12.055 E2.11654
G1 X39.622 Y13.608 E2.13284
G1 X39.874 Y13.608 E2.13471
G1 X41.175 Y12.307 E2.14837
G1 X41.175 Y12.560 E2.15024
G1 X40.127 Y13.608 E2.16124
G1 X40.379 Y13.608 E2.16312
G1 X41.175 Y12.812 E2.17147
G1 X41.175 Y13.065 E2.17334
G1 X40.632 Y13.608 E2.17904
G1 X40.884 Y13.608 E2.18092
G1 X41.175 Y13.317 E2.18397
G1 X41.175 Y13.570 E2.18584
G1 X41.137 Y13.608 E2.18624
G4 P1
;G201 P1 X1
;G202 P1 X0
;G201 P0 X300
;G201 P0 X0

G1 Z1.600 F7800.000
G0 X10 Y10 ; Laser to park position
G4 P1
G202 P1 X0
G4 P1
G203 P1
G201 P1 X0.3
G203 P1
G4 P1000
G201 P0 X240
G201 P0 X0





G1 E1.28624 F3600.00000
G92 E0
G1 X38.153 Y13.608 F7800.000
G1 E0.90000 F3600.00000
G1 F600
G1 X38.115 Y13.570 E0.90040
G1 X38.115 Y13.317 E0.90227
G1 X38.406 Y13.608 E0.90532
G1 X38.658 Y13.608 E0.90720
G1 X38.115 Y13.065 E0.91290
G1 X38.115 Y12.812 E0.91477
G1 X38.911 Y13.608 E0.92312
G1 X39.163 Y13.608 E0.92500
G1 X38.115 Y12.560 E0.93600
G1 X38.115 Y12.307 E0.93787
G1 X39.416 Y13.608 E0.95152
G1 X39.668 Y13.608 E0.95340
G1 X38.115 Y12.055 E0.96970
G1 X38.115 Y11.802 E0.97158
G1 X39.921 Y13.608 E0.99053
G1 X40.173 Y13.608 E0.99240
G1 X38.115 Y11.550 E1.01401
G1 X38.115 Y11.297 E1.01588
G1 X40.426 Y13.608 E1.04014
G1 X40.678 Y13.608 E1.04201
G1 X38.115 Y11.045 E1.06892
G1 X38.115 Y10.792 E1.07079
G1 X40.931 Y13.608 E1.10035
G1 X41.175 Y13.599 E1.10216
G1 X38.115 Y10.540 E1.13427
G1 X38.115 Y10.287 E1.13615
G1 X41.175 Y13.347 E1.16826
G1 X41.175 Y13.094 E1.17014
G1 X38.115 Y10.035 E1.20225
G1 X38.115 Y9.782 E1.20413
G1 X41.175 Y12.842 E1.23624
G1 X41.175 Y12.589 E1.23812
G1 X38.115 Y9.530 E1.27023
G1 X38.115 Y9.277 E1.27211
G1 X41.175 Y12.337 E1.30422
G1 X41.175 Y12.084 E1.30610
G1 X38.115 Y9.025 E1.33821
G1 X38.115 Y8.772 E1.34009
G1 X41.175 Y11.832 E1.37220
G1 X41.175 Y11.579 E1.37408
G1 X38.115 Y8.520 E1.40619
G1 X38.115 Y8.267 E1.40807
G1 X41.175 Y11.327 E1.44018
G1 X41.175 Y11.074 E1.44206
G1 X38.115 Y8.015 E1.47417
G1 X38.115 Y7.762 E1.47605
G1 X41.175 Y10.822 E1.50816
G1 X41.175 Y10.569 E1.51004
G1 X38.115 Y7.510 E1.54215
G1 X38.115 Y7.257 E1.54403
G1 X41.175 Y10.317 E1.57614
G1 X41.175 Y10.064 E1.57802
G1 X38.115 Y7.005 E1.61013
G1 X38.115 Y6.752 E1.61200
G1 X41.175 Y9.812 E1.64412
G1 X41.175 Y9.559 E1.64599
G1 X38.115 Y6.500 E1.67811
G1 X38.115 Y6.247 E1.67998
G1 X41.175 Y9.307 E1.71210
G1 X41.175 Y9.054 E1.71397
G1 X38.115 Y5.995 E1.74609
G1 X38.115 Y5.742 E1.74796
G1 X41.175 Y8.802 E1.78008
G1 X41.175 Y8.549 E1.78195
G1 X38.115 Y5.490 E1.81407
G1 X38.115 Y5.237 E1.81594
G1 X41.175 Y8.297 E1.84806
G1 X41.175 Y8.044 E1.84993
G1 X38.115 Y4.985 E1.88205
G1 X38.115 Y4.732 E1.88392
G1 X41.175 Y7.792 E1.91604
G1 X41.175 Y7.539 E1.91791
G1 X38.115 Y4.480 E1.95003
G1 X38.115 Y4.227 E1.95190
G1 X41.175 Y7.287 E1.98402
G1 X41.175 Y7.034 E1.98589
G1 X38.359 Y4.219 E2.01545
G1 X38.612 Y4.219 E2.01732
G1 X41.175 Y6.782 E2.04423
G1 X41.175 Y6.529 E2.04610
G1 X38.864 Y4.219 E2.07036
G1 X39.117 Y4.219 E2.07223
G1 X41.175 Y6.277 E2.09384
G1 X41.175 Y6.024 E2.09571
G1 X39.369 Y4.219 E2.11466
G1 X39.622 Y4.219 E2.11654
G1 X41.175 Y5.772 E2.13284
G1 X41.175 Y5.519 E2.13472
G1 X39.874 Y4.219 E2.14837
G1 X40.127 Y4.219 E2.15024
G1 X41.175 Y5.267 E2.16124
G1 X41.175 Y5.014 E2.16312
G1 X40.379 Y4.219 E2.17147
G1 X40.632 Y4.219 E2.17334
G1 X41.175 Y4.762 E2.17904
G1 X41.175 Y4.509 E2.18092
G1 X40.884 Y4.219 E2.18397
G1 X41.137 Y4.219 E2.18584
G1 X41.175 Y4.257 E2.18624
G4 P1
;G201 P1 X1
;G202 P1 X0
;G201 P0 X300
;G201 P0 X0

G1 Z1.700 F7800.000
G0 X10 Y10 ; Laser to park position
G4 P1
G202 P1 X0
G4 P1
G203 P1
G201 P1 X0.3
G203 P1
G4 P1000
G201 P0 X240
G201 P0 X0





G1 E1.28624 F3600.00000
G92 E0
G1 X38.115 Y4.256 F7800.000
G1 E0.90000 F3600.00000
G1 F600
G1 X38.153 Y4.219 E0.90040
G1 X38.406 Y4.219 E0.90227
G1 X38.115 Y4.509 E0.90532
G1 X38.115 Y4.762 E0.90720
G1 X38.658 Y4.219 E0.91290
G1 X38.911 Y4.219 E0.91477
G1 X38.115 Y5.014 E0.92312
G1 X38.115 Y5.267 E0.92500
G1 X39.163 Y4.219 E0.93600
G1 X39.416 Y4.219 E0.93787
G1 X38.115 Y5.519 E0.95152
G1 X38.115 Y5.772 E0.95340
G1 X39.668 Y4.219 E0.96970
G1 X39.921 Y4.219 E0.97158
G1 X38.115 Y6.024 E0.99053
G1 X38.115 Y6.277 E0.99240
G1 X40.173 Y4.219 E1.01401
G1 X40.426 Y4.219 E1.01588
G1 X38.115 Y6.529 E1.04014
G1 X38.115 Y6.782 E1.04201
G1 X40.678 Y4.219 E1.06892
G1 X40.931 Y4.219 E1.07079
G1 X38.115 Y7.034 E1.10035
G1 X38.115 Y7.287 E1.10222
G1 X41.175 Y4.227 E1.13434
G1 X41.175 Y4.480 E1.13621
G1 X38.115 Y7.539 E1.16833
G1 X38.115 Y7.792 E1.17020
G1 X41.175 Y4.732 E1.20232
G1 X41.175 Y4.985 E1.20419
G1 X38.115 Y8.044 E1.23631
G1 X38.115 Y8.297 E1.23818
G1 X41.175 Y5.237 E1.27030
G1 X41.175 Y5.490 E1.27217
G1 X38.115 Y8.549 E1.30429
G1 X38.115 Y8.802 E1.30616
G1 X41.175 Y5.742 E1.33828
G1 X41.175 Y5.995 E1.34015
G1 X38.115 Y9.054 E1.37227
G1 X38.115 Y9.307 E1.37414
G1 X41.175 Y6.247 E1.40626
G1 X41.175 Y6.500 E1.40813
G1 X38.115 Y9.559 E1.44025
G1 X38.115 Y9.812 E1.44212
G1 X41.175 Y6.752 E1.47423
G1 X41.175 Y7.005 E1.47611
G1 X38.115 Y10.064 E1.50822
G1 X38.115 Y10.317 E1.51010
G1 X41.175 Y7.257 E1.54221
G1 X41.175 Y7.510 E1.54409
G1 X38.115 Y10.569 E1.57620
G1 X38.115 Y10.822 E1.57808
G1 X41.175 Y7.762 E1.61019
G1 X41.175 Y8.015 E1.61207
G1 X38.115 Y11.074 E1.64418
G1 X38.115 Y11.327 E1.64606
G1 X41.175 Y8.267 E1.67817
G1 X41.175 Y8.520 E1.68005
G1 X38.115 Y11.579 E1.71216
G1 X38.115 Y11.832 E1.71404
G1 X41.175 Y8.772 E1.74615
G1 X41.175 Y9.025 E1.74803
G1 X38.115 Y12.084 E1.78014
G1 X38.115 Y12.337 E1.78202
G1 X41.175 Y9.277 E1.81413
G1 X41.175 Y9.530 E1.81601
G1 X38.115 Y12.589 E1.84812
G1 X38.115 Y12.842 E1.85000
G1 X41.175 Y9.782 E1.88211
G1 X41.175 Y10.035 E1.88399
G1 X38.115 Y13.094 E1.91610
G1 X38.115 Y13.347 E1.91798
G1 X41.175 Y10.287 E1.95009
G1 X41.175 Y10.540 E1.95197
G1 X38.115 Y13.599 E1.98408
G1 X38.359 Y13.608 E1.98589
G1 X41.175 Y10.792 E2.01545
G1 X41.175 Y11.045 E2.01732
G1 X38.612 Y13.608 E2.04423
G1 X38.864 Y13.608 E2.04610
G1 X41.175 Y11.297 E2.07036
G1 X41.175 Y11.550 E2.07223
G1 X39.117 Y13.608 E2.09384
G1 X39.369 Y13.608 E2.09571
G1 X41.175 Y11.802 E2.11466
G1 X41.175 Y12.055 E2.11654
G1 X39.622 Y13.608 E2.13284
G1 X39.874 Y13.608 E2.13471
G1 X41.175 Y12.307 E2.14837
G1 X41.175 Y12.560 E2.15024
G1 X40.127 Y13.608 E2.16124
G1 X40.379 Y13.608 E2.16312
G1 X41.175 Y12.812 E2.17147
G1 X41.175 Y13.065 E2.17334
G1 X40.632 Y13.608 E2.17904
G1 X40.884 Y13.608 E2.18092
G1 X41.175 Y13.317 E2.18397
G1 X41.175 Y13.570 E2.18584
G1 X41.137 Y13.608 E2.18624
G4 P1
;G201 P1 X1
;G202 P1 X0
;G201 P0 X300
;G201 P0 X0

G1 Z1.800 F7800.000
G0 X10 Y10 ; Laser to park position
G4 P1
G202 P1 X0
G4 P1
G203 P1
G201 P1 X0.3
G203 P1
G4 P1000
G201 P0 X240
G201 P0 X0





G1 E1.28624 F3600.00000
G92 E0
G1 X38.153 Y13.608 F7800.000
G1 E0.90000 F3600.00000
G1 F600
G1 X38.115 Y13.570 E0.90040
G1 X38.115 Y13.317 E0.90227
G1 X38.406 Y13.608 E0.90532
G1 X38.658 Y13.608 E0.90720
G1 X38.115 Y13.065 E0.91290
G1 X38.115 Y12.812 E0.91477
G1 X38.911 Y13.608 E0.92312
G1 X39.163 Y13.608 E0.92500
G1 X38.115 Y12.560 E0.93600
G1 X38.115 Y12.307 E0.93787
G1 X39.416 Y13.608 E0.95152
G1 X39.668 Y13.608 E0.95340
G1 X38.115 Y12.055 E0.96970
G1 X38.115 Y11.802 E0.97158
G1 X39.921 Y13.608 E0.99053
G1 X40.173 Y13.608 E0.99240
G1 X38.115 Y11.550 E1.01401
G1 X38.115 Y11.297 E1.01588
G1 X40.426 Y13.608 E1.04014
G1 X40.678 Y13.608 E1.04201
G1 X38.115 Y11.045 E1.06892
G1 X38.115 Y10.792 E1.07079
G1 X40.931 Y13.608 E1.10035
G1 X41.175 Y13.599 E1.10216
G1 X38.115 Y10.540 E1.13427
G1 X38.115 Y10.287 E1.13615
G1 X41.175 Y13.347 E1.16826
G1 X41.175 Y13.094 E1.17014
G1 X38.115 Y10.035 E1.20225
G1 X38.115 Y9.782 E1.20413
G1 X41.175 Y12.842 E1.23624
G1 X41.175 Y12.589 E1.23812
G1 X38.115 Y9.530 E1.27023
G1 X38.115 Y9.277 E1.27211
G1 X41.175 Y12.337 E1.30422
G1 X41.175 Y12.084 E1.30610
G1 X38.115 Y9.025 E1.33821
G1 X38.115 Y8.772 E1.34009
G1 X41.175 Y11.832 E1.37220
G1 X41.175 Y11.579 E1.37408
G1 X38.115 Y8.520 E1.40619
G1 X38.115 Y8.267 E1.40807
G1 X41.175 Y11.327 E1.44018
G1 X41.175 Y11.074 E1.44206
G1 X38.115 Y8.015 E1.47417
G1 X38.115 Y7.762 E1.47605
G1 X41.175 Y10.822 E1.50816
G1 X41.175 Y10.569 E1.51004
G1 X38.115 Y7.510 E1.54215
G1 X38.115 Y7.257 E1.54403
G1 X41.175 Y10.317 E1.57614
G1 X41.175 Y10.064 E1.57802
G1 X38.115 Y7.005 E1.61013
G1 X38.115 Y6.752 E1.61200
G1 X41.175 Y9.812 E1.64412
G1 X41.175 Y9.559 E1.64599
G1 X38.115 Y6.500 E1.67811
G1 X38.115 Y6.247 E1.67998
G1 X41.175 Y9.307 E1.71210
G1 X41.175 Y9.054 E1.71397
G1 X38.115 Y5.995 E1.74609
G1 X38.115 Y5.742 E1.74796
G1 X41.175 Y8.802 E1.78008
G1 X41.175 Y8.549 E1.78195
G1 X38.115 Y5.490 E1.81407
G1 X38.115 Y5.237 E1.81594
G1 X41.175 Y8.297 E1.84806
G1 X41.175 Y8.044 E1.84993
G1 X38.115 Y4.985 E1.88205
G1 X38.115 Y4.732 E1.88392
G1 X41.175 Y7.792 E1.91604
G1 X41.175 Y7.539 E1.91791
G1 X38.115 Y4.480 E1.95003
G1 X38.115 Y4.227 E1.95190
G1 X41.175 Y7.287 E1.98402
G1 X41.175 Y7.034 E1.98589
G1 X38.359 Y4.219 E2.01545
G1 X38.612 Y4.219 E2.01732
G1 X41.175 Y6.782 E2.04423
G1 X41.175 Y6.529 E2.04610
G1 X38.864 Y4.219 E2.07036
G1 X39.117 Y4.219 E2.07223
G1 X41.175 Y6.277 E2.09384
G1 X41.175 Y6.024 E2.09571
G1 X39.369 Y4.219 E2.11466
G1 X39.622 Y4.219 E2.11654
G1 X41.175 Y5.772 E2.13284
G1 X41.175 Y5.519 E2.13472
G1 X39.874 Y4.219 E2.14837
G1 X40.127 Y4.219 E2.15024
G1 X41.175 Y5.267 E2.16124
G1 X41.175 Y5.014 E2.16312
G1 X40.379 Y4.219 E2.17147
G1 X40.632 Y4.219 E2.17334
G1 X41.175 Y4.762 E2.17904
G1 X41.175 Y4.509 E2.18092
G1 X40.884 Y4.219 E2.18397
G1 X41.137 Y4.219 E2.18584
G1 X41.175 Y4.257 E2.18624
G4 P1
;G201 P1 X1
;G202 P1 X0
;G201 P0 X300
;G201 P0 X0

G1 Z1.900 F7800.000
G0 X10 Y10 ; Laser to park position
G4 P1
G202 P1 X0
G4 P1
G203 P1
G201 P1 X0.3
G203 P1
G4 P1000
G201 P0 X240
G201 P0 X0





G1 E1.28624 F3600.00000
G92 E0
G1 X38.115 Y4.256 F7800.000
G1 E0.90000 F3600.00000
G1 F600
G1 X38.153 Y4.219 E0.90040
G1 X38.406 Y4.219 E0.90227
G1 X38.115 Y4.509 E0.90532
G1 X38.115 Y4.762 E0.90720
G1 X38.658 Y4.219 E0.91290
G1 X38.911 Y4.219 E0.91477
G1 X38.115 Y5.014 E0.92312
G1 X38.115 Y5.267 E0.92500
G1 X39.163 Y4.219 E0.93600
G1 X39.416 Y4.219 E0.93787
G1 X38.115 Y5.519 E0.95152
G1 X38.115 Y5.772 E0.95340
G1 X39.668 Y4.219 E0.96970
G1 X39.921 Y4.219 E0.97158
G1 X38.115 Y6.024 E0.99053
G1 X38.115 Y6.277 E0.99240
G1 X40.173 Y4.219 E1.01401
G1 X40.426 Y4.219 E1.01588
G1 X38.115 Y6.529 E1.04014
G1 X38.115 Y6.782 E1.04201
G1 X40.678 Y4.219 E1.06892
G1 X40.931 Y4.219 E1.07079
G1 X38.115 Y7.034 E1.10035
G1 X38.115 Y7.287 E1.10222
G1 X41.175 Y4.227 E1.13434
G1 X41.175 Y4.480 E1.13621
G1 X38.115 Y7.539 E1.16833
G1 X38.115 Y7.792 E1.17020
G1 X41.175 Y4.732 E1.20232
G1 X41.175 Y4.985 E1.20419
G1 X38.115 Y8.044 E1.23631
G1 X38.115 Y8.297 E1.23818
G1 X41.175 Y5.237 E1.27030
G1 X41.175 Y5.490 E1.27217
G1 X38.115 Y8.549 E1.30429
G1 X38.115 Y8.802 E1.30616
G1 X41.175 Y5.742 E1.33828
G1 X41.175 Y5.995 E1.34015
G1 X38.115 Y9.054 E1.37227
G1 X38.115 Y9.307 E1.37414
G1 X41.175 Y6.247 E1.40626
G1 X41.175 Y6.500 E1.40813
G1 X38.115 Y9.559 E1.44025
G1 X38.115 Y9.812 E1.44212
G1 X41.175 Y6.752 E1.47423
G1 X41.175 Y7.005 E1.47611
G1 X38.115 Y10.064 E1.50822
G1 X38.115 Y10.317 E1.51010
G1 X41.175 Y7.257 E1.54221
G1 X41.175 Y7.510 E1.54409
G1 X38.115 Y10.569 E1.57620
G1 X38.115 Y10.822 E1.57808
G1 X41.175 Y7.762 E1.61019
G1 X41.175 Y8.015 E1.61207
G1 X38.115 Y11.074 E1.64418
G1 X38.115 Y11.327 E1.64606
G1 X41.175 Y8.267 E1.67817
G1 X41.175 Y8.520 E1.68005
G1 X38.115 Y11.579 E1.71216
G1 X38.115 Y11.832 E1.71404
G1 X41.175 Y8.772 E1.74615
G1 X41.175 Y9.025 E1.74803
G1 X38.115 Y12.084 E1.78014
G1 X38.115 Y12.337 E1.78202
G1 X41.175 Y9.277 E1.81413
G1 X41.175 Y9.530 E1.81601
G1 X38.115 Y12.589 E1.84812
G1 X38.115 Y12.842 E1.85000
G1 X41.175 Y9.782 E1.88211
G1 X41.175 Y10.035 E1.88399
G1 X38.115 Y13.094 E1.91610
G1 X38.115 Y13.347 E1.91798
G1 X41.175 Y10.287 E1.95009
G1 X41.175 Y10.540 E1.95197
G1 X38.115 Y13.599 E1.98408
G1 X38.359 Y13.608 E1.98589
G1 X41.175 Y10.792 E2.01545
G1 X41.175 Y11.045 E2.01732
G1 X38.612 Y13.608 E2.04423
G1 X38.864 Y13.608 E2.04610
G1 X41.175 Y11.297 E2.07036
G1 X41.175 Y11.550 E2.07223
G1 X39.117 Y13.608 E2.09384
G1 X39.369 Y13.608 E2.09571
G1 X41.175 Y11.802 E2.11466
G1 X41.175 Y12.055 E2.11654
G1 X39.622 Y13.608 E2.13284
G1 X39.874 Y13.608 E2.13471
G1 X41.175 Y12.307 E2.14837
G1 X41.175 Y12.560 E2.15024
G1 X40.127 Y13.608 E2.16124
G1 X40.379 Y13.608 E2.16312
G1 X41.175 Y12.812 E2.17147
G1 X41.175 Y13.065 E2.17334
G1 X40.632 Y13.608 E2.17904
G1 X40.884 Y13.608 E2.18092
G1 X41.175 Y13.317 E2.18397
G1 X41.175 Y13.570 E2.18584
G1 X41.137 Y13.608 E2.18624
G4 P1
;G201 P1 X1
;G202 P1 X0
;G201 P0 X300
;G201 P0 X0

G1 Z2.000 F7800.000
G0 X10 Y10 ; Laser to park position
G4 P1
G202 P1 X0
G4 P1
G203 P1
G201 P1 X0.3
G203 P1
G4 P1000
G201 P0 X240
G201 P0 X0





G1 E1.28624 F3600.00000
G92 E0
G1 X38.153 Y13.608 F7800.000
G1 E0.90000 F3600.00000
G1 F600
G1 X38.115 Y13.570 E0.90040
G1 X38.115 Y13.317 E0.90227
G1 X38.406 Y13.608 E0.90532
G1 X38.658 Y13.608 E0.90720
G1 X38.115 Y13.065 E0.91290
G1 X38.115 Y12.812 E0.91477
G1 X38.911 Y13.608 E0.92312
G1 X39.163 Y13.608 E0.92500
G1 X38.115 Y12.560 E0.93600
G1 X38.115 Y12.307 E0.93787
G1 X39.416 Y13.608 E0.95152
G1 X39.668 Y13.608 E0.95340
G1 X38.115 Y12.055 E0.96970
G1 X38.115 Y11.802 E0.97158
G1 X39.921 Y13.608 E0.99053
G1 X40.173 Y13.608 E0.99240
G1 X38.115 Y11.550 E1.01401
G1 X38.115 Y11.297 E1.01588
G1 X40.426 Y13.608 E1.04014
G1 X40.678 Y13.608 E1.04201
G1 X38.115 Y11.045 E1.06892
G1 X38.115 Y10.792 E1.07079
G1 X40.931 Y13.608 E1.10035
G1 X41.175 Y13.599 E1.10216
G1 X38.115 Y10.540 E1.13427
G1 X38.115 Y10.287 E1.13615
G1 X41.175 Y13.347 E1.16826
G1 X41.175 Y13.094 E1.17014
G1 X38.115 Y10.035 E1.20225
G1 X38.115 Y9.782 E1.20413
G1 X41.175 Y12.842 E1.23624
G1 X41.175 Y12.589 E1.23812
G1 X38.115 Y9.530 E1.27023
G1 X38.115 Y9.277 E1.27211
G1 X41.175 Y12.337 E1.30422
G1 X41.175 Y12.084 E1.30610
G1 X38.115 Y9.025 E1.33821
G1 X38.115 Y8.772 E1.34009
G1 X41.175 Y11.832 E1.37220
G1 X41.175 Y11.579 E1.37408
G1 X38.115 Y8.520 E1.40619
G1 X38.115 Y8.267 E1.40807
G1 X41.175 Y11.327 E1.44018
G1 X41.175 Y11.074 E1.44206
G1 X38.115 Y8.015 E1.47417
G1 X38.115 Y7.762 E1.47605
G1 X41.175 Y10.822 E1.50816
G1 X41.175 Y10.569 E1.51004
G1 X38.115 Y7.510 E1.54215
G1 X38.115 Y7.257 E1.54403
G1 X41.175 Y10.317 E1.57614
G1 X41.175 Y10.064 E1.57802
G1 X38.115 Y7.005 E1.61013
G1 X38.115 Y6.752 E1.61200
G1 X41.175 Y9.812 E1.64412
G1 X41.175 Y9.559 E1.64599
G1 X38.115 Y6.500 E1.67811
G1 X38.115 Y6.247 E1.67998
G1 X41.175 Y9.307 E1.71210
G1 X41.175 Y9.054 E1.71397
G1 X38.115 Y5.995 E1.74609
G1 X38.115 Y5.742 E1.74796
G1 X41.175 Y8.802 E1.78008
G1 X41.175 Y8.549 E1.78195
G1 X38.115 Y5.490 E1.81407
G1 X38.115 Y5.237 E1.81594
G1 X41.175 Y8.297 E1.84806
G1 X41.175 Y8.044 E1.84993
G1 X38.115 Y4.985 E1.88205
G1 X38.115 Y4.732 E1.88392
G1 X41.175 Y7.792 E1.91604
G1 X41.175 Y7.539 E1.91791
G1 X38.115 Y4.480 E1.95003
G1 X38.115 Y4.227 E1.95190
G1 X41.175 Y7.287 E1.98402
G1 X41.175 Y7.034 E1.98589
G1 X38.359 Y4.219 E2.01545
G1 X38.612 Y4.219 E2.01732
G1 X41.175 Y6.782 E2.04423
G1 X41.175 Y6.529 E2.04610
G1 X38.864 Y4.219 E2.07036
G1 X39.117 Y4.219 E2.07223
G1 X41.175 Y6.277 E2.09384
G1 X41.175 Y6.024 E2.09571
G1 X39.369 Y4.219 E2.11466
G1 X39.622 Y4.219 E2.11654
G1 X41.175 Y5.772 E2.13284
G1 X41.175 Y5.519 E2.13472
G1 X39.874 Y4.219 E2.14837
G1 X40.127 Y4.219 E2.15024
G1 X41.175 Y5.267 E2.16124
G1 X41.175 Y5.014 E2.16312
G1 X40.379 Y4.219 E2.17147
G1 X40.632 Y4.219 E2.17334
G1 X41.175 Y4.762 E2.17904
G1 X41.175 Y4.509 E2.18092
G1 X40.884 Y4.219 E2.18397
G1 X41.137 Y4.219 E2.18584
G1 X41.175 Y4.257 E2.18624
G4 P1
;G201 P1 X1
;G202 P1 X0
;G201 P0 X300
;G201 P0 X0

G1 Z2.100 F7800.000
G0 X10 Y10 ; Laser to park position
G4 P1
G202 P1 X0
G4 P1
G203 P1
G201 P1 X0.3
G203 P1
G4 P1000
G201 P0 X240
G201 P0 X0





G1 E1.28624 F3600.00000
G92 E0
G1 X38.115 Y4.256 F7800.000
G1 E0.90000 F3600.00000
G1 F600
G1 X38.153 Y4.219 E0.90040
G1 X38.406 Y4.219 E0.90227
G1 X38.115 Y4.509 E0.90532
G1 X38.115 Y4.762 E0.90720
G1 X38.658 Y4.219 E0.91290
G1 X38.911 Y4.219 E0.91477
G1 X38.115 Y5.014 E0.92312
G1 X38.115 Y5.267 E0.92500
G1 X39.163 Y4.219 E0.93600
G1 X39.416 Y4.219 E0.93787
G1 X38.115 Y5.519 E0.95152
G1 X38.115 Y5.772 E0.95340
G1 X39.668 Y4.219 E0.96970
G1 X39.921 Y4.219 E0.97158
G1 X38.115 Y6.024 E0.99053
G1 X38.115 Y6.277 E0.99240
G1 X40.173 Y4.219 E1.01401
G1 X40.426 Y4.219 E1.01588
G1 X38.115 Y6.529 E1.04014
G1 X38.115 Y6.782 E1.04201
G1 X40.678 Y4.219 E1.06892
G1 X40.931 Y4.219 E1.07079
G1 X38.115 Y7.034 E1.10035
G1 X38.115 Y7.287 E1.10222
G1 X41.175 Y4.227 E1.13434
G1 X41.175 Y4.480 E1.13621
G1 X38.115 Y7.539 E1.16833
G1 X38.115 Y7.792 E1.17020
G1 X41.175 Y4.732 E1.20232
G1 X41.175 Y4.985 E1.20419
G1 X38.115 Y8.044 E1.23631
G1 X38.115 Y8.297 E1.23818
G1 X41.175 Y5.237 E1.27030
G1 X41.175 Y5.490 E1.27217
G1 X38.115 Y8.549 E1.30429
G1 X38.115 Y8.802 E1.30616
G1 X41.175 Y5.742 E1.33828
G1 X41.175 Y5.995 E1.34015
G1 X38.115 Y9.054 E1.37227
G1 X38.115 Y9.307 E1.37414
G1 X41.175 Y6.247 E1.40626
G1 X41.175 Y6.500 E1.40813
G1 X38.115 Y9.559 E1.44025
G1 X38.115 Y9.812 E1.44212
G1 X41.175 Y6.752 E1.47423
G1 X41.175 Y7.005 E1.47611
G1 X38.115 Y10.064 E1.50822
G1 X38.115 Y10.317 E1.51010
G1 X41.175 Y7.257 E1.54221
G1 X41.175 Y7.510 E1.54409
G1 X38.115 Y10.569 E1.57620
G1 X38.115 Y10.822 E1.57808
G1 X41.175 Y7.762 E1.61019
G1 X41.175 Y8.015 E1.61207
G1 X38.115 Y11.074 E1.64418
G1 X38.115 Y11.327 E1.64606
G1 X41.175 Y8.267 E1.67817
G1 X41.175 Y8.520 E1.68005
G1 X38.115 Y11.579 E1.71216
G1 X38.115 Y11.832 E1.71404
G1 X41.175 Y8.772 E1.74615
G1 X41.175 Y9.025 E1.74803
G1 X38.115 Y12.084 E1.78014
G1 X38.115 Y12.337 E1.78202
G1 X41.175 Y9.277 E1.81413
G1 X41.175 Y9.530 E1.81601
G1 X38.115 Y12.589 E1.84812
G1 X38.115 Y12.842 E1.85000
G1 X41.175 Y9.782 E1.88211
G1 X41.175 Y10.035 E1.88399
G1 X38.115 Y13.094 E1.91610
G1 X38.115 Y13.347 E1.91798
G1 X41.175 Y10.287 E1.95009
G1 X41.175 Y10.540 E1.95197
G1 X38.115 Y13.599 E1.98408
G1 X38.359 Y13.608 E1.98589
G1 X41.175 Y10.792 E2.01545
G1 X41.175 Y11.045 E2.01732
G1 X38.612 Y13.608 E2.04423
G1 X38.864 Y13.608 E2.04610
G1 X41.175 Y11.297 E2.07036
G1 X41.175 Y11.550 E2.07223
G1 X39.117 Y13.608 E2.09384
G1 X39.369 Y13.608 E2.09571
G1 X41.175 Y11.802 E2.11466
G1 X41.175 Y12.055 E2.11654
G1 X39.622 Y13.608 E2.13284
G1 X39.874 Y13.608 E2.13471
G1 X41.175 Y12.307 E2.14837
G1 X41.175 Y12.560 E2.15024
G1 X40.127 Y13.608 E2.16124
G1 X40.379 Y13.608 E2.16312
G1 X41.175 Y12.812 E2.17147
G1 X41.175 Y13.065 E2.17334
G1 X40.632 Y13.608 E2.17904
G1 X40.884 Y13.608 E2.18092
G1 X41.175 Y13.317 E2.18397
G1 X41.175 Y13.570 E2.18584
G1 X41.137 Y13.608 E2.18624
G4 P1
;G201 P1 X1
;G202 P1 X0
;G201 P0 X300
;G201 P0 X0

G1 Z2.200 F7800.000
G0 X10 Y10 ; Laser to park position
G4 P1
G202 P1 X0
G4 P1
G203 P1
G201 P1 X0.3
G203 P1
G4 P1000
G201 P0 X240
G201 P0 X0





G1 E1.28624 F3600.00000
G92 E0
G1 X38.153 Y13.608 F7800.000
G1 E0.90000 F3600.00000
G1 F600
G1 X38.115 Y13.570 E0.90040
G1 X38.115 Y13.317 E0.90227
G1 X38.406 Y13.608 E0.90532
G1 X38.658 Y13.608 E0.90720
G1 X38.115 Y13.065 E0.91290
G1 X38.115 Y12.812 E0.91477
G1 X38.911 Y13.608 E0.92312
G1 X39.163 Y13.608 E0.92500
G1 X38.115 Y12.560 E0.93600
G1 X38.115 Y12.307 E0.93787
G1 X39.416 Y13.608 E0.95152
G1 X39.668 Y13.608 E0.95340
G1 X38.115 Y12.055 E0.96970
G1 X38.115 Y11.802 E0.97158
G1 X39.921 Y13.608 E0.99053
G1 X40.173 Y13.608 E0.99240
G1 X38.115 Y11.550 E1.01401
G1 X38.115 Y11.297 E1.01588
G1 X40.426 Y13.608 E1.04014
G1 X40.678 Y13.608 E1.04201
G1 X38.115 Y11.045 E1.06892
G1 X38.115 Y10.792 E1.07079
G1 X40.931 Y13.608 E1.10035
G1 X41.175 Y13.599 E1.10216
G1 X38.115 Y10.540 E1.13427
G1 X38.115 Y10.287 E1.13615
G1 X41.175 Y13.347 E1.16826
G1 X41.175 Y13.094 E1.17014
G1 X38.115 Y10.035 E1.20225
G1 X38.115 Y9.782 E1.20413
G1 X41.175 Y12.842 E1.23624
G1 X41.175 Y12.589 E1.23812
G1 X38.115 Y9.530 E1.27023
G1 X38.115 Y9.277 E1.27211
G1 X41.175 Y12.337 E1.30422
G1 X41.175 Y12.084 E1.30610
G1 X38.115 Y9.025 E1.33821
G1 X38.115 Y8.772 E1.34009
G1 X41.175 Y11.832 E1.37220
G1 X41.175 Y11.579 E1.37408
G1 X38.115 Y8.520 E1.40619
G1 X38.115 Y8.267 E1.40807
G1 X41.175 Y11.327 E1.44018
G1 X41.175 Y11.074 E1.44206
G1 X38.115 Y8.015 E1.47417
G1 X38.115 Y7.762 E1.47605
G1 X41.175 Y10.822 E1.50816
G1 X41.175 Y10.569 E1.51004
G1 X38.115 Y7.510 E1.54215
G1 X38.115 Y7.257 E1.54403
G1 X41.175 Y10.317 E1.57614
G1 X41.175 Y10.064 E1.57802
G1 X38.115 Y7.005 E1.61013
G1 X38.115 Y6.752 E1.61200
G1 X41.175 Y9.812 E1.64412
G1 X41.175 Y9.559 E1.64599
G1 X38.115 Y6.500 E1.67811
G1 X38.115 Y6.247 E1.67998
G1 X41.175 Y9.307 E1.71210
G1 X41.175 Y9.054 E1.71397
G1 X38.115 Y5.995 E1.74609
G1 X38.115 Y5.742 E1.74796
G1 X41.175 Y8.802 E1.78008
G1 X41.175 Y8.549 E1.78195
G1 X38.115 Y5.490 E1.81407
G1 X38.115 Y5.237 E1.81594
G1 X41.175 Y8.297 E1.84806
G1 X41.175 Y8.044 E1.84993
G1 X38.115 Y4.985 E1.88205
G1 X38.115 Y4.732 E1.88392
G1 X41.175 Y7.792 E1.91604
G1 X41.175 Y7.539 E1.91791
G1 X38.115 Y4.480 E1.95003
G1 X38.115 Y4.227 E1.95190
G1 X41.175 Y7.287 E1.98402
G1 X41.175 Y7.034 E1.98589
G1 X38.359 Y4.219 E2.01545
G1 X38.612 Y4.219 E2.01732
G1 X41.175 Y6.782 E2.04423
G1 X41.175 Y6.529 E2.04610
G1 X38.864 Y4.219 E2.07036
G1 X39.117 Y4.219 E2.07223
G1 X41.175 Y6.277 E2.09384
G1 X41.175 Y6.024 E2.09571
G1 X39.369 Y4.219 E2.11466
G1 X39.622 Y4.219 E2.11654
G1 X41.175 Y5.772 E2.13284
G1 X41.175 Y5.519 E2.13472
G1 X39.874 Y4.219 E2.14837
G1 X40.127 Y4.219 E2.15024
G1 X41.175 Y5.267 E2.16124
G1 X41.175 Y5.014 E2.16312
G1 X40.379 Y4.219 E2.17147
G1 X40.632 Y4.219 E2.17334
G1 X41.175 Y4.762 E2.17904
G1 X41.175 Y4.509 E2.18092
G1 X40.884 Y4.219 E2.18397
G1 X41.137 Y4.219 E2.18584
G1 X41.175 Y4.257 E2.18624
G4 P1
;G201 P1 X1
;G202 P1 X0
;G201 P0 X300
;G201 P0 X0

G1 Z2.300 F7800.000
G0 X10 Y10 ; Laser to park position
G4 P1
G202 P1 X0
G4 P1
G203 P1
G201 P1 X0.3
G203 P1
G4 P1000
G201 P0 X240
G201 P0 X0





G1 E1.28624 F3600.00000
G92 E0
G1 X38.115 Y4.256 F7800.000
G1 E0.90000 F3600.00000
G1 F600
G1 X38.153 Y4.219 E0.90040
G1 X38.406 Y4.219 E0.90227
G1 X38.115 Y4.509 E0.90532
G1 X38.115 Y4.762 E0.90720
G1 X38.658 Y4.219 E0.91290
G1 X38.911 Y4.219 E0.91477
G1 X38.115 Y5.014 E0.92312
G1 X38.115 Y5.267 E0.92500
G1 X39.163 Y4.219 E0.93600
G1 X39.416 Y4.219 E0.93787
G1 X38.115 Y5.519 E0.95152
G1 X38.115 Y5.772 E0.95340
G1 X39.668 Y4.219 E0.96970
G1 X39.921 Y4.219 E0.97158
G1 X38.115 Y6.024 E0.99053
G1 X38.115 Y6.277 E0.99240
G1 X40.173 Y4.219 E1.01401
G1 X40.426 Y4.219 E1.01588
G1 X38.115 Y6.529 E1.04014
G1 X38.115 Y6.782 E1.04201
G1 X40.678 Y4.219 E1.06892
G1 X40.931 Y4.219 E1.07079
G1 X38.115 Y7.034 E1.10035
G1 X38.115 Y7.287 E1.10222
G1 X41.175 Y4.227 E1.13434
G1 X41.175 Y4.480 E1.13621
G1 X38.115 Y7.539 E1.16833
G1 X38.115 Y7.792 E1.17020
G1 X41.175 Y4.732 E1.20232
G1 X41.175 Y4.985 E1.20419
G1 X38.115 Y8.044 E1.23631
G1 X38.115 Y8.297 E1.23818
G1 X41.175 Y5.237 E1.27030
G1 X41.175 Y5.490 E1.27217
G1 X38.115 Y8.549 E1.30429
G1 X38.115 Y8.802 E1.30616
G1 X41.175 Y5.742 E1.33828
G1 X41.175 Y5.995 E1.34015
G1 X38.115 Y9.054 E1.37227
G1 X38.115 Y9.307 E1.37414
G1 X41.175 Y6.247 E1.40626
G1 X41.175 Y6.500 E1.40813
G1 X38.115 Y9.559 E1.44025
G1 X38.115 Y9.812 E1.44212
G1 X41.175 Y6.752 E1.47423
G1 X41.175 Y7.005 E1.47611
G1 X38.115 Y10.064 E1.50822
G1 X38.115 Y10.317 E1.51010
G1 X41.175 Y7.257 E1.54221
G1 X41.175 Y7.510 E1.54409
G1 X38.115 Y10.569 E1.57620
G1 X38.115 Y10.822 E1.57808
G1 X41.175 Y7.762 E1.61019
G1 X41.175 Y8.015 E1.61207
G1 X38.115 Y11.074 E1.64418
G1 X38.115 Y11.327 E1.64606
G1 X41.175 Y8.267 E1.67817
G1 X41.175 Y8.520 E1.68005
G1 X38.115 Y11.579 E1.71216
G1 X38.115 Y11.832 E1.71404
G1 X41.175 Y8.772 E1.74615
G1 X41.175 Y9.025 E1.74803
G1 X38.115 Y12.084 E1.78014
G1 X38.115 Y12.337 E1.78202
G1 X41.175 Y9.277 E1.81413
G1 X41.175 Y9.530 E1.81601
G1 X38.115 Y12.589 E1.84812
G1 X38.115 Y12.842 E1.85000
G1 X41.175 Y9.782 E1.88211
G1 X41.175 Y10.035 E1.88399
G1 X38.115 Y13.094 E1.91610
G1 X38.115 Y13.347 E1.91798
G1 X41.175 Y10.287 E1.95009
G1 X41.175 Y10.540 E1.95197
G1 X38.115 Y13.599 E1.98408
G1 X38.359 Y13.608 E1.98589
G1 X41.175 Y10.792 E2.01545
G1 X41.175 Y11.045 E2.01732
G1 X38.612 Y13.608 E2.04423
G1 X38.864 Y13.608 E2.04610
G1 X41.175 Y11.297 E2.07036
G1 X41.175 Y11.550 E2.07223
G1 X39.117 Y13.608 E2.09384
G1 X39.369 Y13.608 E2.09571
G1 X41.175 Y11.802 E2.11466
G1 X41.175 Y12.055 E2.11654
G1 X39.622 Y13.608 E2.13284
G1 X39.874 Y13.608 E2.13471
G1 X41.175 Y12.307 E2.14837
G1 X41.175 Y12.560 E2.15024
G1 X40.127 Y13.608 E2.16124
G1 X40.379 Y13.608 E2.16312
G1 X41.175 Y12.812 E2.17147
G1 X41.175 Y13.065 E2.17334
G1 X40.632 Y13.608 E2.17904
G1 X40.884 Y13.608 E2.18092
G1 X41.175 Y13.317 E2.18397
G1 X41.175 Y13.570 E2.18584
G1 X41.137 Y13.608 E2.18624
G4 P1
;G201 P1 X1
;G202 P1 X0
;G201 P0 X300
;G201 P0 X0

G1 Z2.400 F7800.000
G0 X10 Y10 ; Laser to park position
G4 P1
G202 P1 X0
G4 P1
G203 P1
G201 P1 X0.3
G203 P1
G4 P1000
G201 P0 X240
G201 P0 X0





G1 E1.28624 F3600.00000
G92 E0
G1 X38.153 Y13.608 F7800.000
G1 E0.90000 F3600.00000
G1 F600
G1 X38.115 Y13.570 E0.90040
G1 X38.115 Y13.317 E0.90227
G1 X38.406 Y13.608 E0.90532
G1 X38.658 Y13.608 E0.90720
G1 X38.115 Y13.065 E0.91290
G1 X38.115 Y12.812 E0.91477
G1 X38.911 Y13.608 E0.92312
G1 X39.163 Y13.608 E0.92500
G1 X38.115 Y12.560 E0.93600
G1 X38.115 Y12.307 E0.93787
G1 X39.416 Y13.608 E0.95152
G1 X39.668 Y13.608 E0.95340
G1 X38.115 Y12.055 E0.96970
G1 X38.115 Y11.802 E0.97158
G1 X39.921 Y13.608 E0.99053
G1 X40.173 Y13.608 E0.99240
G1 X38.115 Y11.550 E1.01401
G1 X38.115 Y11.297 E1.01588
G1 X40.426 Y13.608 E1.04014
G1 X40.678 Y13.608 E1.04201
G1 X38.115 Y11.045 E1.06892
G1 X38.115 Y10.792 E1.07079
G1 X40.931 Y13.608 E1.10035
G1 X41.175 Y13.599 E1.10216
G1 X38.115 Y10.540 E1.13427
G1 X38.115 Y10.287 E1.13615
G1 X41.175 Y13.347 E1.16826
G1 X41.175 Y13.094 E1.17014
G1 X38.115 Y10.035 E1.20225
G1 X38.115 Y9.782 E1.20413
G1 X41.175 Y12.842 E1.23624
G1 X41.175 Y12.589 E1.23812
G1 X38.115 Y9.530 E1.27023
G1 X38.115 Y9.277 E1.27211
G1 X41.175 Y12.337 E1.30422
G1 X41.175 Y12.084 E1.30610
G1 X38.115 Y9.025 E1.33821
G1 X38.115 Y8.772 E1.34009
G1 X41.175 Y11.832 E1.37220
G1 X41.175 Y11.579 E1.37408
G1 X38.115 Y8.520 E1.40619
G1 X38.115 Y8.267 E1.40807
G1 X41.175 Y11.327 E1.44018
G1 X41.175 Y11.074 E1.44206
G1 X38.115 Y8.015 E1.47417
G1 X38.115 Y7.762 E1.47605
G1 X41.175 Y10.822 E1.50816
G1 X41.175 Y10.569 E1.51004
G1 X38.115 Y7.510 E1.54215
G1 X38.115 Y7.257 E1.54403
G1 X41.175 Y10.317 E1.57614
G1 X41.175 Y10.064 E1.57802
G1 X38.115 Y7.005 E1.61013
G1 X38.115 Y6.752 E1.61200
G1 X41.175 Y9.812 E1.64412
G1 X41.175 Y9.559 E1.64599
G1 X38.115 Y6.500 E1.67811
G1 X38.115 Y6.247 E1.67998
G1 X41.175 Y9.307 E1.71210
G1 X41.175 Y9.054 E1.71397
G1 X38.115 Y5.995 E1.74609
G1 X38.115 Y5.742 E1.74796
G1 X41.175 Y8.802 E1.78008
G1 X41.175 Y8.549 E1.78195
G1 X38.115 Y5.490 E1.81407
G1 X38.115 Y5.237 E1.81594
G1 X41.175 Y8.297 E1.84806
G1 X41.175 Y8.044 E1.84993
G1 X38.115 Y4.985 E1.88205
G1 X38.115 Y4.732 E1.88392
G1 X41.175 Y7.792 E1.91604
G1 X41.175 Y7.539 E1.91791
G1 X38.115 Y4.480 E1.95003
G1 X38.115 Y4.227 E1.95190
G1 X41.175 Y7.287 E1.98402
G1 X41.175 Y7.034 E1.98589
G1 X38.359 Y4.219 E2.01545
G1 X38.612 Y4.219 E2.01732
G1 X41.175 Y6.782 E2.04423
G1 X41.175 Y6.529 E2.04610
G1 X38.864 Y4.219 E2.07036
G1 X39.117 Y4.219 E2.07223
G1 X41.175 Y6.277 E2.09384
G1 X41.175 Y6.024 E2.09571
G1 X39.369 Y4.219 E2.11466
G1 X39.622 Y4.219 E2.11654
G1 X41.175 Y5.772 E2.13284
G1 X41.175 Y5.519 E2.13472
G1 X39.874 Y4.219 E2.14837
G1 X40.127 Y4.219 E2.15024
G1 X41.175 Y5.267 E2.16124
G1 X41.175 Y5.014 E2.16312
G1 X40.379 Y4.219 E2.17147
G1 X40.632 Y4.219 E2.17334
G1 X41.175 Y4.762 E2.17904
G1 X41.175 Y4.509 E2.18092
G1 X40.884 Y4.219 E2.18397
G1 X41.137 Y4.219 E2.18584
G1 X41.175 Y4.257 E2.18624
G4 P1
;G201 P1 X1
;G202 P1 X0
;G201 P0 X300
;G201 P0 X0

G1 Z2.500 F7800.000
G0 X10 Y10 ; Laser to park position
G4 P1
G202 P1 X0
G4 P1
G203 P1
G201 P1 X0.3
G203 P1
G4 P1000
G201 P0 X240
G201 P0 X0





G1 E1.28624 F3600.00000
G92 E0
G1 X38.115 Y4.256 F7800.000
G1 E0.90000 F3600.00000
G1 F600
G1 X38.153 Y4.219 E0.90040
G1 X38.406 Y4.219 E0.90227
G1 X38.115 Y4.509 E0.90532
G1 X38.115 Y4.762 E0.90720
G1 X38.658 Y4.219 E0.91290
G1 X38.911 Y4.219 E0.91477
G1 X38.115 Y5.014 E0.92312
G1 X38.115 Y5.267 E0.92500
G1 X39.163 Y4.219 E0.93600
G1 X39.416 Y4.219 E0.93787
G1 X38.115 Y5.519 E0.95152
G1 X38.115 Y5.772 E0.95340
G1 X39.668 Y4.219 E0.96970
G1 X39.921 Y4.219 E0.97158
G1 X38.115 Y6.024 E0.99053
G1 X38.115 Y6.277 E0.99240
G1 X40.173 Y4.219 E1.01401
G1 X40.426 Y4.219 E1.01588
G1 X38.115 Y6.529 E1.04014
G1 X38.115 Y6.782 E1.04201
G1 X40.678 Y4.219 E1.06892
G1 X40.931 Y4.219 E1.07079
G1 X38.115 Y7.034 E1.10035
G1 X38.115 Y7.287 E1.10222
G1 X41.175 Y4.227 E1.13434
G1 X41.175 Y4.480 E1.13621
G1 X38.115 Y7.539 E1.16833
G1 X38.115 Y7.792 E1.17020
G1 X41.175 Y4.732 E1.20232
G1 X41.175 Y4.985 E1.20419
G1 X38.115 Y8.044 E1.23631
G1 X38.115 Y8.297 E1.23818
G1 X41.175 Y5.237 E1.27030
G1 X41.175 Y5.490 E1.27217
G1 X38.115 Y8.549 E1.30429
G1 X38.115 Y8.802 E1.30616
G1 X41.175 Y5.742 E1.33828
G1 X41.175 Y5.995 E1.34015
G1 X38.115 Y9.054 E1.37227
G1 X38.115 Y9.307 E1.37414
G1 X41.175 Y6.247 E1.40626
G1 X41.175 Y6.500 E1.40813
G1 X38.115 Y9.559 E1.44025
G1 X38.115 Y9.812 E1.44212
G1 X41.175 Y6.752 E1.47423
G1 X41.175 Y7.005 E1.47611
G1 X38.115 Y10.064 E1.50822
G1 X38.115 Y10.317 E1.51010
G1 X41.175 Y7.257 E1.54221
G1 X41.175 Y7.510 E1.54409
G1 X38.115 Y10.569 E1.57620
G1 X38.115 Y10.822 E1.57808
G1 X41.175 Y7.762 E1.61019
G1 X41.175 Y8.015 E1.61207
G1 X38.115 Y11.074 E1.64418
G1 X38.115 Y11.327 E1.64606
G1 X41.175 Y8.267 E1.67817
G1 X41.175 Y8.520 E1.68005
G1 X38.115 Y11.579 E1.71216
G1 X38.115 Y11.832 E1.71404
G1 X41.175 Y8.772 E1.74615
G1 X41.175 Y9.025 E1.74803
G1 X38.115 Y12.084 E1.78014
G1 X38.115 Y12.337 E1.78202
G1 X41.175 Y9.277 E1.81413
G1 X41.175 Y9.530 E1.81601
G1 X38.115 Y12.589 E1.84812
G1 X38.115 Y12.842 E1.85000
G1 X41.175 Y9.782 E1.88211
G1 X41.175 Y10.035 E1.88399
G1 X38.115 Y13.094 E1.91610
G1 X38.115 Y13.347 E1.91798
G1 X41.175 Y10.287 E1.95009
G1 X41.175 Y10.540 E1.95197
G1 X38.115 Y13.599 E1.98408
G1 X38.359 Y13.608 E1.98589
G1 X41.175 Y10.792 E2.01545
G1 X41.175 Y11.045 E2.01732
G1 X38.612 Y13.608 E2.04423
G1 X38.864 Y13.608 E2.04610
G1 X41.175 Y11.297 E2.07036
G1 X41.175 Y11.550 E2.07223
G1 X39.117 Y13.608 E2.09384
G1 X39.369 Y13.608 E2.09571
G1 X41.175 Y11.802 E2.11466
G1 X41.175 Y12.055 E2.11654
G1 X39.622 Y13.608 E2.13284
G1 X39.874 Y13.608 E2.13471
G1 X41.175 Y12.307 E2.14837
G1 X41.175 Y12.560 E2.15024
G1 X40.127 Y13.608 E2.16124
G1 X40.379 Y13.608 E2.16312
G1 X41.175 Y12.812 E2.17147
G1 X41.175 Y13.065 E2.17334
G1 X40.632 Y13.608 E2.17904
G1 X40.884 Y13.608 E2.18092
G1 X41.175 Y13.317 E2.18397
G1 X41.175 Y13.570 E2.18584
G1 X41.137 Y13.608 E2.18624
G4 P1
;G201 P1 X1
;G202 P1 X0
;G201 P0 X300
;G201 P0 X0

G1 Z2.600 F7800.000
G0 X10 Y10 ; Laser to park position
G4 P1
G202 P1 X0
G4 P1
G203 P1
G201 P1 X0.3
G203 P1
G4 P1000
G201 P0 X240
G201 P0 X0





G1 E1.28624 F3600.00000
G92 E0
G1 X38.153 Y13.608 F7800.000
G1 E0.90000 F3600.00000
G1 F600
G1 X38.115 Y13.570 E0.90040
G1 X38.115 Y13.317 E0.90227
G1 X38.406 Y13.608 E0.90532
G1 X38.658 Y13.608 E0.90720
G1 X38.115 Y13.065 E0.91290
G1 X38.115 Y12.812 E0.91477
G1 X38.911 Y13.608 E0.92312
G1 X39.163 Y13.608 E0.92500
G1 X38.115 Y12.560 E0.93600
G1 X38.115 Y12.307 E0.93787
G1 X39.416 Y13.608 E0.95152
G1 X39.668 Y13.608 E0.95340
G1 X38.115 Y12.055 E0.96970
G1 X38.115 Y11.802 E0.97158
G1 X39.921 Y13.608 E0.99053
G1 X40.173 Y13.608 E0.99240
G1 X38.115 Y11.550 E1.01401
G1 X38.115 Y11.297 E1.01588
G1 X40.426 Y13.608 E1.04014
G1 X40.678 Y13.608 E1.04201
G1 X38.115 Y11.045 E1.06892
G1 X38.115 Y10.792 E1.07079
G1 X40.931 Y13.608 E1.10035
G1 X41.175 Y13.599 E1.10216
G1 X38.115 Y10.540 E1.13427
G1 X38.115 Y10.287 E1.13615
G1 X41.175 Y13.347 E1.16826
G1 X41.175 Y13.094 E1.17014
G1 X38.115 Y10.035 E1.20225
G1 X38.115 Y9.782 E1.20413
G1 X41.175 Y12.842 E1.23624
G1 X41.175 Y12.589 E1.23812
G1 X38.115 Y9.530 E1.27023
G1 X38.115 Y9.277 E1.27211
G1 X41.175 Y12.337 E1.30422
G1 X41.175 Y12.084 E1.30610
G1 X38.115 Y9.025 E1.33821
G1 X38.115 Y8.772 E1.34009
G1 X41.175 Y11.832 E1.37220
G1 X41.175 Y11.579 E1.37408
G1 X38.115 Y8.520 E1.40619
G1 X38.115 Y8.267 E1.40807
G1 X41.175 Y11.327 E1.44018
G1 X41.175 Y11.074 E1.44206
G1 X38.115 Y8.015 E1.47417
G1 X38.115 Y7.762 E1.47605
G1 X41.175 Y10.822 E1.50816
G1 X41.175 Y10.569 E1.51004
G1 X38.115 Y7.510 E1.54215
G1 X38.115 Y7.257 E1.54403
G1 X41.175 Y10.317 E1.57614
G1 X41.175 Y10.064 E1.57802
G1 X38.115 Y7.005 E1.61013
G1 X38.115 Y6.752 E1.61200
G1 X41.175 Y9.812 E1.64412
G1 X41.175 Y9.559 E1.64599
G1 X38.115 Y6.500 E1.67811
G1 X38.115 Y6.247 E1.67998
G1 X41.175 Y9.307 E1.71210
G1 X41.175 Y9.054 E1.71397
G1 X38.115 Y5.995 E1.74609
G1 X38.115 Y5.742 E1.74796
G1 X41.175 Y8.802 E1.78008
G1 X41.175 Y8.549 E1.78195
G1 X38.115 Y5.490 E1.81407
G1 X38.115 Y5.237 E1.81594
G1 X41.175 Y8.297 E1.84806
G1 X41.175 Y8.044 E1.84993
G1 X38.115 Y4.985 E1.88205
G1 X38.115 Y4.732 E1.88392
G1 X41.175 Y7.792 E1.91604
G1 X41.175 Y7.539 E1.91791
G1 X38.115 Y4.480 E1.95003
G1 X38.115 Y4.227 E1.95190
G1 X41.175 Y7.287 E1.98402
G1 X41.175 Y7.034 E1.98589
G1 X38.359 Y4.219 E2.01545
G1 X38.612 Y4.219 E2.01732
G1 X41.175 Y6.782 E2.04423
G1 X41.175 Y6.529 E2.04610
G1 X38.864 Y4.219 E2.07036
G1 X39.117 Y4.219 E2.07223
G1 X41.175 Y6.277 E2.09384
G1 X41.175 Y6.024 E2.09571
G1 X39.369 Y4.219 E2.11466
G1 X39.622 Y4.219 E2.11654
G1 X41.175 Y5.772 E2.13284
G1 X41.175 Y5.519 E2.13472
G1 X39.874 Y4.219 E2.14837
G1 X40.127 Y4.219 E2.15024
G1 X41.175 Y5.267 E2.16124
G1 X41.175 Y5.014 E2.16312
G1 X40.379 Y4.219 E2.17147
G1 X40.632 Y4.219 E2.17334
G1 X41.175 Y4.762 E2.17904
G1 X41.175 Y4.509 E2.18092
G1 X40.884 Y4.219 E2.18397
G1 X41.137 Y4.219 E2.18584
G1 X41.175 Y4.257 E2.18624
G4 P1
;G201 P1 X1
;G202 P1 X0
;G201 P0 X300
;G201 P0 X0

G1 Z2.700 F7800.000
G0 X10 Y10 ; Laser to park position
G4 P1
G202 P1 X0
G4 P1
G203 P1
G201 P1 X0.3
G203 P1
G4 P1000
G201 P0 X240
G201 P0 X0





G1 E1.28624 F3600.00000
G92 E0
G1 X38.115 Y4.256 F7800.000
G1 E0.90000 F3600.00000
G1 F600
G1 X38.153 Y4.219 E0.90040
G1 X38.406 Y4.219 E0.90227
G1 X38.115 Y4.509 E0.90532
G1 X38.115 Y4.762 E0.90720
G1 X38.658 Y4.219 E0.91290
G1 X38.911 Y4.219 E0.91477
G1 X38.115 Y5.014 E0.92312
G1 X38.115 Y5.267 E0.92500
G1 X39.163 Y4.219 E0.93600
G1 X39.416 Y4.219 E0.93787
G1 X38.115 Y5.519 E0.95152
G1 X38.115 Y5.772 E0.95340
G1 X39.668 Y4.219 E0.96970
G1 X39.921 Y4.219 E0.97158
G1 X38.115 Y6.024 E0.99053
G1 X38.115 Y6.277 E0.99240
G1 X40.173 Y4.219 E1.01401
G1 X40.426 Y4.219 E1.01588
G1 X38.115 Y6.529 E1.04014
G1 X38.115 Y6.782 E1.04201
G1 X40.678 Y4.219 E1.06892
G1 X40.931 Y4.219 E1.07079
G1 X38.115 Y7.034 E1.10035
G1 X38.115 Y7.287 E1.10222
G1 X41.175 Y4.227 E1.13434
G1 X41.175 Y4.480 E1.13621
G1 X38.115 Y7.539 E1.16833
G1 X38.115 Y7.792 E1.17020
G1 X41.175 Y4.732 E1.20232
G1 X41.175 Y4.985 E1.20419
G1 X38.115 Y8.044 E1.23631
G1 X38.115 Y8.297 E1.23818
G1 X41.175 Y5.237 E1.27030
G1 X41.175 Y5.490 E1.27217
G1 X38.115 Y8.549 E1.30429
G1 X38.115 Y8.802 E1.30616
G1 X41.175 Y5.742 E1.33828
G1 X41.175 Y5.995 E1.34015
G1 X38.115 Y9.054 E1.37227
G1 X38.115 Y9.307 E1.37414
G1 X41.175 Y6.247 E1.40626
G1 X41.175 Y6.500 E1.40813
G1 X38.115 Y9.559 E1.44025
G1 X38.115 Y9.812 E1.44212
G1 X41.175 Y6.752 E1.47423
G1 X41.175 Y7.005 E1.47611
G1 X38.115 Y10.064 E1.50822
G1 X38.115 Y10.317 E1.51010
G1 X41.175 Y7.257 E1.54221
G1 X41.175 Y7.510 E1.54409
G1 X38.115 Y10.569 E1.57620
G1 X38.115 Y10.822 E1.57808
G1 X41.175 Y7.762 E1.61019
G1 X41.175 Y8.015 E1.61207
G1 X38.115 Y11.074 E1.64418
G1 X38.115 Y11.327 E1.64606
G1 X41.175 Y8.267 E1.67817
G1 X41.175 Y8.520 E1.68005
G1 X38.115 Y11.579 E1.71216
G1 X38.115 Y11.832 E1.71404
G1 X41.175 Y8.772 E1.74615
G1 X41.175 Y9.025 E1.74803
G1 X38.115 Y12.084 E1.78014
G1 X38.115 Y12.337 E1.78202
G1 X41.175 Y9.277 E1.81413
G1 X41.175 Y9.530 E1.81601
G1 X38.115 Y12.589 E1.84812
G1 X38.115 Y12.842 E1.85000
G1 X41.175 Y9.782 E1.88211
G1 X41.175 Y10.035 E1.88399
G1 X38.115 Y13.094 E1.91610
G1 X38.115 Y13.347 E1.91798
G1 X41.175 Y10.287 E1.95009
G1 X41.175 Y10.540 E1.95197
G1 X38.115 Y13.599 E1.98408
G1 X38.359 Y13.608 E1.98589
G1 X41.175 Y10.792 E2.01545
G1 X41.175 Y11.045 E2.01732
G1 X38.612 Y13.608 E2.04423
G1 X38.864 Y13.608 E2.04610
G1 X41.175 Y11.297 E2.07036
G1 X41.175 Y11.550 E2.07223
G1 X39.117 Y13.608 E2.09384
G1 X39.369 Y13.608 E2.09571
G1 X41.175 Y11.802 E2.11466
G1 X41.175 Y12.055 E2.11654
G1 X39.622 Y13.608 E2.13284
G1 X39.874 Y13.608 E2.13471
G1 X41.175 Y12.307 E2.14837
G1 X41.175 Y12.560 E2.15024
G1 X40.127 Y13.608 E2.16124
G1 X40.379 Y13.608 E2.16312
G1 X41.175 Y12.812 E2.17147
G1 X41.175 Y13.065 E2.17334
G1 X40.632 Y13.608 E2.17904
G1 X40.884 Y13.608 E2.18092
G1 X41.175 Y13.317 E2.18397
G1 X41.175 Y13.570 E2.18584
G1 X41.137 Y13.608 E2.18624
G4 P1
;G201 P1 X1
;G202 P1 X0
;G201 P0 X300
;G201 P0 X0

G1 Z2.800 F7800.000
G0 X10 Y10 ; Laser to park position
G4 P1
G202 P1 X0
G4 P1
G203 P1
G201 P1 X0.3
G203 P1
G4 P1000
G201 P0 X240
G201 P0 X0





G1 E1.28624 F3600.00000
G92 E0
G1 X38.153 Y13.608 F7800.000
G1 E0.90000 F3600.00000
G1 F600
G1 X38.115 Y13.570 E0.90040
G1 X38.115 Y13.317 E0.90227
G1 X38.406 Y13.608 E0.90532
G1 X38.658 Y13.608 E0.90720
G1 X38.115 Y13.065 E0.91290
G1 X38.115 Y12.812 E0.91477
G1 X38.911 Y13.608 E0.92312
G1 X39.163 Y13.608 E0.92500
G1 X38.115 Y12.560 E0.93600
G1 X38.115 Y12.307 E0.93787
G1 X39.416 Y13.608 E0.95152
G1 X39.668 Y13.608 E0.95340
G1 X38.115 Y12.055 E0.96970
G1 X38.115 Y11.802 E0.97158
G1 X39.921 Y13.608 E0.99053
G1 X40.173 Y13.608 E0.99240
G1 X38.115 Y11.550 E1.01401
G1 X38.115 Y11.297 E1.01588
G1 X40.426 Y13.608 E1.04014
G1 X40.678 Y13.608 E1.04201
G1 X38.115 Y11.045 E1.06892
G1 X38.115 Y10.792 E1.07079
G1 X40.931 Y13.608 E1.10035
G1 X41.175 Y13.599 E1.10216
G1 X38.115 Y10.540 E1.13427
G1 X38.115 Y10.287 E1.13615
G1 X41.175 Y13.347 E1.16826
G1 X41.175 Y13.094 E1.17014
G1 X38.115 Y10.035 E1.20225
G1 X38.115 Y9.782 E1.20413
G1 X41.175 Y12.842 E1.23624
G1 X41.175 Y12.589 E1.23812
G1 X38.115 Y9.530 E1.27023
G1 X38.115 Y9.277 E1.27211
G1 X41.175 Y12.337 E1.30422
G1 X41.175 Y12.084 E1.30610
G1 X38.115 Y9.025 E1.33821
G1 X38.115 Y8.772 E1.34009
G1 X41.175 Y11.832 E1.37220
G1 X41.175 Y11.579 E1.37408
G1 X38.115 Y8.520 E1.40619
G1 X38.115 Y8.267 E1.40807
G1 X41.175 Y11.327 E1.44018
G1 X41.175 Y11.074 E1.44206
G1 X38.115 Y8.015 E1.47417
G1 X38.115 Y7.762 E1.47605
G1 X41.175 Y10.822 E1.50816
G1 X41.175 Y10.569 E1.51004
G1 X38.115 Y7.510 E1.54215
G1 X38.115 Y7.257 E1.54403
G1 X41.175 Y10.317 E1.57614
G1 X41.175 Y10.064 E1.57802
G1 X38.115 Y7.005 E1.61013
G1 X38.115 Y6.752 E1.61200
G1 X41.175 Y9.812 E1.64412
G1 X41.175 Y9.559 E1.64599
G1 X38.115 Y6.500 E1.67811
G1 X38.115 Y6.247 E1.67998
G1 X41.175 Y9.307 E1.71210
G1 X41.175 Y9.054 E1.71397
G1 X38.115 Y5.995 E1.74609
G1 X38.115 Y5.742 E1.74796
G1 X41.175 Y8.802 E1.78008
G1 X41.175 Y8.549 E1.78195
G1 X38.115 Y5.490 E1.81407
G1 X38.115 Y5.237 E1.81594
G1 X41.175 Y8.297 E1.84806
G1 X41.175 Y8.044 E1.84993
G1 X38.115 Y4.985 E1.88205
G1 X38.115 Y4.732 E1.88392
G1 X41.175 Y7.792 E1.91604
G1 X41.175 Y7.539 E1.91791
G1 X38.115 Y4.480 E1.95003
G1 X38.115 Y4.227 E1.95190
G1 X41.175 Y7.287 E1.98402
G1 X41.175 Y7.034 E1.98589
G1 X38.359 Y4.219 E2.01545
G1 X38.612 Y4.219 E2.01732
G1 X41.175 Y6.782 E2.04423
G1 X41.175 Y6.529 E2.04610
G1 X38.864 Y4.219 E2.07036
G1 X39.117 Y4.219 E2.07223
G1 X41.175 Y6.277 E2.09384
G1 X41.175 Y6.024 E2.09571
G1 X39.369 Y4.219 E2.11466
G1 X39.622 Y4.219 E2.11654
G1 X41.175 Y5.772 E2.13284
G1 X41.175 Y5.519 E2.13472
G1 X39.874 Y4.219 E2.14837
G1 X40.127 Y4.219 E2.15024
G1 X41.175 Y5.267 E2.16124
G1 X41.175 Y5.014 E2.16312
G1 X40.379 Y4.219 E2.17147
G1 X40.632 Y4.219 E2.17334
G1 X41.175 Y4.762 E2.17904
G1 X41.175 Y4.509 E2.18092
G1 X40.884 Y4.219 E2.18397
G1 X41.137 Y4.219 E2.18584
G1 X41.175 Y4.257 E2.18624
G4 P1
;G201 P1 X1
;G202 P1 X0
;G201 P0 X300
;G201 P0 X0

G1 Z2.900 F7800.000
G0 X10 Y10 ; Laser to park position
G4 P1
G202 P1 X0
G4 P1
G203 P1
G201 P1 X0.3
G203 P1
G4 P1000
G201 P0 X240
G201 P0 X0





G1 E1.28624 F3600.00000
G92 E0
G1 X38.115 Y4.256 F7800.000
G1 E0.90000 F3600.00000
G1 F600
G1 X38.153 Y4.219 E0.90040
G1 X38.406 Y4.219 E0.90227
G1 X38.115 Y4.509 E0.90532
G1 X38.115 Y4.762 E0.90720
G1 X38.658 Y4.219 E0.91290
G1 X38.911 Y4.219 E0.91477
G1 X38.115 Y5.014 E0.92312
G1 X38.115 Y5.267 E0.92500
G1 X39.163 Y4.219 E0.93600
G1 X39.416 Y4.219 E0.93787
G1 X38.115 Y5.519 E0.95152
G1 X38.115 Y5.772 E0.95340
G1 X39.668 Y4.219 E0.96970
G1 X39.921 Y4.219 E0.97158
G1 X38.115 Y6.024 E0.99053
G1 X38.115 Y6.277 E0.99240
G1 X40.173 Y4.219 E1.01401
G1 X40.426 Y4.219 E1.01588
G1 X38.115 Y6.529 E1.04014
G1 X38.115 Y6.782 E1.04201
G1 X40.678 Y4.219 E1.06892
G1 X40.931 Y4.219 E1.07079
G1 X38.115 Y7.034 E1.10035
G1 X38.115 Y7.287 E1.10222
G1 X41.175 Y4.227 E1.13434
G1 X41.175 Y4.480 E1.13621
G1 X38.115 Y7.539 E1.16833
G1 X38.115 Y7.792 E1.17020
G1 X41.175 Y4.732 E1.20232
G1 X41.175 Y4.985 E1.20419
G1 X38.115 Y8.044 E1.23631
G1 X38.115 Y8.297 E1.23818
G1 X41.175 Y5.237 E1.27030
G1 X41.175 Y5.490 E1.27217
G1 X38.115 Y8.549 E1.30429
G1 X38.115 Y8.802 E1.30616
G1 X41.175 Y5.742 E1.33828
G1 X41.175 Y5.995 E1.34015
G1 X38.115 Y9.054 E1.37227
G1 X38.115 Y9.307 E1.37414
G1 X41.175 Y6.247 E1.40626
G1 X41.175 Y6.500 E1.40813
G1 X38.115 Y9.559 E1.44025
G1 X38.115 Y9.812 E1.44212
G1 X41.175 Y6.752 E1.47423
G1 X41.175 Y7.005 E1.47611
G1 X38.115 Y10.064 E1.50822
G1 X38.115 Y10.317 E1.51010
G1 X41.175 Y7.257 E1.54221
G1 X41.175 Y7.510 E1.54409
G1 X38.115 Y10.569 E1.57620
G1 X38.115 Y10.822 E1.57808
G1 X41.175 Y7.762 E1.61019
G1 X41.175 Y8.015 E1.61207
G1 X38.115 Y11.074 E1.64418
G1 X38.115 Y11.327 E1.64606
G1 X41.175 Y8.267 E1.67817
G1 X41.175 Y8.520 E1.68005
G1 X38.115 Y11.579 E1.71216
G1 X38.115 Y11.832 E1.71404
G1 X41.175 Y8.772 E1.74615
G1 X41.175 Y9.025 E1.74803
G1 X38.115 Y12.084 E1.78014
G1 X38.115 Y12.337 E1.78202
G1 X41.175 Y9.277 E1.81413
G1 X41.175 Y9.530 E1.81601
G1 X38.115 Y12.589 E1.84812
G1 X38.115 Y12.842 E1.85000
G1 X41.175 Y9.782 E1.88211
G1 X41.175 Y10.035 E1.88399
G1 X38.115 Y13.094 E1.91610
G1 X38.115 Y13.347 E1.91798
G1 X41.175 Y10.287 E1.95009
G1 X41.175 Y10.540 E1.95197
G1 X38.115 Y13.599 E1.98408
G1 X38.359 Y13.608 E1.98589
G1 X41.175 Y10.792 E2.01545
G1 X41.175 Y11.045 E2.01732
G1 X38.612 Y13.608 E2.04423
G1 X38.864 Y13.608 E2.04610
G1 X41.175 Y11.297 E2.07036
G1 X41.175 Y11.550 E2.07223
G1 X39.117 Y13.608 E2.09384
G1 X39.369 Y13.608 E2.09571
G1 X41.175 Y11.802 E2.11466
G1 X41.175 Y12.055 E2.11654
G1 X39.622 Y13.608 E2.13284
G1 X39.874 Y13.608 E2.13471
G1 X41.175 Y12.307 E2.14837
G1 X41.175 Y12.560 E2.15024
G1 X40.127 Y13.608 E2.16124
G1 X40.379 Y13.608 E2.16312
G1 X41.175 Y12.812 E2.17147
G1 X41.175 Y13.065 E2.17334
G1 X40.632 Y13.608 E2.17904
G1 X40.884 Y13.608 E2.18092
G1 X41.175 Y13.317 E2.18397
G1 X41.175 Y13.570 E2.18584
G1 X41.137 Y13.608 E2.18624
G4 P1
;G201 P1 X1
;G202 P1 X0
;G201 P0 X300
;G201 P0 X0

G1 Z3.000 F7800.000
G0 X10 Y10 ; Laser to park position
G4 P1
G202 P1 X0
G4 P1
G203 P1
G201 P1 X0.3
G203 P1
G4 P1000
G201 P0 X240
G201 P0 X0





G1 E1.28624 F3600.00000
G92 E0
G1 X38.153 Y13.608 F7800.000
G1 E0.90000 F3600.00000
G1 F600
G1 X38.115 Y13.570 E0.90040
G1 X38.115 Y13.317 E0.90227
G1 X38.406 Y13.608 E0.90532
G1 X38.658 Y13.608 E0.90720
G1 X38.115 Y13.065 E0.91290
G1 X38.115 Y12.812 E0.91477
G1 X38.911 Y13.608 E0.92312
G1 X39.163 Y13.608 E0.92500
G1 X38.115 Y12.560 E0.93600
G1 X38.115 Y12.307 E0.93787
G1 X39.416 Y13.608 E0.95152
G1 X39.668 Y13.608 E0.95340
G1 X38.115 Y12.055 E0.96970
G1 X38.115 Y11.802 E0.97158
G1 X39.921 Y13.608 E0.99053
G1 X40.173 Y13.608 E0.99240
G1 X38.115 Y11.550 E1.01401
G1 X38.115 Y11.297 E1.01588
G1 X40.426 Y13.608 E1.04014
G1 X40.678 Y13.608 E1.04201
G1 X38.115 Y11.045 E1.06892
G1 X38.115 Y10.792 E1.07079
G1 X40.931 Y13.608 E1.10035
G1 X41.175 Y13.599 E1.10216
G1 X38.115 Y10.540 E1.13427
G1 X38.115 Y10.287 E1.13615
G1 X41.175 Y13.347 E1.16826
G1 X41.175 Y13.094 E1.17014
G1 X38.115 Y10.035 E1.20225
G1 X38.115 Y9.782 E1.20413
G1 X41.175 Y12.842 E1.23624
G1 X41.175 Y12.589 E1.23812
G1 X38.115 Y9.530 E1.27023
G1 X38.115 Y9.277 E1.27211
G1 X41.175 Y12.337 E1.30422
G1 X41.175 Y12.084 E1.30610
G1 X38.115 Y9.025 E1.33821
G1 X38.115 Y8.772 E1.34009
G1 X41.175 Y11.832 E1.37220
G1 X41.175 Y11.579 E1.37408
G1 X38.115 Y8.520 E1.40619
G1 X38.115 Y8.267 E1.40807
G1 X41.175 Y11.327 E1.44018
G1 X41.175 Y11.074 E1.44206
G1 X38.115 Y8.015 E1.47417
G1 X38.115 Y7.762 E1.47605
G1 X41.175 Y10.822 E1.50816
G1 X41.175 Y10.569 E1.51004
G1 X38.115 Y7.510 E1.54215
G1 X38.115 Y7.257 E1.54403
G1 X41.175 Y10.317 E1.57614
G1 X41.175 Y10.064 E1.57802
G1 X38.115 Y7.005 E1.61013
G1 X38.115 Y6.752 E1.61200
G1 X41.175 Y9.812 E1.64412
G1 X41.175 Y9.559 E1.64599
G1 X38.115 Y6.500 E1.67811
G1 X38.115 Y6.247 E1.67998
G1 X41.175 Y9.307 E1.71210
G1 X41.175 Y9.054 E1.71397
G1 X38.115 Y5.995 E1.74609
G1 X38.115 Y5.742 E1.74796
G1 X41.175 Y8.802 E1.78008
G1 X41.175 Y8.549 E1.78195
G1 X38.115 Y5.490 E1.81407
G1 X38.115 Y5.237 E1.81594
G1 X41.175 Y8.297 E1.84806
G1 X41.175 Y8.044 E1.84993
G1 X38.115 Y4.985 E1.88205
G1 X38.115 Y4.732 E1.88392
G1 X41.175 Y7.792 E1.91604
G1 X41.175 Y7.539 E1.91791
G1 X38.115 Y4.480 E1.95003
G1 X38.115 Y4.227 E1.95190
G1 X41.175 Y7.287 E1.98402
G1 X41.175 Y7.034 E1.98589
G1 X38.359 Y4.219 E2.01545
G1 X38.612 Y4.219 E2.01732
G1 X41.175 Y6.782 E2.04423
G1 X41.175 Y6.529 E2.04610
G1 X38.864 Y4.219 E2.07036
G1 X39.117 Y4.219 E2.07223
G1 X41.175 Y6.277 E2.09384
G1 X41.175 Y6.024 E2.09571
G1 X39.369 Y4.219 E2.11466
G1 X39.622 Y4.219 E2.11654
G1 X41.175 Y5.772 E2.13284
G1 X41.175 Y5.519 E2.13472
G1 X39.874 Y4.219 E2.14837
G1 X40.127 Y4.219 E2.15024
G1 X41.175 Y5.267 E2.16124
G1 X41.175 Y5.014 E2.16312
G1 X40.379 Y4.219 E2.17147
G1 X40.632 Y4.219 E2.17334
G1 X41.175 Y4.762 E2.17904
G1 X41.175 Y4.509 E2.18092
G1 X40.884 Y4.219 E2.18397
G1 X41.137 Y4.219 E2.18584
G1 X41.175 Y4.257 E2.18624
G4 P1
;G201 P1 X1
;G202 P1 X0
;G201 P0 X300
;G201 P0 X0

G1 Z3.100 F7800.000
G0 X10 Y10 ; Laser to park position
G4 P1
G202 P1 X0
G4 P1
G203 P1
G201 P1 X0.3
G203 P1
G4 P1000
G201 P0 X240
G201 P0 X0





G1 E1.28624 F3600.00000
G92 E0
G1 X38.115 Y4.256 F7800.000
G1 E0.90000 F3600.00000
G1 F600
G1 X38.153 Y4.219 E0.90040
G1 X38.406 Y4.219 E0.90227
G1 X38.115 Y4.509 E0.90532
G1 X38.115 Y4.762 E0.90720
G1 X38.658 Y4.219 E0.91290
G1 X38.911 Y4.219 E0.91477
G1 X38.115 Y5.014 E0.92312
G1 X38.115 Y5.267 E0.92500
G1 X39.163 Y4.219 E0.93600
G1 X39.416 Y4.219 E0.93787
G1 X38.115 Y5.519 E0.95152
G1 X38.115 Y5.772 E0.95340
G1 X39.668 Y4.219 E0.96970
G1 X39.921 Y4.219 E0.97158
G1 X38.115 Y6.024 E0.99053
G1 X38.115 Y6.277 E0.99240
G1 X40.173 Y4.219 E1.01401
G1 X40.426 Y4.219 E1.01588
G1 X38.115 Y6.529 E1.04014
G1 X38.115 Y6.782 E1.04201
G1 X40.678 Y4.219 E1.06892
G1 X40.931 Y4.219 E1.07079
G1 X38.115 Y7.034 E1.10035
G1 X38.115 Y7.287 E1.10222
G1 X41.175 Y4.227 E1.13434
G1 X41.175 Y4.480 E1.13621
G1 X38.115 Y7.539 E1.16833
G1 X38.115 Y7.792 E1.17020
G1 X41.175 Y4.732 E1.20232
G1 X41.175 Y4.985 E1.20419
G1 X38.115 Y8.044 E1.23631
G1 X38.115 Y8.297 E1.23818
G1 X41.175 Y5.237 E1.27030
G1 X41.175 Y5.490 E1.27217
G1 X38.115 Y8.549 E1.30429
G1 X38.115 Y8.802 E1.30616
G1 X41.175 Y5.742 E1.33828
G1 X41.175 Y5.995 E1.34015
G1 X38.115 Y9.054 E1.37227
G1 X38.115 Y9.307 E1.37414
G1 X41.175 Y6.247 E1.40626
G1 X41.175 Y6.500 E1.40813
G1 X38.115 Y9.559 E1.44025
G1 X38.115 Y9.812 E1.44212
G1 X41.175 Y6.752 E1.47423
G1 X41.175 Y7.005 E1.47611
G1 X38.115 Y10.064 E1.50822
G1 X38.115 Y10.317 E1.51010
G1 X41.175 Y7.257 E1.54221
G1 X41.175 Y7.510 E1.54409
G1 X38.115 Y10.569 E1.57620
G1 X38.115 Y10.822 E1.57808
G1 X41.175 Y7.762 E1.61019
G1 X41.175 Y8.015 E1.61207
G1 X38.115 Y11.074 E1.64418
G1 X38.115 Y11.327 E1.64606
G1 X41.175 Y8.267 E1.67817
G1 X41.175 Y8.520 E1.68005
G1 X38.115 Y11.579 E1.71216
G1 X38.115 Y11.832 E1.71404
G1 X41.175 Y8.772 E1.74615
G1 X41.175 Y9.025 E1.74803
G1 X38.115 Y12.084 E1.78014
G1 X38.115 Y12.337 E1.78202
G1 X41.175 Y9.277 E1.81413
G1 X41.175 Y9.530 E1.81601
G1 X38.115 Y12.589 E1.84812
G1 X38.115 Y12.842 E1.85000
G1 X41.175 Y9.782 E1.88211
G1 X41.175 Y10.035 E1.88399
G1 X38.115 Y13.094 E1.91610
G1 X38.115 Y13.347 E1.91798
G1 X41.175 Y10.287 E1.95009
G1 X41.175 Y10.540 E1.95197
G1 X38.115 Y13.599 E1.98408
G1 X38.359 Y13.608 E1.98589
G1 X41.175 Y10.792 E2.01545
G1 X41.175 Y11.045 E2.01732
G1 X38.612 Y13.608 E2.04423
G1 X38.864 Y13.608 E2.04610
G1 X41.175 Y11.297 E2.07036
G1 X41.175 Y11.550 E2.07223
G1 X39.117 Y13.608 E2.09384
G1 X39.369 Y13.608 E2.09571
G1 X41.175 Y11.802 E2.11466
G1 X41.175 Y12.055 E2.11654
G1 X39.622 Y13.608 E2.13284
G1 X39.874 Y13.608 E2.13471
G1 X41.175 Y12.307 E2.14837
G1 X41.175 Y12.560 E2.15024
G1 X40.127 Y13.608 E2.16124
G1 X40.379 Y13.608 E2.16312
G1 X41.175 Y12.812 E2.17147
G1 X41.175 Y13.065 E2.17334
G1 X40.632 Y13.608 E2.17904
G1 X40.884 Y13.608 E2.18092
G1 X41.175 Y13.317 E2.18397
G1 X41.175 Y13.570 E2.18584
G1 X41.137 Y13.608 E2.18624
G4 P1
;G201 P1 X1
;G202 P1 X0
;G201 P0 X300
;G201 P0 X0

G1 Z3.200 F7800.000
G0 X10 Y10 ; Laser to park position
G4 P1
G202 P1 X0
G4 P1
G203 P1
G201 P1 X0.3
G203 P1
G4 P1000
G201 P0 X240
G201 P0 X0





G1 E1.28624 F3600.00000
G92 E0
G1 X38.153 Y13.608 F7800.000
G1 E0.90000 F3600.00000
G1 F600
G1 X38.115 Y13.570 E0.90040
G1 X38.115 Y13.317 E0.90227
G1 X38.406 Y13.608 E0.90532
G1 X38.658 Y13.608 E0.90720
G1 X38.115 Y13.065 E0.91290
G1 X38.115 Y12.812 E0.91477
G1 X38.911 Y13.608 E0.92312
G1 X39.163 Y13.608 E0.92500
G1 X38.115 Y12.560 E0.93600
G1 X38.115 Y12.307 E0.93787
G1 X39.416 Y13.608 E0.95152
G1 X39.668 Y13.608 E0.95340
G1 X38.115 Y12.055 E0.96970
G1 X38.115 Y11.802 E0.97158
G1 X39.921 Y13.608 E0.99053
G1 X40.173 Y13.608 E0.99240
G1 X38.115 Y11.550 E1.01401
G1 X38.115 Y11.297 E1.01588
G1 X40.426 Y13.608 E1.04014
G1 X40.678 Y13.608 E1.04201
G1 X38.115 Y11.045 E1.06892
G1 X38.115 Y10.792 E1.07079
G1 X40.931 Y13.608 E1.10035
G1 X41.175 Y13.599 E1.10216
G1 X38.115 Y10.540 E1.13427
G1 X38.115 Y10.287 E1.13615
G1 X41.175 Y13.347 E1.16826
G1 X41.175 Y13.094 E1.17014
G1 X38.115 Y10.035 E1.20225
G1 X38.115 Y9.782 E1.20413
G1 X41.175 Y12.842 E1.23624
G1 X41.175 Y12.589 E1.23812
G1 X38.115 Y9.530 E1.27023
G1 X38.115 Y9.277 E1.27211
G1 X41.175 Y12.337 E1.30422
G1 X41.175 Y12.084 E1.30610
G1 X38.115 Y9.025 E1.33821
G1 X38.115 Y8.772 E1.34009
G1 X41.175 Y11.832 E1.37220
G1 X41.175 Y11.579 E1.37408
G1 X38.115 Y8.520 E1.40619
G1 X38.115 Y8.267 E1.40807
G1 X41.175 Y11.327 E1.44018
G1 X41.175 Y11.074 E1.44206
G1 X38.115 Y8.015 E1.47417
G1 X38.115 Y7.762 E1.47605
G1 X41.175 Y10.822 E1.50816
G1 X41.175 Y10.569 E1.51004
G1 X38.115 Y7.510 E1.54215
G1 X38.115 Y7.257 E1.54403
G1 X41.175 Y10.317 E1.57614
G1 X41.175 Y10.064 E1.57802
G1 X38.115 Y7.005 E1.61013
G1 X38.115 Y6.752 E1.61200
G1 X41.175 Y9.812 E1.64412
G1 X41.175 Y9.559 E1.64599
G1 X38.115 Y6.500 E1.67811
G1 X38.115 Y6.247 E1.67998
G1 X41.175 Y9.307 E1.71210
G1 X41.175 Y9.054 E1.71397
G1 X38.115 Y5.995 E1.74609
G1 X38.115 Y5.742 E1.74796
G1 X41.175 Y8.802 E1.78008
G1 X41.175 Y8.549 E1.78195
G1 X38.115 Y5.490 E1.81407
G1 X38.115 Y5.237 E1.81594
G1 X41.175 Y8.297 E1.84806
G1 X41.175 Y8.044 E1.84993
G1 X38.115 Y4.985 E1.88205
G1 X38.115 Y4.732 E1.88392
G1 X41.175 Y7.792 E1.91604
G1 X41.175 Y7.539 E1.91791
G1 X38.115 Y4.480 E1.95003
G1 X38.115 Y4.227 E1.95190
G1 X41.175 Y7.287 E1.98402
G1 X41.175 Y7.034 E1.98589
G1 X38.359 Y4.219 E2.01545
G1 X38.612 Y4.219 E2.01732
G1 X41.175 Y6.782 E2.04423
G1 X41.175 Y6.529 E2.04610
G1 X38.864 Y4.219 E2.07036
G1 X39.117 Y4.219 E2.07223
G1 X41.175 Y6.277 E2.09384
G1 X41.175 Y6.024 E2.09571
G1 X39.369 Y4.219 E2.11466
G1 X39.622 Y4.219 E2.11654
G1 X41.175 Y5.772 E2.13284
G1 X41.175 Y5.519 E2.13472
G1 X39.874 Y4.219 E2.14837
G1 X40.127 Y4.219 E2.15024
G1 X41.175 Y5.267 E2.16124
G1 X41.175 Y5.014 E2.16312
G1 X40.379 Y4.219 E2.17147
G1 X40.632 Y4.219 E2.17334
G1 X41.175 Y4.762 E2.17904
G1 X41.175 Y4.509 E2.18092
G1 X40.884 Y4.219 E2.18397
G1 X41.137 Y4.219 E2.18584
G1 X41.175 Y4.257 E2.18624
G4 P1
;G201 P1 X1
;G202 P1 X0
;G201 P0 X300
;G201 P0 X0

G1 Z3.300 F7800.000
G0 X10 Y10 ; Laser to park position
G4 P1
G202 P1 X0
G4 P1
G203 P1
G201 P1 X0.3
G203 P1
G4 P1000
G201 P0 X240
G201 P0 X0





G1 E1.28624 F3600.00000
G92 E0
G1 X38.115 Y4.256 F7800.000
G1 E0.90000 F3600.00000
G1 F600
G1 X38.153 Y4.219 E0.90040
G1 X38.406 Y4.219 E0.90227
G1 X38.115 Y4.509 E0.90532
G1 X38.115 Y4.762 E0.90720
G1 X38.658 Y4.219 E0.91290
G1 X38.911 Y4.219 E0.91477
G1 X38.115 Y5.014 E0.92312
G1 X38.115 Y5.267 E0.92500
G1 X39.163 Y4.219 E0.93600
G1 X39.416 Y4.219 E0.93787
G1 X38.115 Y5.519 E0.95152
G1 X38.115 Y5.772 E0.95340
G1 X39.668 Y4.219 E0.96970
G1 X39.921 Y4.219 E0.97158
G1 X38.115 Y6.024 E0.99053
G1 X38.115 Y6.277 E0.99240
G1 X40.173 Y4.219 E1.01401
G1 X40.426 Y4.219 E1.01588
G1 X38.115 Y6.529 E1.04014
G1 X38.115 Y6.782 E1.04201
G1 X40.678 Y4.219 E1.06892
G1 X40.931 Y4.219 E1.07079
G1 X38.115 Y7.034 E1.10035
G1 X38.115 Y7.287 E1.10222
G1 X41.175 Y4.227 E1.13434
G1 X41.175 Y4.480 E1.13621
G1 X38.115 Y7.539 E1.16833
G1 X38.115 Y7.792 E1.17020
G1 X41.175 Y4.732 E1.20232
G1 X41.175 Y4.985 E1.20419
G1 X38.115 Y8.044 E1.23631
G1 X38.115 Y8.297 E1.23818
G1 X41.175 Y5.237 E1.27030
G1 X41.175 Y5.490 E1.27217
G1 X38.115 Y8.549 E1.30429
G1 X38.115 Y8.802 E1.30616
G1 X41.175 Y5.742 E1.33828
G1 X41.175 Y5.995 E1.34015
G1 X38.115 Y9.054 E1.37227
G1 X38.115 Y9.307 E1.37414
G1 X41.175 Y6.247 E1.40626
G1 X41.175 Y6.500 E1.40813
G1 X38.115 Y9.559 E1.44025
G1 X38.115 Y9.812 E1.44212
G1 X41.175 Y6.752 E1.47423
G1 X41.175 Y7.005 E1.47611
G1 X38.115 Y10.064 E1.50822
G1 X38.115 Y10.317 E1.51010
G1 X41.175 Y7.257 E1.54221
G1 X41.175 Y7.510 E1.54409
G1 X38.115 Y10.569 E1.57620
G1 X38.115 Y10.822 E1.57808
G1 X41.175 Y7.762 E1.61019
G1 X41.175 Y8.015 E1.61207
G1 X38.115 Y11.074 E1.64418
G1 X38.115 Y11.327 E1.64606
G1 X41.175 Y8.267 E1.67817
G1 X41.175 Y8.520 E1.68005
G1 X38.115 Y11.579 E1.71216
G1 X38.115 Y11.832 E1.71404
G1 X41.175 Y8.772 E1.74615
G1 X41.175 Y9.025 E1.74803
G1 X38.115 Y12.084 E1.78014
G1 X38.115 Y12.337 E1.78202
G1 X41.175 Y9.277 E1.81413
G1 X41.175 Y9.530 E1.81601
G1 X38.115 Y12.589 E1.84812
G1 X38.115 Y12.842 E1.85000
G1 X41.175 Y9.782 E1.88211
G1 X41.175 Y10.035 E1.88399
G1 X38.115 Y13.094 E1.91610
G1 X38.115 Y13.347 E1.91798
G1 X41.175 Y10.287 E1.95009
G1 X41.175 Y10.540 E1.95197
G1 X38.115 Y13.599 E1.98408
G1 X38.359 Y13.608 E1.98589
G1 X41.175 Y10.792 E2.01545
G1 X41.175 Y11.045 E2.01732
G1 X38.612 Y13.608 E2.04423
G1 X38.864 Y13.608 E2.04610
G1 X41.175 Y11.297 E2.07036
G1 X41.175 Y11.550 E2.07223
G1 X39.117 Y13.608 E2.09384
G1 X39.369 Y13.608 E2.09571
G1 X41.175 Y11.802 E2.11466
G1 X41.175 Y12.055 E2.11654
G1 X39.622 Y13.608 E2.13284
G1 X39.874 Y13.608 E2.13471
G1 X41.175 Y12.307 E2.14837
G1 X41.175 Y12.560 E2.15024
G1 X40.127 Y13.608 E2.16124
G1 X40.379 Y13.608 E2.16312
G1 X41.175 Y12.812 E2.17147
G1 X41.175 Y13.065 E2.17334
G1 X40.632 Y13.608 E2.17904
G1 X40.884 Y13.608 E2.18092
G1 X41.175 Y13.317 E2.18397
G1 X41.175 Y13.570 E2.18584
